( pcb2gcode 2.5.0 )
( Software-independent Gcode )

G94 ( Millimeters per minute feed rate. )
G21 ( Units == Millimeters. )

G90 ( Absolute coordinates. )
G00 S3000 ( RPM spindle speed. )
G64 P0.00500 ( set maximum deviation from commanded toolpath )
G01 F600.00000 ( Feedrate. )


G00 Z10.00000 (Retract to tool change height)
T1
M5      (Spindle stop.)
G04 P1.00000 (Wait for spindle to stop)
(MSG, Change tool bit to mill diameter 0.50000mm)
M6      (Tool change.)
M0      (Temporary machine stop.)
M3 ( Spindle on clockwise. )
G04 P1.00000 (Wait for spindle to get up to speed)
G04 P0 ( dwell for no time -- G64 should not smooth over this point )
G00 Z5.00000 ( retract )

G00 X-2.74752 Y76.68692 ( rapid move to begin. )
G01 F300.00000
( Mill infeed pass 1/1 )
G01 Z-0.02000
G04 P0 ( dwell for no time -- G64 should not smooth over this point )
G01 F600.00000
G01 X-2.74752 Y76.68692
G01 X-2.73032 Y76.63013
G01 X-2.72080 Y76.58207
G01 X-2.70998 Y76.46003
G01 X-2.70998 Y74.05294
G01 X-2.65156 Y73.99879
G01 X-2.52875 Y73.84725
G01 X-2.42522 Y73.65363
G01 X-2.36743 Y73.46732
G01 X-2.35791 Y73.41924
G01 X-2.33998 Y73.22501
G01 X-2.33998 Y72.77502
G01 X-2.35791 Y72.58079
G01 X-2.36743 Y72.53270
G01 X-2.42522 Y72.34642
G01 X-2.51613 Y72.17383
G01 X-2.54335 Y72.13306
G01 X-2.65156 Y72.00123
G01 X-2.70998 Y71.94708
G01 X-2.70998 Y68.35527
G01 X-2.59814 Y68.32009
G01 X-2.43769 Y68.23566
G01 X-2.39692 Y68.20843
G01 X-2.27571 Y68.10896
G01 X-2.24104 Y68.07429
G01 X-2.14155 Y67.95306
G01 X-2.11432 Y67.91232
G01 X-2.04041 Y67.77401
G01 X-2.02164 Y67.72872
G01 X-1.97612 Y67.57866
G01 X-1.96657 Y67.53058
G01 X-1.95118 Y67.37452
G01 X-1.95118 Y67.32550
G01 X-1.96657 Y67.16944
G01 X-1.97612 Y67.12136
G01 X-2.02992 Y66.94818
G01 X-2.11432 Y66.78771
G01 X-2.14155 Y66.74696
G01 X-2.24998 Y66.61587
G01 X-2.25115 Y64.97552
G01 X-2.26080 Y64.87796
G01 X-2.27036 Y64.82990
G01 X-2.30708 Y64.71301
G01 X-2.36378 Y64.60437
G01 X-2.39101 Y64.56363
G01 X-2.45318 Y64.48786
G01 X-6.46964 Y60.46968
G01 X-6.56359 Y60.39105
G01 X-6.60433 Y60.36382
G01 X-6.71297 Y60.30712
G01 X-6.82986 Y60.27040
G01 X-6.87792 Y60.26085
G01 X-6.99999 Y60.25003
G01 X-11.99998 Y60.25003
G01 X-12.12202 Y60.26085
G01 X-12.17008 Y60.27040
G01 X-12.28697 Y60.30712
G01 X-12.39561 Y60.36382
G01 X-12.43635 Y60.39105
G01 X-12.53030 Y60.46968
G01 X-12.60894 Y60.56364
G01 X-12.63617 Y60.60438
G01 X-12.68237 Y60.69084
G01 X-12.70114 Y60.73610
G01 X-12.72959 Y60.82991
G01 X-12.73914 Y60.87796
G01 X-12.74996 Y61.00001
G01 X-12.74996 Y65.09937
G01 X-13.79065 Y66.14001
G01 X-14.24999 Y66.14001
G01 X-14.30858 Y66.20627
G01 X-14.34686 Y66.26754
G01 X-14.36982 Y66.32878
G01 X-14.37747 Y66.39002
G01 X-14.37747 Y66.74524
G01 X-14.37028 Y66.80132
G01 X-14.36497 Y66.91504
G01 X-14.36497 Y67.36502
G01 X-14.37028 Y67.47874
G01 X-14.38783 Y67.60452
G01 X-14.41890 Y67.73396
G01 X-14.49344 Y67.94859
G01 X-14.54971 Y67.99479
G01 X-14.59047 Y68.02202
G01 X-14.70340 Y68.08102
G01 X-14.82499 Y68.11915
G01 X-14.87307 Y68.12872
G01 X-14.97549 Y68.13881
G01 X-15.02448 Y68.13881
G01 X-15.12692 Y68.12872
G01 X-15.17498 Y68.11915
G01 X-15.29657 Y68.08102
G01 X-15.43055 Y68.00939
G01 X-15.51996 Y67.93759
G01 X-15.58189 Y67.77605
G01 X-15.62435 Y67.60818
G01 X-15.63497 Y67.53662
G01 X-15.63497 Y66.74341
G01 X-15.65141 Y66.64272
G01 X-15.67719 Y66.53983
G01 X-15.72489 Y66.40114
G01 X-15.74998 Y66.34247
G01 X-15.74998 Y62.97001
G01 X-16.59999 Y62.97001
G01 X-16.64876 Y62.96521
G01 X-16.69565 Y62.95098
G01 X-16.73888 Y62.92787
G01 X-16.77675 Y62.89678
G01 X-16.80787 Y62.85891
G01 X-16.83096 Y62.81568
G01 X-16.84518 Y62.76879
G01 X-16.84998 Y62.72002
G01 X-16.84998 Y59.52000
G01 X-16.84518 Y59.47124
G01 X-16.83096 Y59.42435
G01 X-16.80787 Y59.38112
G01 X-16.77675 Y59.34325
G01 X-16.73888 Y59.31216
G01 X-16.69565 Y59.28904
G01 X-16.64876 Y59.27482
G01 X-16.59999 Y59.27002
G01 X-16.24998 Y59.27002
G01 X-16.24998 Y58.51780
G01 X-17.51775 Y57.25003
G01 X-22.02447 Y57.24884
G01 X-22.24382 Y57.22600
G01 X-22.47832 Y57.15488
G01 X-22.67339 Y57.05199
G01 X-22.71413 Y57.02476
G01 X-22.88385 Y56.88392
G01 X-23.02470 Y56.71419
G01 X-23.05192 Y56.67345
G01 X-23.15863 Y56.46771
G01 X-26.46314 Y53.16320
G01 X-26.60617 Y52.98893
G01 X-26.70195 Y52.81230
G01 X-26.72070 Y52.76701
G01 X-26.77788 Y52.57437
G01 X-26.79997 Y52.35002
G01 X-26.79997 Y50.00001
G01 X-26.78148 Y49.79993
G01 X-26.77191 Y49.75187
G01 X-26.72070 Y49.58304
G01 X-26.70195 Y49.53775
G01 X-26.61877 Y49.38215
G01 X-26.59154 Y49.34141
G01 X-26.47963 Y49.20504
G01 X-26.44496 Y49.17037
G01 X-26.28887 Y49.04382
G01 X-26.11224 Y48.94804
G01 X-26.06695 Y48.92930
G01 X-25.87432 Y48.87212
G01 X-25.67447 Y48.85122
G01 X-25.62548 Y48.85122
G01 X-25.44989 Y48.86851
G01 X-25.40183 Y48.87809
G01 X-25.23300 Y48.92930
G01 X-25.18771 Y48.94804
G01 X-25.01108 Y49.04382
G01 X-24.85499 Y49.17037
G01 X-24.82032 Y49.20504
G01 X-24.70841 Y49.34141
G01 X-24.68118 Y49.38215
G01 X-24.59800 Y49.53775
G01 X-24.57925 Y49.58304
G01 X-24.52208 Y49.77567
G01 X-24.49998 Y50.00001
G01 X-24.49998 Y51.87369
G01 X-21.62363 Y54.75004
G01 X-16.99997 Y54.75004
G01 X-16.75613 Y54.77406
G01 X-16.54472 Y54.83693
G01 X-16.49944 Y54.85567
G01 X-16.32656 Y54.94808
G01 X-16.28582 Y54.97531
G01 X-16.11610 Y55.11615
G01 X-14.11610 Y57.11615
G01 X-13.97526 Y57.28587
G01 X-13.94803 Y57.32661
G01 X-13.85563 Y57.49948
G01 X-13.83688 Y57.54477
G01 X-13.77402 Y57.75618
G01 X-13.75118 Y57.97553
G01 X-13.74999 Y59.27002
G01 X-13.39997 Y59.27002
G01 X-13.35121 Y59.27482
G01 X-13.30432 Y59.28904
G01 X-13.26109 Y59.31216
G01 X-13.22322 Y59.34325
G01 X-13.19213 Y59.38112
G01 X-13.16901 Y59.42435
G01 X-13.15479 Y59.47124
G01 X-13.14999 Y59.52000
G01 X-13.14999 Y62.72002
G01 X-13.15479 Y62.76879
G01 X-13.16901 Y62.81568
G01 X-13.19213 Y62.85891
G01 X-13.22322 Y62.89678
G01 X-13.26109 Y62.92787
G01 X-13.30432 Y62.95098
G01 X-13.35121 Y62.96521
G01 X-13.39997 Y62.97001
G01 X-14.24999 Y62.97001
G01 X-14.24999 Y66.14001
G01 X-14.30858 Y66.20627
G01 X-14.34686 Y66.26754
G01 X-14.36982 Y66.32878
G01 X-14.37747 Y66.39002
G01 X-14.37747 Y66.74524
G01 X-14.37028 Y66.80132
G01 X-14.36497 Y66.91504
G01 X-14.36497 Y67.36502
G01 X-14.37028 Y67.47874
G01 X-14.38783 Y67.60452
G01 X-14.42895 Y67.76708
G01 X-14.49344 Y67.94859
G01 X-14.54971 Y67.99479
G01 X-14.59047 Y68.02202
G01 X-14.68123 Y68.07053
G01 X-14.72652 Y68.08928
G01 X-14.82499 Y68.11915
G01 X-14.87307 Y68.12872
G01 X-15.00000 Y68.14000
G01 X-15.12692 Y68.12872
G01 X-15.17498 Y68.11915
G01 X-15.27348 Y68.08928
G01 X-15.31874 Y68.07053
G01 X-15.43055 Y68.00939
G01 X-15.51996 Y67.93759
G01 X-15.51999 Y69.85003
G01 X-13.47630 Y69.85003
G01 X-11.14997 Y67.52370
G01 X-11.14997 Y63.00001
G01 X-11.12787 Y62.77567
G01 X-11.07069 Y62.58304
G01 X-11.05195 Y62.53775
G01 X-10.95616 Y62.36112
G01 X-10.82962 Y62.20504
G01 X-10.79495 Y62.17037
G01 X-10.65858 Y62.05845
G01 X-10.61784 Y62.03123
G01 X-10.46224 Y61.94804
G01 X-10.41695 Y61.92930
G01 X-10.22431 Y61.87212
G01 X-10.02447 Y61.85122
G01 X-9.97547 Y61.85122
G01 X-9.77562 Y61.87212
G01 X-9.58299 Y61.92930
G01 X-9.53770 Y61.94804
G01 X-9.36107 Y62.04382
G01 X-9.20499 Y62.17037
G01 X-9.17032 Y62.20504
G01 X-9.04377 Y62.36112
G01 X-8.94799 Y62.53775
G01 X-8.92924 Y62.58304
G01 X-8.87207 Y62.77567
G01 X-8.84997 Y63.00001
G01 X-8.84997 Y68.00002
G01 X-8.87207 Y68.22438
G01 X-8.92924 Y68.41701
G01 X-8.94799 Y68.46230
G01 X-9.04377 Y68.63893
G01 X-9.18680 Y68.81320
G01 X-12.18679 Y71.81320
G01 X-12.36106 Y71.95622
G01 X-12.53770 Y72.05201
G01 X-12.58298 Y72.07075
G01 X-12.75182 Y72.12196
G01 X-12.79987 Y72.13154
G01 X-12.99995 Y72.15003
G01 X-34.84850 Y72.15003
G01 X-34.90433 Y72.18348
G01 X-34.95121 Y72.19770
G01 X-34.99998 Y72.20250
G01 X-36.99998 Y72.20250
G01 X-37.04877 Y72.19770
G01 X-37.09566 Y72.18348
G01 X-37.13889 Y72.16039
G01 X-37.17676 Y72.12930
G01 X-37.20785 Y72.09140
G01 X-37.23097 Y72.04817
G01 X-37.24519 Y72.00128
G01 X-37.24999 Y71.95252
G01 X-37.24999 Y70.04752
G01 X-37.24519 Y69.99875
G01 X-37.23097 Y69.95183
G01 X-37.20785 Y69.90863
G01 X-37.17676 Y69.87073
G01 X-37.13889 Y69.83964
G01 X-37.09566 Y69.81655
G01 X-37.04877 Y69.80230
G01 X-36.99998 Y69.79750
G01 X-34.99998 Y69.79750
G01 X-34.95121 Y69.80230
G01 X-34.90433 Y69.81655
G01 X-34.84845 Y69.85003
G01 X-17.01998 Y69.85003
G01 X-17.01998 Y67.55369
G01 X-17.03370 Y67.49195
G01 X-17.04498 Y67.36502
G01 X-17.04378 Y66.89050
G01 X-17.03370 Y66.78809
G01 X-17.02412 Y66.74003
G01 X-16.98600 Y66.61844
G01 X-16.92699 Y66.50549
G01 X-16.89976 Y66.46474
G01 X-16.83446 Y66.38519
G01 X-16.79982 Y66.35052
G01 X-16.72026 Y66.28524
G01 X-16.67952 Y66.25801
G01 X-16.56657 Y66.19901
G01 X-16.44498 Y66.16086
G01 X-16.39692 Y66.15131
G01 X-16.27000 Y66.14001
G01 X-16.14307 Y66.15131
G01 X-16.09499 Y66.16086
G01 X-15.97340 Y66.19901
G01 X-15.86047 Y66.25801
G01 X-15.81971 Y66.28524
G01 X-15.74998 Y66.34247
G01 X-15.72489 Y66.40114
G01 X-15.67719 Y66.53983
G01 X-15.65141 Y66.64272
G01 X-15.63497 Y66.74341
G01 X-15.63497 Y67.53662
G01 X-15.61856 Y67.63728
G01 X-15.58189 Y67.77605
G01 X-15.51996 Y67.93759
G01 X-15.43055 Y68.00939
G01 X-15.31874 Y68.07053
G01 X-15.27348 Y68.08928
G01 X-15.17498 Y68.11915
G01 X-15.12692 Y68.12872
G01 X-15.00000 Y68.14000
G01 X-14.87307 Y68.12872
G01 X-14.82499 Y68.11915
G01 X-14.72652 Y68.08928
G01 X-14.68123 Y68.07053
G01 X-14.59047 Y68.02202
G01 X-14.54971 Y67.99479
G01 X-14.49344 Y67.94859
G01 X-14.49530 Y67.95491
G01 X-14.48595 Y67.98567
G01 X-14.46286 Y68.02890
G01 X-14.43177 Y68.06680
G01 X-14.39388 Y68.09789
G01 X-14.35065 Y68.12098
G01 X-14.30376 Y68.13520
G01 X-14.25499 Y68.14000
G01 X-13.20498 Y68.14000
G01 X-13.15621 Y68.13520
G01 X-13.10932 Y68.12098
G01 X-13.06609 Y68.09789
G01 X-13.02822 Y68.06680
G01 X-12.99713 Y68.02890
G01 X-12.97402 Y67.98567
G01 X-12.95979 Y67.93878
G01 X-12.95499 Y67.89001
G01 X-12.95499 Y67.42568
G01 X-11.46965 Y65.94036
G01 X-11.40536 Y65.86627
G01 X-11.34130 Y65.76764
G01 X-11.32350 Y65.73269
G01 X-11.28134 Y65.62289
G01 X-11.25690 Y65.50785
G01 X-11.24997 Y65.41001
G01 X-11.24997 Y61.75002
G01 X-7.31063 Y61.75002
G01 X-3.74998 Y65.31067
G01 X-3.74998 Y66.61679
G01 X-3.85841 Y66.74696
G01 X-3.88564 Y66.78771
G01 X-3.97007 Y66.94818
G01 X-4.02384 Y67.12136
G01 X-4.03342 Y67.16944
G01 X-4.04993 Y67.35141
G01 X-4.09618 Y67.41437
G01 X-4.15288 Y67.52301
G01 X-4.18960 Y67.63990
G01 X-4.19915 Y67.68796
G01 X-4.20878 Y67.78552
G01 X-4.20998 Y71.94706
G01 X-4.26842 Y72.00123
G01 X-4.39123 Y72.15277
G01 X-4.49473 Y72.34642
G01 X-4.55249 Y72.53270
G01 X-4.56207 Y72.58079
G01 X-4.57998 Y72.77502
G01 X-4.57998 Y73.22501
G01 X-4.56207 Y73.41924
G01 X-4.55249 Y73.46732
G01 X-4.49473 Y73.65363
G01 X-4.40385 Y73.82620
G01 X-4.37662 Y73.86697
G01 X-4.26842 Y73.99879
G01 X-4.20998 Y74.05297
G01 X-4.20998 Y76.14936
G01 X-5.11063 Y77.05004
G01 X-33.46435 Y77.05004
G01 X-33.63824 Y77.09360
G01 X-33.85434 Y77.12772
G01 X-34.07997 Y77.14006
G01 X-35.63026 Y77.14006
G01 X-35.75258 Y77.15677
G01 X-35.95248 Y77.16630
G01 X-36.06061 Y77.16597
G01 X-36.24735 Y77.15677
G01 X-36.36968 Y77.14006
G01 X-39.99576 Y77.14006
G01 X-40.08681 Y77.16145
G01 X-40.25738 Y77.18672
G01 X-40.44991 Y77.19729
G01 X-40.64059 Y77.18890
G01 X-40.83314 Y77.16145
G01 X-41.03139 Y77.11319
G01 X-41.21353 Y77.05004
G01 X-42.24640 Y77.05004
G01 X-42.42854 Y77.11319
G01 X-42.62681 Y77.16145
G01 X-42.81937 Y77.18890
G01 X-43.01005 Y77.19729
G01 X-43.20258 Y77.18672
G01 X-43.40083 Y77.15591
G01 X-43.57139 Y77.11319
G01 X-43.75356 Y77.05004
G01 X-43.80842 Y76.99879
G01 X-43.93123 Y76.84725
G01 X-44.02425 Y76.67580
G01 X-44.04299 Y76.63051
G01 X-44.09857 Y76.44301
G01 X-44.11652 Y76.26597
G01 X-44.13149 Y76.20011
G01 X-44.14998 Y76.00001
G01 X-44.14998 Y72.00001
G01 X-44.12788 Y71.77568
G01 X-44.07070 Y71.58305
G01 X-44.05196 Y71.53776
G01 X-43.95617 Y71.36113
G01 X-43.81315 Y71.18686
G01 X-40.58996 Y67.96367
G01 X-40.58996 Y54.34003
G01 X-40.57914 Y54.21796
G01 X-40.56959 Y54.16990
G01 X-40.53286 Y54.05301
G01 X-40.47617 Y53.94437
G01 X-40.44894 Y53.90363
G01 X-40.37030 Y53.80968
G01 X-40.27635 Y53.73104
G01 X-40.23561 Y53.70381
G01 X-40.12697 Y53.64712
G01 X-40.02578 Y53.61514
G01 X-32.39943 Y45.98884
G01 X-32.38340 Y45.81945
G01 X-32.37385 Y45.77136
G01 X-32.32005 Y45.59819
G01 X-32.23565 Y45.43771
G01 X-32.20842 Y45.39697
G01 X-32.10893 Y45.27573
G01 X-32.07428 Y45.24106
G01 X-31.95305 Y45.14157
G01 X-31.91228 Y45.11437
G01 X-31.77398 Y45.04043
G01 X-31.72872 Y45.02168
G01 X-31.57863 Y44.97614
G01 X-31.53057 Y44.96659
G01 X-31.37449 Y44.95122
G01 X-31.32549 Y44.95122
G01 X-31.16941 Y44.96659
G01 X-31.12135 Y44.97614
G01 X-30.94817 Y45.02994
G01 X-30.78767 Y45.11437
G01 X-30.74693 Y45.14157
G01 X-30.62570 Y45.24106
G01 X-30.59105 Y45.27573
G01 X-30.49156 Y45.39697
G01 X-30.46433 Y45.43771
G01 X-30.37993 Y45.59819
G01 X-30.32613 Y45.77136
G01 X-30.31655 Y45.81945
G01 X-30.30119 Y45.97550
G01 X-30.30119 Y46.02453
G01 X-30.31655 Y46.18058
G01 X-30.32613 Y46.22867
G01 X-30.37993 Y46.40182
G01 X-30.46433 Y46.56232
G01 X-30.49156 Y46.60306
G01 X-30.59105 Y46.72430
G01 X-30.62570 Y46.75894
G01 X-30.74693 Y46.85843
G01 X-30.78767 Y46.88566
G01 X-30.92600 Y46.95960
G01 X-30.97126 Y46.97835
G01 X-31.12135 Y47.02386
G01 X-31.16941 Y47.03344
G01 X-31.33875 Y47.04947
G01 X-39.08997 Y54.80005
G01 X-39.08997 Y66.85768
G01 X-38.99997 Y66.85004
G01 X-36.96328 Y66.85004
G01 X-36.90338 Y66.86896
G01 X-36.70966 Y66.91562
G01 X-36.52154 Y66.94196
G01 X-36.33523 Y66.94968
G01 X-36.17839 Y66.94196
G01 X-35.99030 Y66.91562
G01 X-35.79658 Y66.86896
G01 X-35.73668 Y66.85004
G01 X-35.62571 Y66.75895
G01 X-35.59104 Y66.72431
G01 X-35.49155 Y66.60307
G01 X-35.46432 Y66.56231
G01 X-35.39041 Y66.42400
G01 X-35.37166 Y66.37874
G01 X-35.32612 Y66.22865
G01 X-35.31657 Y66.18059
G01 X-35.30054 Y66.01123
G01 X-33.46963 Y64.18037
G01 X-33.38231 Y64.07455
G01 X-33.32351 Y63.97270
G01 X-33.28134 Y63.86290
G01 X-33.25691 Y63.74786
G01 X-33.24997 Y63.65002
G01 X-33.24997 Y60.00001
G01 X-33.26079 Y59.87797
G01 X-33.27034 Y59.82991
G01 X-33.29879 Y59.73611
G01 X-33.31756 Y59.69084
G01 X-33.36377 Y59.60438
G01 X-33.39099 Y59.56364
G01 X-33.45317 Y59.48787
G01 X-34.24997 Y58.68937
G01 X-34.24997 Y55.81069
G01 X-27.18933 Y48.75002
G01 X-23.31062 Y48.75002
G01 X-20.53031 Y51.53036
G01 X-20.43636 Y51.60900
G01 X-20.39562 Y51.63622
G01 X-20.30916 Y51.68243
G01 X-20.26389 Y51.70120
G01 X-20.17009 Y51.72965
G01 X-20.12203 Y51.73920
G01 X-19.99999 Y51.75002
G01 X-5.31063 Y51.75002
G01 X-3.74998 Y53.31067
G01 X-3.74998 Y53.91679
G01 X-3.85841 Y54.04696
G01 X-3.88564 Y54.08771
G01 X-3.97007 Y54.24818
G01 X-4.02384 Y54.42136
G01 X-4.03342 Y54.46944
G01 X-4.04879 Y54.62550
G01 X-4.04879 Y54.67452
G01 X-4.03342 Y54.83058
G01 X-4.02384 Y54.87866
G01 X-3.97007 Y55.05184
G01 X-3.88564 Y55.21232
G01 X-3.85841 Y55.25306
G01 X-3.74998 Y55.38323
G01 X-3.74998 Y58.00002
G01 X-3.73916 Y58.12209
G01 X-3.72961 Y58.17015
G01 X-3.69288 Y58.28704
G01 X-3.63619 Y58.39567
G01 X-3.60896 Y58.43641
G01 X-3.53032 Y58.53037
G01 X-1.74999 Y60.31068
G01 X-1.74999 Y75.68936
G01 X-2.74752 Y76.68692
G01 X-2.79420 Y76.76033
G01 X-2.85323 Y76.83991
G01 X-2.95997 Y76.96002
G01 X-4.29286 Y78.29292
G01 X-4.39710 Y78.33218
G01 X-4.52234 Y78.36774
G01 X-4.61889 Y78.38623
G01 X-4.71363 Y78.39680
G01 X-4.79209 Y78.39987
G01 X-44.99996 Y78.40005
G01 X-45.10784 Y78.39497
G01 X-45.22661 Y78.37839
G01 X-45.37946 Y78.33973
G01 X-45.47746 Y78.30465
G01 X-45.59780 Y78.25007
G01 X-45.63618 Y78.19568
G01 X-45.69287 Y78.08705
G01 X-45.73097 Y77.96472
G01 X-46.08680 Y77.60717
G01 X-46.14898 Y77.53140
G01 X-46.17621 Y77.49063
G01 X-46.22241 Y77.40419
G01 X-46.24784 Y77.33683
G01 X-46.35132 Y77.30696
G01 X-46.41672 Y77.27338
G01 X-46.45749 Y77.24613
G01 X-46.53001 Y77.18042
G01 X-46.56110 Y77.14250
G01 X-46.59158 Y77.09571
G01 X-46.69442 Y77.03935
G01 X-46.88386 Y76.88393
G01 X-54.66885 Y69.09890
G01 X-54.82430 Y68.90949
G01 X-54.92933 Y68.71557
G01 X-54.94808 Y68.67028
G01 X-55.00500 Y68.48267
G01 X-55.01455 Y68.43462
G01 X-55.03497 Y68.21501
G01 X-55.03497 Y50.97501
G01 X-55.01455 Y50.75543
G01 X-55.00500 Y50.70737
G01 X-54.94808 Y50.51977
G01 X-54.92933 Y50.47448
G01 X-54.83690 Y50.30161
G01 X-54.80970 Y50.26087
G01 X-54.66885 Y50.09114
G01 X-54.53497 Y49.97971
G01 X-54.53497 Y45.78500
G01 X-54.52054 Y45.63870
G01 X-54.47787 Y45.49801
G01 X-54.42118 Y45.38937
G01 X-54.39395 Y45.34863
G01 X-54.31531 Y45.25468
G01 X-52.53033 Y43.46969
G01 X-52.41666 Y43.37642
G01 X-52.30917 Y43.31762
G01 X-52.26391 Y43.29885
G01 X-52.14630 Y43.26444
G01 X-52.00000 Y43.25003
G01 X-44.40179 Y43.25003
G01 X-39.62149 Y38.46968
G01 X-39.54740 Y38.40542
G01 X-39.44877 Y38.34136
G01 X-39.34132 Y38.29353
G01 X-39.22774 Y38.26307
G01 X-39.09116 Y38.25002
G01 X-21.31063 Y38.25002
G01 X-21.00819 Y37.94756
G01 X-21.08386 Y37.88390
G01 X-21.22470 Y37.71418
G01 X-21.25193 Y37.67344
G01 X-21.34433 Y37.50057
G01 X-21.36308 Y37.45528
G01 X-21.42000 Y37.26767
G01 X-21.42955 Y37.21962
G01 X-21.44878 Y37.02452
G01 X-21.44878 Y33.47553
G01 X-21.42594 Y33.25618
G01 X-21.36308 Y33.04477
G01 X-21.34433 Y32.99948
G01 X-21.25193 Y32.82661
G01 X-21.22470 Y32.78587
G01 X-21.08386 Y32.61615
G01 X-20.94997 Y32.50469
G01 X-20.94997 Y28.11072
G01 X-28.31064 Y20.75003
G01 X-46.99998 Y20.75003
G01 X-47.14629 Y20.73563
G01 X-47.28698 Y20.69293
G01 X-47.39561 Y20.63624
G01 X-47.43636 Y20.60901
G01 X-47.51212 Y20.54683
G01 X-53.83032 Y14.23036
G01 X-53.92359 Y14.11669
G01 X-53.98239 Y14.00920
G01 X-54.00116 Y13.96394
G01 X-54.03556 Y13.84633
G01 X-54.04998 Y13.70000
G01 X-54.04998 Y9.16661
G01 X-54.09494 Y9.12968
G01 X-54.12964 Y9.09501
G01 X-54.25618 Y8.93893
G01 X-54.36245 Y8.74012
G01 X-54.42191 Y8.54817
G01 X-54.43147 Y8.50012
G01 X-54.44998 Y8.30001
G01 X-54.44998 Y2.80000
G01 X-54.43147 Y2.59992
G01 X-54.42191 Y2.55187
G01 X-54.36746 Y2.37392
G01 X-54.36156 Y2.28880
G01 X-54.34020 Y2.21176
G01 X-54.32141 Y2.16650
G01 X-54.28572 Y2.10224
G01 X-54.24003 Y2.04463
G01 X-54.20533 Y2.00998
G01 X-54.14777 Y1.96429
G01 X-54.08349 Y1.92855
G01 X-54.01117 Y1.90160
G01 X-53.95857 Y1.85842
G01 X-53.91785 Y1.83122
G01 X-53.76172 Y1.74900
G01 X-53.53746 Y1.71326
G01 X-53.28034 Y1.70051
G01 X-53.06248 Y1.71326
G01 X-52.83396 Y1.75007
G01 X-52.68209 Y1.83122
G01 X-52.61412 Y1.88080
G01 X-52.53243 Y1.88961
G01 X-52.46175 Y1.90981
G01 X-52.41643 Y1.92855
G01 X-52.33249 Y1.97889
G01 X-52.25997 Y2.04463
G01 X-52.21425 Y2.10224
G01 X-52.17851 Y2.16650
G01 X-52.15979 Y2.21176
G01 X-52.13960 Y2.28248
G01 X-52.13000 Y2.38001
G01 X-52.13000 Y2.74539
G01 X-52.11846 Y2.79992
G01 X-52.09997 Y3.00000
G01 X-52.11846 Y3.20010
G01 X-52.13000 Y3.25463
G01 X-52.13000 Y3.62001
G01 X-52.13599 Y3.69329
G01 X-52.14996 Y3.75557
G01 X-52.14996 Y8.30004
G01 X-52.16848 Y8.50012
G01 X-52.17803 Y8.54817
G01 X-52.23751 Y8.74012
G01 X-52.33119 Y8.91790
G01 X-52.35842 Y8.95864
G01 X-52.48679 Y9.11320
G01 X-52.54999 Y9.16661
G01 X-52.54999 Y13.38936
G01 X-46.68932 Y19.25003
G01 X-28.00000 Y19.25003
G01 X-27.85367 Y19.26443
G01 X-27.73606 Y19.29885
G01 X-27.69080 Y19.31762
G01 X-27.60434 Y19.36382
G01 X-27.56360 Y19.39105
G01 X-27.46964 Y19.46969
G01 X-19.90949 Y27.02987
G01 X-19.80433 Y27.08382
G01 X-19.76359 Y27.11105
G01 X-19.68782 Y27.17323
G01 X-19.65318 Y27.20788
G01 X-19.57637 Y27.30338
G01 X-19.51756 Y27.41087
G01 X-19.49879 Y27.45611
G01 X-19.47035 Y27.54991
G01 X-19.46080 Y27.59797
G01 X-19.44998 Y27.72002
G01 X-19.44998 Y32.50472
G01 X-19.31609 Y32.61615
G01 X-19.17525 Y32.78587
G01 X-19.14802 Y32.82661
G01 X-19.04512 Y33.02168
G01 X-18.97995 Y33.23238
G01 X-18.97040 Y33.28043
G01 X-18.94998 Y33.50002
G01 X-18.95117 Y37.02452
G01 X-18.97400 Y37.24387
G01 X-19.04512 Y37.47837
G01 X-19.16125 Y37.69538
G01 X-19.24998 Y37.80364
G01 X-19.24998 Y38.00001
G01 X-19.26080 Y38.12208
G01 X-19.27035 Y38.17014
G01 X-19.30708 Y38.28703
G01 X-19.36377 Y38.39566
G01 X-19.39100 Y38.43640
G01 X-19.46963 Y38.53036
G01 X-20.46963 Y39.53036
G01 X-20.56359 Y39.60899
G01 X-20.60433 Y39.63622
G01 X-20.71296 Y39.69292
G01 X-20.82986 Y39.72964
G01 X-20.87791 Y39.73919
G01 X-20.99996 Y39.75002
G01 X-38.78049 Y39.75002
G01 X-43.56080 Y44.53037
G01 X-43.66661 Y44.61770
G01 X-43.76847 Y44.67650
G01 X-43.87827 Y44.71866
G01 X-43.95455 Y44.73698
G01 X-44.09115 Y44.75003
G01 X-51.68933 Y44.75003
G01 X-53.03497 Y46.09567
G01 X-53.03497 Y49.97971
G01 X-52.90109 Y50.09114
G01 X-52.76025 Y50.26087
G01 X-52.73302 Y50.30161
G01 X-52.64059 Y50.47448
G01 X-52.62187 Y50.51977
G01 X-52.56492 Y50.70737
G01 X-52.55537 Y50.75543
G01 X-52.53497 Y50.97504
G01 X-52.53497 Y67.69725
G01 X-46.28998 Y73.94225
G01 X-46.28998 Y69.54002
G01 X-46.27916 Y69.41798
G01 X-46.26961 Y69.36992
G01 X-46.24116 Y69.27612
G01 X-46.22239 Y69.23086
G01 X-46.17619 Y69.14439
G01 X-46.14896 Y69.10365
G01 X-46.07032 Y69.00970
G01 X-42.74998 Y65.68933
G01 X-42.74998 Y53.00003
G01 X-42.73916 Y52.87795
G01 X-42.72961 Y52.82990
G01 X-42.70116 Y52.73610
G01 X-42.68239 Y52.69083
G01 X-42.63619 Y52.60437
G01 X-42.60896 Y52.56363
G01 X-42.53032 Y52.46967
G01 X-39.53033 Y49.46968
G01 X-39.43637 Y49.39104
G01 X-39.39563 Y49.36381
G01 X-39.30917 Y49.31761
G01 X-39.26391 Y49.29884
G01 X-39.17010 Y49.27039
G01 X-39.09997 Y49.25911
G01 X-39.09921 Y47.33039
G01 X-39.08692 Y47.21342
G01 X-39.06861 Y47.13715
G01 X-39.02644 Y47.02734
G01 X-38.96764 Y46.92549
G01 X-38.88031 Y46.81967
G01 X-35.53031 Y43.46969
G01 X-35.43635 Y43.39105
G01 X-35.39561 Y43.36383
G01 X-35.30915 Y43.31762
G01 X-35.26389 Y43.29885
G01 X-35.17009 Y43.27040
G01 X-35.12203 Y43.26085
G01 X-34.99998 Y43.25003
G01 X-17.73065 Y43.25003
G01 X-17.51592 Y43.03637
G01 X-17.45625 Y42.98542
G01 X-17.38267 Y42.93675
G01 X-17.23804 Y42.90274
G01 X-17.12595 Y42.88719
G01 X-16.99997 Y42.88024
G01 X-13.41996 Y42.85090
G01 X-13.29929 Y42.85529
G01 X-13.19164 Y42.86804
G01 X-13.13297 Y42.88712
G01 X-13.02433 Y42.94381
G01 X-12.98359 Y42.97104
G01 X-12.88964 Y43.04968
G01 X-12.68931 Y43.25003
G01 X-5.43776 Y43.25003
G01 X-3.24996 Y40.81008
G01 X-3.24996 Y17.09911
G01 X-8.32236 Y11.75002
G01 X-36.99998 Y11.75002
G01 X-37.12203 Y11.73920
G01 X-37.17008 Y11.72965
G01 X-37.26388 Y11.70120
G01 X-37.30915 Y11.68246
G01 X-37.39558 Y11.63623
G01 X-37.43635 Y11.60903
G01 X-37.53028 Y11.53036
G01 X-38.59030 Y10.47037
G01 X-38.65459 Y10.39630
G01 X-38.71864 Y10.29765
G01 X-38.73645 Y10.26270
G01 X-38.77861 Y10.15289
G01 X-38.80305 Y10.03786
G01 X-38.80998 Y9.94002
G01 X-38.80998 Y9.16661
G01 X-38.85497 Y9.12968
G01 X-38.88964 Y9.09501
G01 X-39.00155 Y8.95864
G01 X-39.02878 Y8.91790
G01 X-39.12245 Y8.74012
G01 X-39.18191 Y8.54817
G01 X-39.19149 Y8.50012
G01 X-39.20998 Y8.30001
G01 X-39.20998 Y2.80000
G01 X-39.19149 Y2.59992
G01 X-39.18191 Y2.55187
G01 X-39.12245 Y2.35992
G01 X-39.02878 Y2.18215
G01 X-39.00155 Y2.14140
G01 X-38.88964 Y2.00503
G01 X-38.85497 Y1.97036
G01 X-38.69888 Y1.84382
G01 X-38.52583 Y1.75002
G01 X-38.29746 Y1.71326
G01 X-38.07963 Y1.70051
G01 X-37.86388 Y1.70917
G01 X-37.64605 Y1.73945
G01 X-37.59396 Y1.75007
G01 X-37.42108 Y1.84382
G01 X-37.26500 Y1.97036
G01 X-37.23033 Y2.00503
G01 X-37.11842 Y2.14140
G01 X-37.09119 Y2.18215
G01 X-37.00800 Y2.33775
G01 X-36.98926 Y2.38303
G01 X-36.93805 Y2.55187
G01 X-36.92576 Y2.62746
G01 X-36.88207 Y2.77567
G01 X-36.86117 Y2.97551
G01 X-36.86117 Y3.02451
G01 X-36.87846 Y3.20010
G01 X-36.88804 Y3.24816
G01 X-36.90999 Y3.32055
G01 X-36.91118 Y8.32453
G01 X-36.92848 Y8.50012
G01 X-36.93805 Y8.54817
G01 X-36.98926 Y8.71701
G01 X-37.00800 Y8.76229
G01 X-37.09119 Y8.91790
G01 X-37.11842 Y8.95864
G01 X-37.24682 Y9.11320
G01 X-37.30999 Y9.16661
G01 X-37.30999 Y9.62937
G01 X-36.68931 Y10.25002
G01 X-7.99999 Y10.25002
G01 X-7.89887 Y10.25741
G01 X-7.85884 Y10.26397
G01 X-7.74169 Y10.29648
G01 X-7.63136 Y10.34748
G01 X-7.53070 Y10.41568
G01 X-7.45577 Y10.48396
G01 X-1.95578 Y16.28397
G01 X-1.88191 Y16.37650
G01 X-1.85636 Y16.41641
G01 X-1.81310 Y16.50066
G01 X-1.79560 Y16.54465
G01 X-1.76901 Y16.63556
G01 X-1.76007 Y16.68207
G01 X-1.74999 Y16.80002
G01 X-1.74999 Y43.18938
G01 X-6.81063 Y48.25002
G01 X-18.68932 Y48.25002
G01 X-21.46963 Y45.46969
G01 X-21.56359 Y45.39105
G01 X-21.60433 Y45.36382
G01 X-21.71296 Y45.30713
G01 X-21.82985 Y45.27040
G01 X-21.87791 Y45.26085
G01 X-21.99998 Y45.25003
G01 X-28.00000 Y45.25003
G01 X-28.12204 Y45.26085
G01 X-28.17010 Y45.27040
G01 X-28.28699 Y45.30713
G01 X-28.39563 Y45.36382
G01 X-28.43637 Y45.39105
G01 X-28.53032 Y45.46969
G01 X-37.65032 Y54.58969
G01 X-37.72896 Y54.68364
G01 X-37.75619 Y54.72438
G01 X-37.80239 Y54.81084
G01 X-37.82116 Y54.85611
G01 X-37.84961 Y54.94991
G01 X-37.85916 Y54.99797
G01 X-37.86998 Y55.12001
G01 X-37.86998 Y59.31193
G01 X-38.14780 Y59.46179
G01 X-38.40996 Y59.67540
G01 X-38.44460 Y59.71005
G01 X-38.65822 Y59.97220
G01 X-38.82916 Y60.29204
G01 X-38.92847 Y60.61530
G01 X-38.93805 Y60.66336
G01 X-38.96878 Y60.97550
G01 X-38.96878 Y61.02452
G01 X-38.93805 Y61.33666
G01 X-38.92847 Y61.38472
G01 X-38.82916 Y61.70799
G01 X-38.67082 Y62.00677
G01 X-38.64359 Y62.04753
G01 X-38.44460 Y62.28998
G01 X-38.40996 Y62.32465
G01 X-38.14780 Y62.53823
G01 X-37.82794 Y62.70920
G01 X-37.50470 Y62.80852
G01 X-37.45665 Y62.81807
G01 X-37.14448 Y62.84880
G01 X-37.09548 Y62.84880
G01 X-36.78334 Y62.81807
G01 X-36.73526 Y62.80852
G01 X-36.41202 Y62.70920
G01 X-36.11321 Y62.55083
G01 X-36.07247 Y62.52360
G01 X-35.83003 Y62.32465
G01 X-35.79536 Y62.28998
G01 X-35.58177 Y62.02782
G01 X-35.42129 Y61.73016
G01 X-35.40255 Y61.68487
G01 X-35.31149 Y61.38472
G01 X-35.30194 Y61.33666
G01 X-35.27120 Y61.02452
G01 X-35.27120 Y60.97550
G01 X-35.30194 Y60.66336
G01 X-35.31149 Y60.61530
G01 X-35.40255 Y60.31515
G01 X-35.42129 Y60.26986
G01 X-35.58177 Y59.97220
G01 X-35.79536 Y59.71005
G01 X-35.83003 Y59.67540
G01 X-36.09218 Y59.46179
G01 X-36.36998 Y59.31195
G01 X-36.36998 Y55.43068
G01 X-27.68933 Y46.75003
G01 X-22.31062 Y46.75003
G01 X-19.53032 Y49.53036
G01 X-19.43636 Y49.60900
G01 X-19.39562 Y49.63623
G01 X-19.30916 Y49.68243
G01 X-19.26389 Y49.70120
G01 X-19.17009 Y49.72965
G01 X-19.12204 Y49.73920
G01 X-18.99999 Y49.75002
G01 X-6.49999 Y49.75002
G01 X-6.37792 Y49.73920
G01 X-6.32986 Y49.72965
G01 X-6.23606 Y49.70120
G01 X-6.19079 Y49.68243
G01 X-6.10433 Y49.63623
G01 X-6.06359 Y49.60900
G01 X-5.96964 Y49.53036
G01 X-0.46965 Y44.03037
G01 X-0.39101 Y43.93642
G01 X-0.36378 Y43.89568
G01 X-0.30709 Y43.78704
G01 X-0.27036 Y43.67015
G01 X-0.26081 Y43.62209
G01 X-0.24999 Y43.50002
G01 X-0.24999 Y4.00002
G01 X-0.26081 Y3.87798
G01 X-0.27036 Y3.82992
G01 X-0.29881 Y3.73612
G01 X-0.31758 Y3.69085
G01 X-0.36378 Y3.60439
G01 X-0.39101 Y3.56365
G01 X-0.46965 Y3.46970
G01 X-3.46964 Y0.46968
G01 X-3.57546 Y0.38235
G01 X-3.67731 Y0.32355
G01 X-3.78712 Y0.28139
G01 X-3.86339 Y0.26307
G01 X-3.98036 Y0.25078
G01 X-55.99999 Y0.25002
G01 X-56.14630 Y0.26442
G01 X-56.26390 Y0.29884
G01 X-56.30913 Y0.31761
G01 X-56.39562 Y0.36381
G01 X-56.43634 Y0.39104
G01 X-56.51213 Y0.45322
G01 X-56.54678 Y0.48786
G01 X-56.62359 Y0.58334
G01 X-56.68239 Y0.69084
G01 X-56.70116 Y0.73610
G01 X-56.72961 Y0.82990
G01 X-56.73916 Y0.87796
G01 X-56.74998 Y1.00000
G01 X-56.74998 Y15.00000
G01 X-56.73558 Y15.14633
G01 X-56.70116 Y15.26393
G01 X-56.68239 Y15.30920
G01 X-56.62359 Y15.41669
G01 X-56.53032 Y15.53035
G01 X-48.53031 Y23.53036
G01 X-48.43635 Y23.60903
G01 X-48.39561 Y23.63623
G01 X-48.28698 Y23.69295
G01 X-48.17009 Y23.72965
G01 X-48.12203 Y23.73920
G01 X-47.99998 Y23.75002
G01 X-29.31064 Y23.75002
G01 X-23.28997 Y29.77069
G01 X-23.28997 Y32.38211
G01 X-23.41339 Y32.44807
G01 X-23.45413 Y32.47530
G01 X-23.60567 Y32.59966
G01 X-23.64034 Y32.63433
G01 X-23.76470 Y32.78587
G01 X-23.79193 Y32.82661
G01 X-23.89482 Y33.02168
G01 X-23.96000 Y33.23238
G01 X-23.96955 Y33.28043
G01 X-23.98878 Y33.47553
G01 X-23.98997 Y37.00001
G01 X-23.96955 Y37.21962
G01 X-23.96000 Y37.26767
G01 X-23.89482 Y37.47837
G01 X-23.79193 Y37.67344
G01 X-23.76470 Y37.71418
G01 X-23.62386 Y37.88390
G01 X-23.46950 Y38.01215
G01 X-23.41339 Y38.05197
G01 X-23.24052 Y38.14438
G01 X-23.19523 Y38.16312
G01 X-23.00763 Y38.22005
G01 X-22.95957 Y38.22960
G01 X-22.76447 Y38.24882
G01 X-22.71548 Y38.24882
G01 X-22.52038 Y38.22960
G01 X-22.47232 Y38.22005
G01 X-22.26163 Y38.15487
G01 X-22.06656 Y38.05197
G01 X-22.02581 Y38.02475
G01 X-21.87428 Y37.90039
G01 X-21.83961 Y37.86572
G01 X-21.71525 Y37.71418
G01 X-21.68802 Y37.67344
G01 X-21.59562 Y37.50057
G01 X-21.57687 Y37.45528
G01 X-21.51400 Y37.24387
G01 X-21.48998 Y37.00001
G01 X-21.48998 Y33.50002
G01 X-21.51400 Y33.25618
G01 X-21.58512 Y33.02168
G01 X-21.70125 Y32.80466
G01 X-21.78998 Y32.69641
G01 X-21.78998 Y29.46004
G01 X-21.80080 Y29.33797
G01 X-21.81035 Y29.28991
G01 X-21.84708 Y29.17302
G01 X-21.90377 Y29.06439
G01 X-21.93100 Y29.02365
G01 X-22.00963 Y28.92969
G01 X-28.46964 Y22.46968
G01 X-28.56360 Y22.39105
G01 X-28.60434 Y22.36382
G01 X-28.69080 Y22.31761
G01 X-28.73606 Y22.29884
G01 X-28.85366 Y22.26443
G01 X-28.99997 Y22.25003
G01 X-47.68931 Y22.25003
G01 X-55.24998 Y14.68936
G01 X-55.24998 Y1.75002
G01 X-53.76583 Y1.75002
G01 X-53.53746 Y1.71326
G01 X-53.31961 Y1.70051
G01 X-53.06248 Y1.71326
G01 X-52.83396 Y1.75007
G01 X-51.22583 Y1.75002
G01 X-50.99746 Y1.71326
G01 X-50.74034 Y1.70051
G01 X-50.52248 Y1.71326
G01 X-50.29396 Y1.75007
G01 X-50.34605 Y1.73945
G01 X-50.56388 Y1.70917
G01 X-50.74034 Y1.70051
G01 X-50.95606 Y1.70917
G01 X-51.17389 Y1.73945
G01 X-51.22583 Y1.75002
G01 X-51.39888 Y1.84382
G01 X-51.57315 Y1.98684
G01 X-51.70155 Y2.14140
G01 X-51.72878 Y2.18215
G01 X-51.81196 Y2.33775
G01 X-51.83071 Y2.38303
G01 X-51.88189 Y2.55187
G01 X-51.89149 Y2.59992
G01 X-51.90879 Y2.77551
G01 X-51.90996 Y8.30001
G01 X-51.89149 Y8.50012
G01 X-51.88189 Y8.54817
G01 X-51.83071 Y8.71701
G01 X-51.81196 Y8.76229
G01 X-51.71618 Y8.93893
G01 X-51.58964 Y9.09501
G01 X-51.55497 Y9.12968
G01 X-51.40262 Y9.25229
G01 X-51.34285 Y9.31754
G01 X-51.25192 Y9.39214
G01 X-51.21118 Y9.41937
G01 X-51.10744 Y9.47482
G01 X-51.06218 Y9.49359
G01 X-50.92581 Y9.53369
G01 X-50.78448 Y9.54881
G01 X-50.73549 Y9.54881
G01 X-50.59416 Y9.53369
G01 X-50.45781 Y9.49359
G01 X-50.41252 Y9.47482
G01 X-50.30879 Y9.41937
G01 X-50.26805 Y9.39214
G01 X-50.17712 Y9.31754
G01 X-50.11738 Y9.25231
G01 X-49.94682 Y9.11320
G01 X-49.81842 Y8.95864
G01 X-49.79119 Y8.91790
G01 X-49.69751 Y8.74012
G01 X-49.63805 Y8.54817
G01 X-49.62848 Y8.50012
G01 X-49.61118 Y8.32453
G01 X-49.60999 Y3.32055
G01 X-49.58207 Y3.22436
G01 X-49.56117 Y3.02451
G01 X-49.56117 Y2.97551
G01 X-49.57846 Y2.79992
G01 X-49.58804 Y2.75187
G01 X-49.62576 Y2.62743
G01 X-49.63805 Y2.55187
G01 X-49.69751 Y2.35992
G01 X-49.79119 Y2.18215
G01 X-49.81842 Y2.14140
G01 X-49.93033 Y2.00503
G01 X-49.96500 Y1.97036
G01 X-50.12108 Y1.84382
G01 X-50.29396 Y1.75007
G01 X-48.68583 Y1.75002
G01 X-48.45746 Y1.71326
G01 X-48.23963 Y1.70051
G01 X-47.98248 Y1.71326
G01 X-47.75396 Y1.75007
G01 X-47.98248 Y1.71326
G01 X-48.20034 Y1.70051
G01 X-48.45746 Y1.71326
G01 X-48.68583 Y1.75002
G01 X-48.85888 Y1.84382
G01 X-49.01497 Y1.97036
G01 X-49.04964 Y2.00503
G01 X-49.16155 Y2.14140
G01 X-49.18878 Y2.18215
G01 X-49.28245 Y2.35992
G01 X-49.34191 Y2.55187
G01 X-49.35149 Y2.59992
G01 X-49.36998 Y2.80000
G01 X-49.36998 Y8.30001
G01 X-49.35149 Y8.50012
G01 X-49.34191 Y8.54817
G01 X-49.28245 Y8.74012
G01 X-49.17618 Y8.93893
G01 X-49.04964 Y9.09501
G01 X-49.01497 Y9.12968
G01 X-48.96998 Y9.16661
G01 X-48.96998 Y12.78002
G01 X-48.95558 Y12.92635
G01 X-48.92116 Y13.04395
G01 X-48.90239 Y13.08921
G01 X-48.85619 Y13.17567
G01 X-48.82896 Y13.21641
G01 X-48.75032 Y13.31037
G01 X-45.53031 Y16.53038
G01 X-45.43636 Y16.60902
G01 X-45.39562 Y16.63624
G01 X-45.28698 Y16.69294
G01 X-45.17009 Y16.72967
G01 X-45.12203 Y16.73922
G01 X-44.99999 Y16.75004
G01 X-20.31063 Y16.75004
G01 X-6.34998 Y30.71069
G01 X-6.34998 Y37.00001
G01 X-6.34998 Y33.50002
G01 X-6.37207 Y33.27568
G01 X-6.42925 Y33.08305
G01 X-6.44799 Y33.03776
G01 X-6.54378 Y32.86113
G01 X-6.67032 Y32.70505
G01 X-6.70499 Y32.67037
G01 X-6.86107 Y32.54383
G01 X-7.03771 Y32.44805
G01 X-7.08299 Y32.42930
G01 X-7.25183 Y32.37810
G01 X-7.29989 Y32.36852
G01 X-7.47548 Y32.35122
G01 X-7.52447 Y32.35122
G01 X-7.72432 Y32.37213
G01 X-7.91695 Y32.42930
G01 X-7.96224 Y32.44805
G01 X-8.11784 Y32.53123
G01 X-8.15858 Y32.55846
G01 X-8.29496 Y32.67037
G01 X-8.32963 Y32.70505
G01 X-8.45617 Y32.86113
G01 X-8.55195 Y33.03776
G01 X-8.57070 Y33.08305
G01 X-8.62190 Y33.25188
G01 X-8.63148 Y33.29994
G01 X-8.64997 Y33.50002
G01 X-8.64997 Y37.00001
G01 X-8.63148 Y37.20011
G01 X-8.62000 Y37.25452
G01 X-8.62000 Y37.62002
G01 X-8.61398 Y37.69330
G01 X-8.60443 Y37.74136
G01 X-8.58193 Y37.81136
G01 X-8.54835 Y37.87677
G01 X-8.49003 Y37.95538
G01 X-8.41749 Y38.02114
G01 X-8.37672 Y38.04837
G01 X-8.31134 Y38.08195
G01 X-8.24134 Y38.10445
G01 X-8.19325 Y38.11400
G01 X-8.11998 Y38.12002
G01 X-7.75457 Y38.12002
G01 X-7.70006 Y38.13153
G01 X-7.52447 Y38.14882
G01 X-7.47548 Y38.14882
G01 X-7.29989 Y38.13153
G01 X-7.24538 Y38.12002
G01 X-6.85549 Y38.11880
G01 X-6.78244 Y38.11039
G01 X-6.68863 Y38.08195
G01 X-6.62325 Y38.04837
G01 X-6.58249 Y38.02114
G01 X-6.50995 Y37.95538
G01 X-6.45163 Y37.87677
G01 X-6.40979 Y37.78825
G01 X-6.38960 Y37.71756
G01 X-6.38119 Y37.64451
G01 X-6.37997 Y37.25462
G01 X-6.36847 Y37.20011
G01 X-6.34998 Y37.00001
G01 X-6.34998 Y38.28936
G01 X-7.31063 Y39.25002
G01 X-19.49996 Y39.25002
G01 X-19.62204 Y39.26084
G01 X-19.67009 Y39.27039
G01 X-19.78698 Y39.30712
G01 X-19.89562 Y39.36381
G01 X-19.93636 Y39.39104
G01 X-20.03031 Y39.46968
G01 X-20.31962 Y39.75898
G01 X-37.20780 Y40.25001
G01 X-38.19705 Y40.25001
G01 X-38.29487 Y40.25695
G01 X-38.40991 Y40.28138
G01 X-38.51971 Y40.32355
G01 X-38.55466 Y40.34135
G01 X-38.65329 Y40.40541
G01 X-38.72738 Y40.46967
G01 X-43.50769 Y45.25003
G01 X-51.19995 Y45.25003
G01 X-51.32202 Y45.26085
G01 X-51.37008 Y45.27040
G01 X-51.48697 Y45.30713
G01 X-51.59561 Y45.36382
G01 X-51.63635 Y45.39105
G01 X-51.71209 Y45.45323
G01 X-51.77531 Y45.51470
G01 X-51.85395 Y45.60865
G01 X-51.88118 Y45.64939
G01 X-51.92738 Y45.73586
G01 X-51.94613 Y45.78112
G01 X-51.97460 Y45.87492
G01 X-51.98415 Y45.92298
G01 X-51.99378 Y46.02054
G01 X-51.99497 Y50.17278
G01 X-52.03929 Y50.21537
G01 X-52.14496 Y50.34418
G01 X-52.17221 Y50.38492
G01 X-52.26126 Y50.55406
G01 X-52.31788 Y50.73661
G01 X-52.32746 Y50.78469
G01 X-52.34498 Y50.97501
G01 X-52.32746 Y51.16533
G01 X-52.31788 Y51.21342
G01 X-52.26952 Y51.37285
G01 X-52.25077 Y51.41814
G01 X-52.17221 Y51.56510
G01 X-52.14496 Y51.60585
G01 X-52.02278 Y51.75284
G01 X-51.87582 Y51.87501
G01 X-51.83505 Y51.90224
G01 X-51.68811 Y51.98080
G01 X-51.64285 Y51.99955
G01 X-51.48339 Y52.04791
G01 X-51.43531 Y52.05748
G01 X-51.26950 Y52.07382
G01 X-51.22047 Y52.07382
G01 X-51.03038 Y52.05388
G01 X-50.84714 Y51.99955
G01 X-50.80186 Y51.98080
G01 X-50.65489 Y51.90224
G01 X-50.61415 Y51.87501
G01 X-50.46716 Y51.75284
G01 X-50.34499 Y51.60585
G01 X-50.31776 Y51.56510
G01 X-50.22873 Y51.39597
G01 X-50.17209 Y51.21342
G01 X-50.16251 Y51.16533
G01 X-50.14618 Y50.99952
G01 X-50.14618 Y50.95050
G01 X-50.16251 Y50.78469
G01 X-50.17209 Y50.73661
G01 X-50.22045 Y50.57717
G01 X-50.23922 Y50.53188
G01 X-50.31776 Y50.38492
G01 X-50.34499 Y50.34418
G01 X-50.45070 Y50.21537
G01 X-50.49497 Y50.17283
G01 X-50.49497 Y46.75003
G01 X-43.19704 Y46.75003
G01 X-43.06044 Y46.73697
G01 X-42.94685 Y46.70652
G01 X-42.83941 Y46.65869
G01 X-42.77251 Y46.61769
G01 X-42.66669 Y46.53037
G01 X-37.88636 Y41.74999
G01 X-37.17521 Y41.74971
G01 X-19.97817 Y41.24971
G01 X-19.86095 Y41.23625
G01 X-19.81485 Y41.22603
G01 X-19.72503 Y41.19700
G01 X-19.68170 Y41.17831
G01 X-19.59892 Y41.13289
G01 X-19.55988 Y41.10640
G01 X-19.46963 Y41.03035
G01 X-19.18932 Y40.75001
G01 X-6.97548 Y40.74882
G01 X-6.87792 Y40.73919
G01 X-6.82986 Y40.72964
G01 X-6.71297 Y40.69291
G01 X-6.60433 Y40.63622
G01 X-6.56359 Y40.60899
G01 X-6.46964 Y40.53035
G01 X-5.05318 Y39.11217
G01 X-4.99100 Y39.03640
G01 X-4.96377 Y38.99566
G01 X-4.90708 Y38.88702
G01 X-4.87035 Y38.77013
G01 X-4.86080 Y38.72208
G01 X-4.85117 Y38.62452
G01 X-4.84998 Y30.40002
G01 X-4.86080 Y30.27797
G01 X-4.87035 Y30.22992
G01 X-4.90708 Y30.11303
G01 X-4.96377 Y30.00439
G01 X-4.99100 Y29.96365
G01 X-5.06964 Y29.86969
G01 X-19.46963 Y15.46970
G01 X-19.56359 Y15.39106
G01 X-19.60433 Y15.36383
G01 X-19.71297 Y15.30714
G01 X-19.82986 Y15.27041
G01 X-19.87791 Y15.26086
G01 X-19.99999 Y15.25004
G01 X-44.68932 Y15.25004
G01 X-47.46999 Y12.46937
G01 X-47.46999 Y9.16661
G01 X-47.40682 Y9.11320
G01 X-47.27842 Y8.95864
G01 X-47.25119 Y8.91790
G01 X-47.15751 Y8.74012
G01 X-47.09805 Y8.54817
G01 X-47.08848 Y8.50012
G01 X-47.06999 Y8.30004
G01 X-47.06999 Y3.32055
G01 X-47.04804 Y3.24816
G01 X-47.03846 Y3.20010
G01 X-47.02117 Y3.02451
G01 X-47.02117 Y2.97551
G01 X-47.03846 Y2.79992
G01 X-47.04804 Y2.75187
G01 X-47.08576 Y2.62743
G01 X-47.09805 Y2.55187
G01 X-47.15751 Y2.35992
G01 X-47.25119 Y2.18215
G01 X-47.27842 Y2.14140
G01 X-47.39033 Y2.00503
G01 X-47.42500 Y1.97036
G01 X-47.58109 Y1.84382
G01 X-47.75396 Y1.75007
G01 X-46.14583 Y1.75002
G01 X-45.91746 Y1.71326
G01 X-45.69963 Y1.70051
G01 X-45.44248 Y1.71326
G01 X-45.21396 Y1.75007
G01 X-45.26605 Y1.73945
G01 X-45.48388 Y1.70917
G01 X-45.66034 Y1.70051
G01 X-45.87606 Y1.70917
G01 X-46.09389 Y1.73945
G01 X-46.14583 Y1.75002
G01 X-46.31888 Y1.84382
G01 X-46.49315 Y1.98684
G01 X-46.62155 Y2.14140
G01 X-46.64878 Y2.18215
G01 X-46.73196 Y2.33775
G01 X-46.75071 Y2.38303
G01 X-46.80191 Y2.55187
G01 X-46.81149 Y2.59992
G01 X-46.82879 Y2.77551
G01 X-46.82998 Y8.30001
G01 X-46.81149 Y8.50012
G01 X-46.80191 Y8.54817
G01 X-46.75071 Y8.71701
G01 X-46.73196 Y8.76229
G01 X-46.63618 Y8.93893
G01 X-46.50964 Y9.09501
G01 X-46.47497 Y9.12968
G01 X-46.32262 Y9.25229
G01 X-46.26285 Y9.31754
G01 X-46.17192 Y9.39214
G01 X-46.13118 Y9.41937
G01 X-46.02744 Y9.47482
G01 X-45.98218 Y9.49359
G01 X-45.84581 Y9.53369
G01 X-45.70448 Y9.54881
G01 X-45.65549 Y9.54881
G01 X-45.51416 Y9.53369
G01 X-45.37781 Y9.49359
G01 X-45.33252 Y9.47482
G01 X-45.22879 Y9.41937
G01 X-45.18805 Y9.39214
G01 X-45.09712 Y9.31754
G01 X-45.03738 Y9.25231
G01 X-44.86682 Y9.11320
G01 X-44.73842 Y8.95864
G01 X-44.71119 Y8.91790
G01 X-44.61751 Y8.74012
G01 X-44.55805 Y8.54817
G01 X-44.54848 Y8.50012
G01 X-44.53118 Y8.32453
G01 X-44.52999 Y3.32055
G01 X-44.50207 Y3.22436
G01 X-44.48117 Y3.02451
G01 X-44.48117 Y2.97551
G01 X-44.49846 Y2.79992
G01 X-44.50804 Y2.75187
G01 X-44.54576 Y2.62743
G01 X-44.55805 Y2.55187
G01 X-44.61751 Y2.35992
G01 X-44.71119 Y2.18215
G01 X-44.73842 Y2.14140
G01 X-44.85033 Y2.00503
G01 X-44.88500 Y1.97036
G01 X-45.04108 Y1.84382
G01 X-45.21396 Y1.75007
G01 X-43.60583 Y1.75002
G01 X-43.37746 Y1.71326
G01 X-43.15963 Y1.70051
G01 X-42.90248 Y1.71326
G01 X-42.67396 Y1.75007
G01 X-42.72605 Y1.73945
G01 X-42.94388 Y1.70917
G01 X-43.12034 Y1.70051
G01 X-43.33606 Y1.70917
G01 X-43.55389 Y1.73945
G01 X-43.60583 Y1.75002
G01 X-43.77888 Y1.84382
G01 X-43.95315 Y1.98684
G01 X-44.08155 Y2.14140
G01 X-44.10878 Y2.18215
G01 X-44.19196 Y2.33775
G01 X-44.21071 Y2.38303
G01 X-44.26191 Y2.55187
G01 X-44.27149 Y2.59992
G01 X-44.28879 Y2.77551
G01 X-44.28998 Y8.30001
G01 X-44.27149 Y8.50012
G01 X-44.26191 Y8.54817
G01 X-44.21071 Y8.71701
G01 X-44.19196 Y8.76229
G01 X-44.09618 Y8.93893
G01 X-43.96964 Y9.09501
G01 X-43.93497 Y9.12968
G01 X-43.78262 Y9.25229
G01 X-43.72285 Y9.31754
G01 X-43.63192 Y9.39214
G01 X-43.59118 Y9.41937
G01 X-43.48744 Y9.47482
G01 X-43.44218 Y9.49359
G01 X-43.30581 Y9.53369
G01 X-43.16448 Y9.54881
G01 X-43.11549 Y9.54881
G01 X-42.97416 Y9.53369
G01 X-42.83781 Y9.49359
G01 X-42.79252 Y9.47482
G01 X-42.68879 Y9.41937
G01 X-42.64805 Y9.39214
G01 X-42.55712 Y9.31754
G01 X-42.49738 Y9.25231
G01 X-42.32682 Y9.11320
G01 X-42.19842 Y8.95864
G01 X-42.17119 Y8.91790
G01 X-42.07751 Y8.74012
G01 X-42.01805 Y8.54817
G01 X-42.00848 Y8.50012
G01 X-41.99118 Y8.32453
G01 X-41.98999 Y3.32055
G01 X-41.96207 Y3.22436
G01 X-41.94117 Y3.02451
G01 X-41.94117 Y2.97551
G01 X-41.95846 Y2.79992
G01 X-41.96804 Y2.75187
G01 X-42.00576 Y2.62743
G01 X-42.01805 Y2.55187
G01 X-42.07751 Y2.35992
G01 X-42.17119 Y2.18215
G01 X-42.19842 Y2.14140
G01 X-42.31033 Y2.00503
G01 X-42.34500 Y1.97036
G01 X-42.50108 Y1.84382
G01 X-42.67396 Y1.75007
G01 X-41.06583 Y1.75002
G01 X-40.83746 Y1.71326
G01 X-40.61963 Y1.70051
G01 X-40.36248 Y1.71326
G01 X-40.13396 Y1.75007
G01 X-40.36248 Y1.71326
G01 X-40.58034 Y1.70051
G01 X-40.83746 Y1.71326
G01 X-41.06583 Y1.75002
G01 X-41.23888 Y1.84382
G01 X-41.39497 Y1.97036
G01 X-41.42964 Y2.00503
G01 X-41.54155 Y2.14140
G01 X-41.56878 Y2.18215
G01 X-41.66245 Y2.35992
G01 X-41.72191 Y2.55187
G01 X-41.73149 Y2.59992
G01 X-41.74998 Y2.80000
G01 X-41.74879 Y8.32453
G01 X-41.73149 Y8.50012
G01 X-41.72191 Y8.54817
G01 X-41.67071 Y8.71701
G01 X-41.65196 Y8.76229
G01 X-41.56878 Y8.91790
G01 X-41.54155 Y8.95864
G01 X-41.41315 Y9.11320
G01 X-41.34998 Y9.16661
G01 X-41.34998 Y11.40001
G01 X-41.33558 Y11.54634
G01 X-41.30116 Y11.66394
G01 X-41.28239 Y11.70920
G01 X-41.22359 Y11.81670
G01 X-41.13032 Y11.93036
G01 X-39.53033 Y13.53036
G01 X-39.43637 Y13.60900
G01 X-39.39563 Y13.63622
G01 X-39.28699 Y13.69292
G01 X-39.14630 Y13.73561
G01 X-39.00000 Y13.75002
G01 X-20.31063 Y13.75002
G01 X-4.74998 Y29.31069
G01 X-4.74998 Y39.68936
G01 X-6.31571 Y41.25512
G01 X-36.51225 Y41.75014
G01 X-36.63160 Y41.76246
G01 X-36.67854 Y41.77239
G01 X-36.77011 Y41.80119
G01 X-36.81428 Y41.81994
G01 X-36.89866 Y41.86568
G01 X-36.93843 Y41.89251
G01 X-37.03031 Y41.96970
G01 X-42.31064 Y47.25003
G01 X-47.99998 Y47.25003
G01 X-48.12203 Y47.26085
G01 X-48.17009 Y47.27040
G01 X-48.28698 Y47.30712
G01 X-48.39561 Y47.36382
G01 X-48.43635 Y47.39105
G01 X-48.51212 Y47.45323
G01 X-49.23531 Y48.17469
G01 X-49.31395 Y48.26864
G01 X-49.34118 Y48.30938
G01 X-49.39787 Y48.41802
G01 X-49.43460 Y48.53491
G01 X-49.44415 Y48.58297
G01 X-49.45497 Y48.70504
G01 X-49.45497 Y50.17280
G01 X-49.49929 Y50.21537
G01 X-49.60498 Y50.34418
G01 X-49.63221 Y50.38492
G01 X-49.72126 Y50.55406
G01 X-49.77788 Y50.73661
G01 X-49.78746 Y50.78469
G01 X-49.80379 Y50.95050
G01 X-49.80379 Y50.99952
G01 X-49.78385 Y51.18962
G01 X-49.72952 Y51.37285
G01 X-49.71077 Y51.41814
G01 X-49.63221 Y51.56510
G01 X-49.60498 Y51.60585
G01 X-49.48281 Y51.75284
G01 X-49.33582 Y51.87501
G01 X-49.29508 Y51.90224
G01 X-49.14811 Y51.98080
G01 X-49.10285 Y51.99955
G01 X-48.91959 Y52.05388
G01 X-48.72950 Y52.07382
G01 X-48.68047 Y52.07382
G01 X-48.49038 Y52.05388
G01 X-48.30714 Y51.99955
G01 X-48.26186 Y51.98080
G01 X-48.11489 Y51.90224
G01 X-48.07415 Y51.87501
G01 X-47.92716 Y51.75284
G01 X-47.80499 Y51.60585
G01 X-47.77776 Y51.56510
G01 X-47.68873 Y51.39597
G01 X-47.63209 Y51.21342
G01 X-47.62251 Y51.16533
G01 X-47.60618 Y50.99952
G01 X-47.60618 Y50.95050
G01 X-47.62251 Y50.78469
G01 X-47.63209 Y50.73661
G01 X-47.68873 Y50.55406
G01 X-47.77776 Y50.38492
G01 X-47.80499 Y50.34418
G01 X-47.91070 Y50.21537
G01 X-47.95497 Y50.17283
G01 X-47.95497 Y49.01568
G01 X-47.68931 Y48.75002
G01 X-41.99997 Y48.75002
G01 X-41.87792 Y48.73920
G01 X-41.82986 Y48.72965
G01 X-41.73606 Y48.70120
G01 X-41.69080 Y48.68243
G01 X-41.60434 Y48.63623
G01 X-41.56360 Y48.60900
G01 X-41.46964 Y48.53036
G01 X-36.18423 Y43.24495
G01 X-17.38267 Y42.93675
G01 X-17.31625 Y42.91897
G01 X-17.20426 Y42.89710
G01 X-17.09410 Y42.88443
G01 X-16.99997 Y42.88024
G01 X-13.41996 Y42.85090
G01 X-13.29929 Y42.85529
G01 X-13.19164 Y42.86804
G01 X-5.96372 Y42.74838
G01 X-5.86834 Y42.73761
G01 X-5.82140 Y42.72768
G01 X-5.72984 Y42.69888
G01 X-5.68564 Y42.68013
G01 X-5.60129 Y42.63439
G01 X-5.56148 Y42.60757
G01 X-5.46964 Y42.53038
G01 X-3.46964 Y40.53035
G01 X-3.39100 Y40.43640
G01 X-3.36377 Y40.39566
G01 X-3.31757 Y40.30920
G01 X-3.29880 Y40.26393
G01 X-3.27035 Y40.17013
G01 X-3.26080 Y40.12207
G01 X-3.24996 Y40.00033
G01 X-3.24996 Y28.99972
G01 X-3.26080 Y28.87798
G01 X-3.27035 Y28.82992
G01 X-3.29880 Y28.73612
G01 X-3.31757 Y28.69086
G01 X-3.36377 Y28.60439
G01 X-3.39100 Y28.56365
G01 X-3.46964 Y28.46970
G01 X-19.46963 Y12.46968
G01 X-19.57545 Y12.38235
G01 X-19.67731 Y12.32355
G01 X-19.78711 Y12.28139
G01 X-19.86339 Y12.26308
G01 X-19.99996 Y12.25002
G01 X-38.68933 Y12.25002
G01 X-39.84999 Y11.08937
G01 X-39.84999 Y9.16661
G01 X-39.78682 Y9.11320
G01 X-39.65842 Y8.95864
G01 X-39.63119 Y8.91790
G01 X-39.54800 Y8.76229
G01 X-39.52926 Y8.71701
G01 X-39.47805 Y8.54817
G01 X-39.46848 Y8.50012
G01 X-39.45118 Y8.32453
G01 X-39.44999 Y3.32055
G01 X-39.42804 Y3.24816
G01 X-39.41846 Y3.20010
G01 X-39.40117 Y3.02451
G01 X-39.40117 Y2.97551
G01 X-39.42207 Y2.77567
G01 X-39.46576 Y2.62746
G01 X-39.47805 Y2.55187
G01 X-39.53751 Y2.35992
G01 X-39.63119 Y2.18215
G01 X-39.65842 Y2.14140
G01 X-39.77033 Y2.00503
G01 X-39.80500 Y1.97036
G01 X-39.96108 Y1.84382
G01 X-40.13396 Y1.75007
G01 X-38.52583 Y1.75002
G01 X-38.29746 Y1.71326
G01 X-38.07963 Y1.70051
G01 X-37.82248 Y1.71326
G01 X-37.59396 Y1.75007
G01 X-35.90582 Y1.75002
G01 X-35.67745 Y1.71326
G01 X-35.42033 Y1.70051
G01 X-35.20247 Y1.71326
G01 X-34.97395 Y1.75007
G01 X-35.02604 Y1.73945
G01 X-35.24387 Y1.70917
G01 X-35.42033 Y1.70051
G01 X-35.63605 Y1.70917
G01 X-35.85388 Y1.73945
G01 X-35.90582 Y1.75002
G01 X-36.07887 Y1.84382
G01 X-36.25314 Y1.98684
G01 X-36.38154 Y2.14140
G01 X-36.40877 Y2.18215
G01 X-36.49195 Y2.33775
G01 X-36.51070 Y2.38303
G01 X-36.56190 Y2.55187
G01 X-36.57148 Y2.59992
G01 X-36.58878 Y2.77551
G01 X-36.58997 Y7.88127
G01 X-36.64191 Y8.05188
G01 X-36.65149 Y8.09994
G01 X-36.66879 Y8.27553
G01 X-36.66879 Y8.32453
G01 X-36.64788 Y8.52437
G01 X-36.59071 Y8.71701
G01 X-36.57196 Y8.76229
G01 X-36.48878 Y8.91790
G01 X-36.46155 Y8.95864
G01 X-36.34964 Y9.09501
G01 X-36.31497 Y9.12968
G01 X-36.16262 Y9.25229
G01 X-36.10285 Y9.31754
G01 X-36.01192 Y9.39214
G01 X-35.97118 Y9.41937
G01 X-35.86744 Y9.47482
G01 X-35.82218 Y9.49359
G01 X-35.68581 Y9.53369
G01 X-35.54448 Y9.54881
G01 X-35.49549 Y9.54881
G01 X-35.37842 Y9.53727
G01 X-35.33036 Y9.52772
G01 X-35.21781 Y9.49359
G01 X-35.17252 Y9.47482
G01 X-35.06879 Y9.41937
G01 X-35.02805 Y9.39214
G01 X-34.93712 Y9.31754
G01 X-34.87738 Y9.25231
G01 X-34.72500 Y9.12968
G01 X-34.62681 Y9.03319
G01 X-34.49841 Y8.87863
G01 X-34.47118 Y8.83789
G01 X-34.37750 Y8.66011
G01 X-34.31804 Y8.46816
G01 X-34.30847 Y8.42011
G01 X-34.29117 Y8.24452
G01 X-34.28998 Y2.80000
G01 X-34.30847 Y2.59992
G01 X-34.31804 Y2.55187
G01 X-34.37750 Y2.35992
G01 X-34.47118 Y2.18215
G01 X-34.49841 Y2.14140
G01 X-34.61032 Y2.00503
G01 X-34.64499 Y1.97036
G01 X-34.80107 Y1.84382
G01 X-34.97395 Y1.75007
G01 X-33.44583 Y1.75002
G01 X-33.21746 Y1.71326
G01 X-32.99963 Y1.70051
G01 X-32.74248 Y1.71326
G01 X-32.51396 Y1.75007
G01 X-32.56605 Y1.73945
G01 X-32.78388 Y1.70917
G01 X-32.96034 Y1.70051
G01 X-33.17606 Y1.70917
G01 X-33.39389 Y1.73945
G01 X-33.44583 Y1.75002
G01 X-33.61888 Y1.84382
G01 X-33.79315 Y1.98684
G01 X-33.92155 Y2.14140
G01 X-33.94878 Y2.18215
G01 X-34.03196 Y2.33775
G01 X-34.05071 Y2.38303
G01 X-34.10191 Y2.55187
G01 X-34.11149 Y2.59992
G01 X-34.12879 Y2.77551
G01 X-34.12998 Y8.30001
G01 X-34.11149 Y8.50012
G01 X-34.09612 Y8.56732
G01 X-34.05071 Y8.71701
G01 X-34.03196 Y8.76229
G01 X-33.93618 Y8.93893
G01 X-33.80964 Y9.09501
G01 X-33.77497 Y9.12968
G01 X-33.62262 Y9.25229
G01 X-33.56285 Y9.31754
G01 X-33.47192 Y9.39214
G01 X-33.43118 Y9.41937
G01 X-33.32744 Y9.47482
G01 X-33.28218 Y9.49359
G01 X-33.14581 Y9.53369
G01 X-33.00448 Y9.54881
G01 X-32.95549 Y9.54881
G01 X-32.81416 Y9.53369
G01 X-32.67781 Y9.49359
G01 X-32.63252 Y9.47482
G01 X-32.52879 Y9.41937
G01 X-32.48805 Y9.39214
G01 X-32.39712 Y9.31754
G01 X-32.33738 Y9.25231
G01 X-32.16682 Y9.11320
G01 X-32.03842 Y8.95864
G01 X-32.01119 Y8.91790
G01 X-31.91751 Y8.74012
G01 X-31.85805 Y8.54817
G01 X-31.84848 Y8.50012
G01 X-31.83118 Y8.32453
G01 X-31.82999 Y3.32055
G01 X-31.80207 Y3.22436
G01 X-31.78117 Y3.02451
G01 X-31.78117 Y2.97551
G01 X-31.79846 Y2.79992
G01 X-31.80804 Y2.75184
G01 X-31.84576 Y2.62746
G01 X-31.85805 Y2.55187
G01 X-31.91751 Y2.35992
G01 X-32.01119 Y2.18215
G01 X-32.03842 Y2.14140
G01 X-32.15033 Y2.00503
G01 X-32.18500 Y1.97036
G01 X-32.34108 Y1.84382
G01 X-32.51396 Y1.75007
G01 X-30.90583 Y1.75002
G01 X-30.67746 Y1.71326
G01 X-30.45963 Y1.70051
G01 X-30.20248 Y1.71326
G01 X-29.97396 Y1.75007
G01 X-30.02605 Y1.73945
G01 X-30.24388 Y1.70917
G01 X-30.42034 Y1.70051
G01 X-30.63606 Y1.70917
G01 X-30.85389 Y1.73945
G01 X-30.90583 Y1.75002
G01 X-31.07888 Y1.84382
G01 X-31.25315 Y1.98684
G01 X-31.38155 Y2.14140
G01 X-31.40878 Y2.18215
G01 X-31.49196 Y2.33775
G01 X-31.51071 Y2.38303
G01 X-31.56191 Y2.55187
G01 X-31.57149 Y2.59992
G01 X-31.58879 Y2.77551
G01 X-31.58998 Y8.30001
G01 X-31.57149 Y8.50012
G01 X-31.56191 Y8.54817
G01 X-31.51071 Y8.71701
G01 X-31.49196 Y8.76229
G01 X-31.39618 Y8.93893
G01 X-31.26964 Y9.09501
G01 X-31.23497 Y9.12968
G01 X-31.08262 Y9.25229
G01 X-31.02285 Y9.31754
G01 X-30.93192 Y9.39214
G01 X-30.89118 Y9.41937
G01 X-30.78744 Y9.47482
G01 X-30.74218 Y9.49359
G01 X-30.60581 Y9.53369
G01 X-30.46448 Y9.54881
G01 X-30.41549 Y9.54881
G01 X-30.27416 Y9.53369
G01 X-30.13781 Y9.49359
G01 X-30.09252 Y9.47482
G01 X-29.98879 Y9.41937
G01 X-29.94805 Y9.39214
G01 X-29.85712 Y9.31754
G01 X-29.79738 Y9.25231
G01 X-29.62682 Y9.11320
G01 X-29.49842 Y8.95864
G01 X-29.47119 Y8.91790
G01 X-29.37751 Y8.74012
G01 X-29.31805 Y8.54817
G01 X-29.30848 Y8.50012
G01 X-29.29118 Y8.32453
G01 X-29.28999 Y3.32055
G01 X-29.26207 Y3.22436
G01 X-29.24117 Y3.02451
G01 X-29.24117 Y2.97551
G01 X-29.25846 Y2.79992
G01 X-29.26804 Y2.75187
G01 X-29.30576 Y2.62743
G01 X-29.31805 Y2.55187
G01 X-29.37751 Y2.35992
G01 X-29.47119 Y2.18215
G01 X-29.49842 Y2.14140
G01 X-29.61033 Y2.00503
G01 X-29.64500 Y1.97036
G01 X-29.80108 Y1.84382
G01 X-29.97396 Y1.75007
G01 X-28.36583 Y1.75002
G01 X-28.13746 Y1.71326
G01 X-27.91963 Y1.70051
G01 X-27.66248 Y1.71326
G01 X-27.43396 Y1.75007
G01 X-27.48605 Y1.73945
G01 X-27.70388 Y1.70917
G01 X-27.88034 Y1.70051
G01 X-28.09606 Y1.70917
G01 X-28.31389 Y1.73945
G01 X-28.36583 Y1.75002
G01 X-28.53888 Y1.84382
G01 X-28.71315 Y1.98684
G01 X-28.84155 Y2.14140
G01 X-28.86878 Y2.18215
G01 X-28.95196 Y2.33775
G01 X-28.97071 Y2.38303
G01 X-29.02191 Y2.55187
G01 X-29.03149 Y2.59992
G01 X-29.04879 Y2.77551
G01 X-29.04998 Y8.30001
G01 X-29.03149 Y8.50012
G01 X-29.02191 Y8.54817
G01 X-28.97071 Y8.71701
G01 X-28.95196 Y8.76229
G01 X-28.85618 Y8.93893
G01 X-28.72964 Y9.09501
G01 X-28.69497 Y9.12968
G01 X-28.54262 Y9.25229
G01 X-28.48285 Y9.31754
G01 X-28.39192 Y9.39214
G01 X-28.35118 Y9.41937
G01 X-28.24744 Y9.47482
G01 X-28.20218 Y9.49359
G01 X-28.06581 Y9.53369
G01 X-27.92448 Y9.54881
G01 X-27.87549 Y9.54881
G01 X-27.73416 Y9.53369
G01 X-27.59781 Y9.49359
G01 X-27.55252 Y9.47482
G01 X-27.44879 Y9.41937
G01 X-27.40805 Y9.39214
G01 X-27.31712 Y9.31754
G01 X-27.25738 Y9.25231
G01 X-27.08682 Y9.11320
G01 X-26.95842 Y8.95864
G01 X-26.93119 Y8.91790
G01 X-26.83751 Y8.74012
G01 X-26.77805 Y8.54817
G01 X-26.76848 Y8.50012
G01 X-26.75118 Y8.32453
G01 X-26.74999 Y3.32055
G01 X-26.72207 Y3.22436
G01 X-26.70117 Y3.02451
G01 X-26.70117 Y2.97551
G01 X-26.71846 Y2.79992
G01 X-26.72804 Y2.75187
G01 X-26.76576 Y2.62743
G01 X-26.77805 Y2.55187
G01 X-26.83751 Y2.35992
G01 X-26.93119 Y2.18215
G01 X-26.95842 Y2.14140
G01 X-27.07033 Y2.00503
G01 X-27.10500 Y1.97036
G01 X-27.26108 Y1.84382
G01 X-27.43396 Y1.75007
G01 X-25.82583 Y1.75002
G01 X-25.59746 Y1.71326
G01 X-25.37963 Y1.70051
G01 X-25.12248 Y1.71326
G01 X-24.89396 Y1.75007
G01 X-24.94605 Y1.73945
G01 X-25.16388 Y1.70917
G01 X-25.34034 Y1.70051
G01 X-25.55606 Y1.70917
G01 X-25.77389 Y1.73945
G01 X-25.82583 Y1.75002
G01 X-25.99888 Y1.84382
G01 X-26.17315 Y1.98684
G01 X-26.30155 Y2.14140
G01 X-26.32878 Y2.18215
G01 X-26.41196 Y2.33775
G01 X-26.43071 Y2.38303
G01 X-26.48191 Y2.55187
G01 X-26.49149 Y2.59992
G01 X-26.50879 Y2.77551
G01 X-26.50998 Y8.30001
G01 X-26.49149 Y8.50012
G01 X-26.48191 Y8.54817
G01 X-26.43071 Y8.71701
G01 X-26.41196 Y8.76229
G01 X-26.31618 Y8.93893
G01 X-26.18964 Y9.09501
G01 X-26.15497 Y9.12968
G01 X-26.00262 Y9.25229
G01 X-25.94285 Y9.31754
G01 X-25.85192 Y9.39214
G01 X-25.81118 Y9.41937
G01 X-25.70744 Y9.47482
G01 X-25.66218 Y9.49359
G01 X-25.52581 Y9.53369
G01 X-25.38448 Y9.54881
G01 X-25.33549 Y9.54881
G01 X-25.19416 Y9.53369
G01 X-25.05781 Y9.49359
G01 X-25.01252 Y9.47482
G01 X-24.90879 Y9.41937
G01 X-24.86805 Y9.39214
G01 X-24.77712 Y9.31754
G01 X-24.71738 Y9.25231
G01 X-24.54682 Y9.11320
G01 X-24.41842 Y8.95864
G01 X-24.39119 Y8.91790
G01 X-24.29751 Y8.74012
G01 X-24.23805 Y8.54817
G01 X-24.22848 Y8.50012
G01 X-24.21118 Y8.32453
G01 X-24.20999 Y3.32055
G01 X-24.18207 Y3.22436
G01 X-24.16117 Y3.02451
G01 X-24.16117 Y2.97551
G01 X-24.17846 Y2.79992
G01 X-24.18804 Y2.75187
G01 X-24.22576 Y2.62743
G01 X-24.23805 Y2.55187
G01 X-24.29751 Y2.35992
G01 X-24.39119 Y2.18215
G01 X-24.41842 Y2.14140
G01 X-24.53033 Y2.00503
G01 X-24.56500 Y1.97036
G01 X-24.72108 Y1.84382
G01 X-24.89396 Y1.75007
G01 X-23.28583 Y1.75002
G01 X-23.05746 Y1.71326
G01 X-22.83963 Y1.70051
G01 X-22.58248 Y1.71326
G01 X-22.35396 Y1.75007
G01 X-22.40605 Y1.73945
G01 X-22.62388 Y1.70917
G01 X-22.80034 Y1.70051
G01 X-23.01606 Y1.70917
G01 X-23.23389 Y1.73945
G01 X-23.28583 Y1.75002
G01 X-23.45888 Y1.84382
G01 X-23.63315 Y1.98684
G01 X-23.76155 Y2.14140
G01 X-23.78878 Y2.18215
G01 X-23.87196 Y2.33775
G01 X-23.89071 Y2.38303
G01 X-23.94191 Y2.55187
G01 X-23.95149 Y2.59992
G01 X-23.96879 Y2.77551
G01 X-23.96998 Y8.30001
G01 X-23.95149 Y8.50012
G01 X-23.94191 Y8.54817
G01 X-23.89071 Y8.71701
G01 X-23.87196 Y8.76229
G01 X-23.77618 Y8.93893
G01 X-23.64964 Y9.09501
G01 X-23.61497 Y9.12968
G01 X-23.46262 Y9.25229
G01 X-23.40285 Y9.31754
G01 X-23.31192 Y9.39214
G01 X-23.27118 Y9.41937
G01 X-23.16744 Y9.47482
G01 X-23.12218 Y9.49359
G01 X-22.98581 Y9.53369
G01 X-22.84448 Y9.54881
G01 X-22.79549 Y9.54881
G01 X-22.65416 Y9.53369
G01 X-22.51781 Y9.49359
G01 X-22.47252 Y9.47482
G01 X-22.36879 Y9.41937
G01 X-22.32805 Y9.39214
G01 X-22.23712 Y9.31754
G01 X-22.17738 Y9.25231
G01 X-22.00682 Y9.11320
G01 X-21.87842 Y8.95864
G01 X-21.85119 Y8.91790
G01 X-21.75751 Y8.74012
G01 X-21.69805 Y8.54817
G01 X-21.68848 Y8.50012
G01 X-21.67118 Y8.32453
G01 X-21.66999 Y3.32055
G01 X-21.64207 Y3.22436
G01 X-21.62117 Y3.02451
G01 X-21.62117 Y2.97551
G01 X-21.63846 Y2.79992
G01 X-21.64804 Y2.75187
G01 X-21.68576 Y2.62743
G01 X-21.69805 Y2.55187
G01 X-21.75751 Y2.35992
G01 X-21.85119 Y2.18215
G01 X-21.87842 Y2.14140
G01 X-21.99033 Y2.00503
G01 X-22.02500 Y1.97036
G01 X-22.18109 Y1.84382
G01 X-22.35396 Y1.75007
G01 X-20.74583 Y1.75002
G01 X-20.51746 Y1.71326
G01 X-20.29963 Y1.70051
G01 X-20.04248 Y1.71326
G01 X-19.81396 Y1.75007
G01 X-19.86605 Y1.73945
G01 X-20.08388 Y1.70917
G01 X-20.26034 Y1.70051
G01 X-20.47606 Y1.70917
G01 X-20.69389 Y1.73945
G01 X-20.74583 Y1.75002
G01 X-20.91888 Y1.84382
G01 X-21.09315 Y1.98684
G01 X-21.22155 Y2.14140
G01 X-21.24878 Y2.18215
G01 X-21.33196 Y2.33775
G01 X-21.35071 Y2.38303
G01 X-21.40191 Y2.55187
G01 X-21.41149 Y2.59992
G01 X-21.42879 Y2.77551
G01 X-21.42998 Y8.30001
G01 X-21.41149 Y8.50012
G01 X-21.40191 Y8.54817
G01 X-21.35071 Y8.71701
G01 X-21.33196 Y8.76229
G01 X-21.23618 Y8.93893
G01 X-21.10964 Y9.09501
G01 X-21.07497 Y9.12968
G01 X-20.92262 Y9.25229
G01 X-20.86285 Y9.31754
G01 X-20.77192 Y9.39214
G01 X-20.73118 Y9.41937
G01 X-20.62744 Y9.47482
G01 X-20.58218 Y9.49359
G01 X-20.44581 Y9.53369
G01 X-20.30448 Y9.54881
G01 X-20.25549 Y9.54881
G01 X-20.11416 Y9.53369
G01 X-19.97781 Y9.49359
G01 X-19.93252 Y9.47482
G01 X-19.82879 Y9.41937
G01 X-19.78805 Y9.39214
G01 X-19.69712 Y9.31754
G01 X-19.63738 Y9.25231
G01 X-19.46682 Y9.11320
G01 X-19.33842 Y8.95864
G01 X-19.31119 Y8.91790
G01 X-19.21751 Y8.74012
G01 X-19.15805 Y8.54817
G01 X-19.14848 Y8.50012
G01 X-19.13118 Y8.32453
G01 X-19.12999 Y3.32055
G01 X-19.10207 Y3.22436
G01 X-19.08117 Y3.02451
G01 X-19.08117 Y2.97551
G01 X-19.09846 Y2.79992
G01 X-19.10804 Y2.75187
G01 X-19.14576 Y2.62743
G01 X-19.15805 Y2.55187
G01 X-19.21751 Y2.35992
G01 X-19.31119 Y2.18215
G01 X-19.33842 Y2.14140
G01 X-19.45033 Y2.00503
G01 X-19.48500 Y1.97036
G01 X-19.64109 Y1.84382
G01 X-19.81396 Y1.75007
G01 X-18.20583 Y1.75002
G01 X-17.97746 Y1.71326
G01 X-17.75963 Y1.70051
G01 X-17.50248 Y1.71326
G01 X-17.27396 Y1.75007
G01 X-17.32605 Y1.73945
G01 X-17.54388 Y1.70917
G01 X-17.72034 Y1.70051
G01 X-17.93606 Y1.70917
G01 X-18.15389 Y1.73945
G01 X-18.20583 Y1.75002
G01 X-18.37888 Y1.84382
G01 X-18.55315 Y1.98684
G01 X-18.68155 Y2.14140
G01 X-18.70878 Y2.18215
G01 X-18.79196 Y2.33775
G01 X-18.81071 Y2.38303
G01 X-18.86191 Y2.55187
G01 X-18.87149 Y2.59992
G01 X-18.88879 Y2.77551
G01 X-18.88998 Y8.30001
G01 X-18.87149 Y8.50012
G01 X-18.86191 Y8.54817
G01 X-18.81071 Y8.71701
G01 X-18.79196 Y8.76229
G01 X-18.69618 Y8.93893
G01 X-18.56964 Y9.09501
G01 X-18.53497 Y9.12968
G01 X-18.38262 Y9.25229
G01 X-18.32285 Y9.31754
G01 X-18.23192 Y9.39214
G01 X-18.19118 Y9.41937
G01 X-18.08744 Y9.47482
G01 X-18.04218 Y9.49359
G01 X-17.90581 Y9.53369
G01 X-17.76448 Y9.54881
G01 X-17.71549 Y9.54881
G01 X-17.57416 Y9.53369
G01 X-17.43781 Y9.49359
G01 X-17.39252 Y9.47482
G01 X-17.28879 Y9.41937
G01 X-17.24805 Y9.39214
G01 X-17.15712 Y9.31754
G01 X-17.09738 Y9.25231
G01 X-16.92682 Y9.11320
G01 X-16.79842 Y8.95864
G01 X-16.77119 Y8.91790
G01 X-16.67751 Y8.74012
G01 X-16.61805 Y8.54817
G01 X-16.60848 Y8.50012
G01 X-16.59118 Y8.32453
G01 X-16.58999 Y3.32055
G01 X-16.56207 Y3.22436
G01 X-16.54117 Y3.02451
G01 X-16.54117 Y2.97551
G01 X-16.55846 Y2.79992
G01 X-16.56804 Y2.75187
G01 X-16.60576 Y2.62743
G01 X-16.61805 Y2.55187
G01 X-16.67751 Y2.35992
G01 X-16.77119 Y2.18215
G01 X-16.79842 Y2.14140
G01 X-16.91033 Y2.00503
G01 X-16.94500 Y1.97036
G01 X-17.10108 Y1.84382
G01 X-17.27396 Y1.75007
G01 X-15.66583 Y1.75002
G01 X-15.43746 Y1.71326
G01 X-15.21963 Y1.70051
G01 X-14.96248 Y1.71326
G01 X-14.73396 Y1.75007
G01 X-14.78605 Y1.73945
G01 X-15.00388 Y1.70917
G01 X-15.18034 Y1.70051
G01 X-15.39606 Y1.70917
G01 X-15.61389 Y1.73945
G01 X-15.66583 Y1.75002
G01 X-15.83888 Y1.84382
G01 X-16.01315 Y1.98684
G01 X-16.14155 Y2.14140
G01 X-16.16878 Y2.18215
G01 X-16.25196 Y2.33775
G01 X-16.27071 Y2.38303
G01 X-16.32191 Y2.55187
G01 X-16.33149 Y2.59992
G01 X-16.34879 Y2.77551
G01 X-16.34998 Y8.30001
G01 X-16.33149 Y8.50012
G01 X-16.32191 Y8.54817
G01 X-16.27071 Y8.71701
G01 X-16.25196 Y8.76229
G01 X-16.15618 Y8.93893
G01 X-16.02964 Y9.09501
G01 X-15.99497 Y9.12968
G01 X-15.84262 Y9.25229
G01 X-15.78285 Y9.31754
G01 X-15.69192 Y9.39214
G01 X-15.65118 Y9.41937
G01 X-15.54744 Y9.47482
G01 X-15.50218 Y9.49359
G01 X-15.36581 Y9.53369
G01 X-15.22448 Y9.54881
G01 X-15.17549 Y9.54881
G01 X-15.03416 Y9.53369
G01 X-14.89781 Y9.49359
G01 X-14.85252 Y9.47482
G01 X-14.74879 Y9.41937
G01 X-14.70805 Y9.39214
G01 X-14.61712 Y9.31754
G01 X-14.55738 Y9.25231
G01 X-14.38682 Y9.11320
G01 X-14.25842 Y8.95864
G01 X-14.23119 Y8.91790
G01 X-14.13751 Y8.74012
G01 X-14.07805 Y8.54817
G01 X-14.06848 Y8.50012
G01 X-14.05118 Y8.32453
G01 X-14.04999 Y3.32055
G01 X-14.02207 Y3.22436
G01 X-14.00117 Y3.02451
G01 X-14.00117 Y2.97551
G01 X-14.01846 Y2.79992
G01 X-14.02804 Y2.75184
G01 X-14.06576 Y2.62746
G01 X-14.07805 Y2.55187
G01 X-14.13751 Y2.35992
G01 X-14.23119 Y2.18215
G01 X-14.25842 Y2.14140
G01 X-14.37033 Y2.00503
G01 X-14.40500 Y1.97036
G01 X-14.56108 Y1.84382
G01 X-14.73396 Y1.75007
G01 X-13.12583 Y1.75002
G01 X-12.89746 Y1.71326
G01 X-12.67963 Y1.70051
G01 X-12.42248 Y1.71326
G01 X-12.19396 Y1.75007
G01 X-12.24605 Y1.73945
G01 X-12.46388 Y1.70917
G01 X-12.64034 Y1.70051
G01 X-12.85606 Y1.70917
G01 X-13.07389 Y1.73945
G01 X-13.12583 Y1.75002
G01 X-13.29888 Y1.84382
G01 X-13.47315 Y1.98684
G01 X-13.60155 Y2.14140
G01 X-13.62878 Y2.18215
G01 X-13.71196 Y2.33775
G01 X-13.73071 Y2.38303
G01 X-13.78191 Y2.55187
G01 X-13.79149 Y2.59992
G01 X-13.80879 Y2.77551
G01 X-13.80998 Y8.30001
G01 X-13.79149 Y8.50012
G01 X-13.78191 Y8.54817
G01 X-13.73071 Y8.71701
G01 X-13.71196 Y8.76229
G01 X-13.61618 Y8.93893
G01 X-13.48964 Y9.09501
G01 X-13.45497 Y9.12968
G01 X-13.30262 Y9.25229
G01 X-13.24285 Y9.31754
G01 X-13.15192 Y9.39214
G01 X-13.11118 Y9.41937
G01 X-13.00744 Y9.47482
G01 X-12.96218 Y9.49359
G01 X-12.82581 Y9.53369
G01 X-12.68448 Y9.54881
G01 X-12.63549 Y9.54881
G01 X-12.49416 Y9.53369
G01 X-12.35781 Y9.49359
G01 X-12.31252 Y9.47482
G01 X-12.20879 Y9.41937
G01 X-12.16805 Y9.39214
G01 X-12.07712 Y9.31754
G01 X-12.01738 Y9.25231
G01 X-11.84682 Y9.11320
G01 X-11.71842 Y8.95864
G01 X-11.69119 Y8.91790
G01 X-11.59751 Y8.74012
G01 X-11.53805 Y8.54817
G01 X-11.52848 Y8.50012
G01 X-11.51118 Y8.32453
G01 X-11.50999 Y3.32055
G01 X-11.48207 Y3.22436
G01 X-11.46117 Y3.02451
G01 X-11.46117 Y2.97551
G01 X-11.47846 Y2.79992
G01 X-11.48804 Y2.75187
G01 X-11.52576 Y2.62746
G01 X-11.53805 Y2.55187
G01 X-11.59751 Y2.35992
G01 X-11.69119 Y2.18215
G01 X-11.71842 Y2.14140
G01 X-11.83033 Y2.00503
G01 X-11.86500 Y1.97036
G01 X-12.02108 Y1.84382
G01 X-12.19396 Y1.75007
G01 X-10.58855 Y1.75002
G01 X-10.36018 Y1.71326
G01 X-10.14235 Y1.70051
G01 X-9.88520 Y1.71326
G01 X-9.65668 Y1.75007
G01 X-9.70877 Y1.73945
G01 X-9.92660 Y1.70917
G01 X-10.10305 Y1.70051
G01 X-10.31878 Y1.70917
G01 X-10.53661 Y1.73945
G01 X-10.58855 Y1.75002
G01 X-10.76160 Y1.84382
G01 X-10.93587 Y1.98684
G01 X-11.06427 Y2.14140
G01 X-11.09150 Y2.18215
G01 X-11.17468 Y2.33775
G01 X-11.19343 Y2.38303
G01 X-11.24463 Y2.55187
G01 X-11.25421 Y2.59992
G01 X-11.27151 Y2.77551
G01 X-11.27270 Y8.30370
G01 X-11.25421 Y8.50380
G01 X-11.24463 Y8.55186
G01 X-11.19343 Y8.72069
G01 X-11.17468 Y8.76598
G01 X-11.07890 Y8.94261
G01 X-10.95235 Y9.09869
G01 X-10.91768 Y9.13336
G01 X-10.76533 Y9.25597
G01 X-10.72375 Y9.30474
G01 X-10.61464 Y9.39582
G01 X-10.57389 Y9.42305
G01 X-10.47016 Y9.47850
G01 X-10.42490 Y9.49724
G01 X-10.28853 Y9.53735
G01 X-10.14720 Y9.55249
G01 X-10.09820 Y9.55249
G01 X-9.98116 Y9.54096
G01 X-9.93308 Y9.53141
G01 X-9.82053 Y9.49724
G01 X-9.77524 Y9.47850
G01 X-9.67151 Y9.42305
G01 X-9.63077 Y9.39582
G01 X-9.53984 Y9.32122
G01 X-9.48009 Y9.25599
G01 X-9.30953 Y9.11688
G01 X-9.18114 Y8.96232
G01 X-9.15391 Y8.92158
G01 X-9.06023 Y8.74380
G01 X-9.00077 Y8.55186
G01 X-8.99120 Y8.50380
G01 X-8.97390 Y8.32821
G01 X-8.97270 Y3.32949
G01 X-8.94207 Y3.22436
G01 X-8.92117 Y3.02451
G01 X-8.92117 Y2.97551
G01 X-8.93846 Y2.79992
G01 X-8.94804 Y2.75187
G01 X-8.98980 Y2.61417
G01 X-9.00077 Y2.55187
G01 X-9.06023 Y2.35992
G01 X-9.15391 Y2.18215
G01 X-9.18114 Y2.14140
G01 X-9.29305 Y2.00503
G01 X-9.32772 Y1.97036
G01 X-9.48380 Y1.84382
G01 X-9.65668 Y1.75007
G01 X-8.04855 Y1.75002
G01 X-7.82018 Y1.71326
G01 X-7.60235 Y1.70051
G01 X-7.34520 Y1.71326
G01 X-7.12094 Y1.74900
G01 X-7.11668 Y1.75007
G01 X-7.16877 Y1.73945
G01 X-7.38660 Y1.70917
G01 X-7.56305 Y1.70051
G01 X-7.77878 Y1.70917
G01 X-7.99661 Y1.73945
G01 X-8.04855 Y1.75002
G01 X-8.22160 Y1.84382
G01 X-8.39587 Y1.98684
G01 X-8.52427 Y2.14140
G01 X-8.55150 Y2.18215
G01 X-8.63468 Y2.33775
G01 X-8.65343 Y2.38303
G01 X-8.70463 Y2.55187
G01 X-8.71421 Y2.59992
G01 X-8.73151 Y2.77551
G01 X-8.73270 Y8.30370
G01 X-8.71421 Y8.50380
G01 X-8.70463 Y8.55186
G01 X-8.65343 Y8.72069
G01 X-8.63468 Y8.76598
G01 X-8.53890 Y8.94261
G01 X-8.41235 Y9.09869
G01 X-8.37768 Y9.13336
G01 X-8.22533 Y9.25597
G01 X-8.18375 Y9.30474
G01 X-8.07464 Y9.39582
G01 X-8.03389 Y9.42305
G01 X-7.93016 Y9.47850
G01 X-7.88490 Y9.49724
G01 X-7.74853 Y9.53735
G01 X-7.60720 Y9.55249
G01 X-7.55820 Y9.55249
G01 X-7.44116 Y9.54096
G01 X-7.39308 Y9.53141
G01 X-7.28053 Y9.49724
G01 X-7.23524 Y9.47850
G01 X-7.13151 Y9.42305
G01 X-7.09077 Y9.39582
G01 X-6.99984 Y9.32122
G01 X-6.94009 Y9.25599
G01 X-6.76953 Y9.11688
G01 X-6.64114 Y8.96232
G01 X-6.61391 Y8.92158
G01 X-6.52023 Y8.74380
G01 X-6.46077 Y8.55186
G01 X-6.45120 Y8.50380
G01 X-6.43390 Y8.32821
G01 X-6.43270 Y3.22327
G01 X-6.41119 Y3.02451
G01 X-6.41139 Y2.97353
G01 X-6.45140 Y2.59794
G01 X-6.46077 Y2.55187
G01 X-6.52023 Y2.35992
G01 X-6.61391 Y2.18215
G01 X-6.64114 Y2.14140
G01 X-6.75305 Y2.00503
G01 X-6.78772 Y1.97036
G01 X-6.94380 Y1.84382
G01 X-7.11668 Y1.75007
G01 X-4.31066 Y1.75002
G01 X-1.74999 Y4.31069
G01 X-1.74999 Y16.80002
G04 P0 ( dwell for no time -- G64 should not smooth over this point )
G00 Z5.00000 ( retract )

G00 X-13.86998 Y33.50002 ( rapid move to begin. )
G01 F300.00000
( Mill infeed pass 1/1 )
G01 Z-0.02000
G04 P0 ( dwell for no time -- G64 should not smooth over this point )
G01 F600.00000
G01 X-13.86998 Y33.50002
G01 X-13.86998 Y37.00001
G01 X-13.89400 Y37.24387
G01 X-13.96512 Y37.47837
G01 X-14.06802 Y37.67344
G01 X-14.09525 Y37.71418
G01 X-14.23609 Y37.88390
G01 X-14.40581 Y38.02475
G01 X-14.44656 Y38.05197
G01 X-14.64163 Y38.15487
G01 X-14.85232 Y38.22005
G01 X-14.90038 Y38.22960
G01 X-15.09548 Y38.24882
G01 X-15.14447 Y38.24882
G01 X-15.33957 Y38.22960
G01 X-15.38763 Y38.22005
G01 X-15.59832 Y38.15487
G01 X-15.79339 Y38.05197
G01 X-15.83413 Y38.02475
G01 X-16.00386 Y37.88390
G01 X-16.14470 Y37.71418
G01 X-16.17193 Y37.67344
G01 X-16.27482 Y37.47837
G01 X-16.34000 Y37.26767
G01 X-16.34955 Y37.21962
G01 X-16.36997 Y37.00001
G01 X-16.36997 Y33.50002
G01 X-16.34594 Y33.25618
G01 X-16.27482 Y33.02168
G01 X-16.17193 Y32.82661
G01 X-16.14470 Y32.78587
G01 X-16.00386 Y32.61615
G01 X-15.83413 Y32.47530
G01 X-15.79339 Y32.44807
G01 X-15.62052 Y32.35567
G01 X-15.57523 Y32.33692
G01 X-15.38763 Y32.28000
G01 X-15.33957 Y32.27045
G01 X-15.14447 Y32.25122
G01 X-15.09548 Y32.25122
G01 X-14.87612 Y32.27406
G01 X-14.64163 Y32.34518
G01 X-14.44656 Y32.44807
G01 X-14.40581 Y32.47530
G01 X-14.25428 Y32.59966
G01 X-14.21961 Y32.63433
G01 X-14.09525 Y32.78587
G01 X-14.06802 Y32.82661
G01 X-13.96512 Y33.02168
G01 X-13.89400 Y33.25618
G01 X-13.86998 Y33.50002
G04 P0 ( dwell for no time -- G64 should not smooth over this point )
G00 Z5.00000 ( retract )

G00 X-11.32998 Y33.50002 ( rapid move to begin. )
G01 F300.00000
( Mill infeed pass 1/1 )
G01 Z-0.02000
G04 P0 ( dwell for no time -- G64 should not smooth over this point )
G01 F600.00000
G01 X-11.32998 Y33.50002
G01 X-11.32998 Y37.00001
G01 X-11.35400 Y37.24387
G01 X-11.42512 Y37.47837
G01 X-11.52802 Y37.67344
G01 X-11.55525 Y37.71418
G01 X-11.69609 Y37.88390
G01 X-11.86581 Y38.02475
G01 X-11.90656 Y38.05197
G01 X-12.10163 Y38.15487
G01 X-12.31232 Y38.22005
G01 X-12.36038 Y38.22960
G01 X-12.55548 Y38.24882
G01 X-12.60447 Y38.24882
G01 X-12.79957 Y38.22960
G01 X-12.84763 Y38.22005
G01 X-13.05832 Y38.15487
G01 X-13.25339 Y38.05197
G01 X-13.29413 Y38.02475
G01 X-13.46386 Y37.88390
G01 X-13.60470 Y37.71418
G01 X-13.63193 Y37.67344
G01 X-13.73482 Y37.47837
G01 X-13.80000 Y37.26767
G01 X-13.80955 Y37.21962
G01 X-13.82997 Y37.00001
G01 X-13.82997 Y33.50002
G01 X-13.80594 Y33.25618
G01 X-13.73482 Y33.02168
G01 X-13.63193 Y32.82661
G01 X-13.60470 Y32.78587
G01 X-13.46386 Y32.61615
G01 X-13.29413 Y32.47530
G01 X-13.25339 Y32.44807
G01 X-13.08052 Y32.35567
G01 X-13.03523 Y32.33692
G01 X-12.84763 Y32.28000
G01 X-12.79957 Y32.27045
G01 X-12.60447 Y32.25122
G01 X-12.55548 Y32.25122
G01 X-12.33612 Y32.27406
G01 X-12.10163 Y32.34518
G01 X-11.90656 Y32.44807
G01 X-11.86581 Y32.47530
G01 X-11.71428 Y32.59966
G01 X-11.67961 Y32.63433
G01 X-11.55525 Y32.78587
G01 X-11.52802 Y32.82661
G01 X-11.42512 Y33.02168
G01 X-11.35400 Y33.25618
G01 X-11.32998 Y33.50002
G04 P0 ( dwell for no time -- G64 should not smooth over this point )
G00 Z5.00000 ( retract )

G00 X-8.78998 Y33.50002 ( rapid move to begin. )
G01 F300.00000
( Mill infeed pass 1/1 )
G01 Z-0.02000
G04 P0 ( dwell for no time -- G64 should not smooth over this point )
G01 F600.00000
G01 X-8.78998 Y33.50002
G01 X-8.78998 Y37.00001
G01 X-8.81400 Y37.24387
G01 X-8.88512 Y37.47837
G01 X-8.98802 Y37.67344
G01 X-9.01525 Y37.71418
G01 X-9.15609 Y37.88390
G01 X-9.32581 Y38.02475
G01 X-9.36656 Y38.05197
G01 X-9.56163 Y38.15487
G01 X-9.77232 Y38.22005
G01 X-9.82038 Y38.22960
G01 X-10.01548 Y38.24882
G01 X-10.06447 Y38.24882
G01 X-10.25957 Y38.22960
G01 X-10.30763 Y38.22005
G01 X-10.51832 Y38.15487
G01 X-10.71339 Y38.05197
G01 X-10.75413 Y38.02475
G01 X-10.92386 Y37.88390
G01 X-11.06470 Y37.71418
G01 X-11.09193 Y37.67344
G01 X-11.19482 Y37.47837
G01 X-11.26000 Y37.26767
G01 X-11.26955 Y37.21962
G01 X-11.28997 Y37.00001
G01 X-11.28997 Y33.50002
G01 X-11.26594 Y33.25618
G01 X-11.19482 Y33.02168
G01 X-11.09193 Y32.82661
G01 X-11.06470 Y32.78587
G01 X-10.92386 Y32.61615
G01 X-10.75413 Y32.47530
G01 X-10.71339 Y32.44807
G01 X-10.54052 Y32.35567
G01 X-10.49523 Y32.33692
G01 X-10.30763 Y32.28000
G01 X-10.25957 Y32.27045
G01 X-10.06447 Y32.25122
G01 X-10.01548 Y32.25122
G01 X-9.79612 Y32.27406
G01 X-9.56163 Y32.34518
G01 X-9.36656 Y32.44807
G01 X-9.32581 Y32.47530
G01 X-9.17428 Y32.59966
G01 X-9.13961 Y32.63433
G01 X-9.01525 Y32.78587
G01 X-8.98802 Y32.82661
G01 X-8.88512 Y33.02168
G01 X-8.81400 Y33.25618
G01 X-8.78998 Y33.50002
G04 P0 ( dwell for no time -- G64 should not smooth over this point )
G00 Z5.00000 ( retract )

G00 X-1.74999 Y41.09708 ( rapid move to begin. )
G01 F300.00000
( Mill infeed pass 1/1 )
G01 Z-0.02000
G04 P0 ( dwell for no time -- G64 should not smooth over this point )
G01 F600.00000
G01 X-1.74999 Y41.09708
G01 X-1.75936 Y41.21077
G01 X-1.76764 Y41.25563
G01 X-1.79235 Y41.34346
G01 X-1.80866 Y41.38608
G01 X-1.84887 Y41.46797
G01 X-1.87267 Y41.50688
G01 X-1.94158 Y41.59779
G01 X-4.54452 Y44.50073
G01 X-4.62024 Y44.57330
G01 X-4.72285 Y44.64592
G01 X-4.83619 Y44.70037
G01 X-4.95701 Y44.73510
G01 X-4.99837 Y44.74211
G01 X-5.10294 Y44.75003
G01 X-13.02446 Y44.74884
G01 X-13.12202 Y44.73921
G01 X-13.17008 Y44.72966
G01 X-13.26388 Y44.70121
G01 X-13.30914 Y44.68244
G01 X-13.39561 Y44.63624
G01 X-13.43635 Y44.60901
G01 X-13.53030 Y44.53037
G01 X-13.73063 Y44.33002
G01 X-13.99202 Y44.33002
G01 X-14.33998 Y44.24447
G01 X-14.67648 Y44.19568
G01 X-14.99017 Y44.18028
G01 X-15.32347 Y44.19568
G01 X-15.65999 Y44.24447
G01 X-16.00795 Y44.33002
G01 X-16.68930 Y44.33002
G01 X-16.88963 Y44.53035
G01 X-16.99545 Y44.61770
G01 X-17.09730 Y44.67650
G01 X-17.16979 Y44.70652
G01 X-17.25430 Y44.73002
G01 X-17.16979 Y44.70652
G01 X-17.09730 Y44.67650
G01 X-16.99545 Y44.61770
G01 X-16.88963 Y44.53035
G01 X-16.68930 Y44.33002
G01 X-16.00795 Y44.33002
G01 X-16.04749 Y44.35641
G01 X-16.30812 Y44.57188
G01 X-16.43949 Y44.73002
G01 X-17.25430 Y44.73002
G01 X-17.41998 Y44.74005
G01 X-18.54886 Y44.74040
G01 X-18.73740 Y44.75003
G01 X-18.86649 Y44.78099
G01 X-19.03430 Y44.84716
G01 X-19.06925 Y44.86499
G01 X-19.22143 Y44.96187
G01 X-19.32882 Y45.05359
G01 X-19.46323 Y45.18694
G01 X-19.59161 Y45.34152
G01 X-19.61883 Y45.38226
G01 X-19.71248 Y45.56006
G01 X-19.77192 Y45.75198
G01 X-19.78150 Y45.80007
G01 X-19.79996 Y46.00014
G01 X-19.78145 Y46.20024
G01 X-19.77187 Y46.24830
G01 X-19.72064 Y46.41713
G01 X-19.70189 Y46.46240
G01 X-19.60608 Y46.63903
G01 X-19.47954 Y46.79511
G01 X-19.44487 Y46.82976
G01 X-19.30847 Y46.94167
G01 X-19.26773 Y46.96890
G01 X-19.08993 Y47.06255
G01 X-18.89801 Y47.12198
G01 X-18.84993 Y47.13156
G01 X-18.64985 Y47.15003
G01 X-18.44975 Y47.13151
G01 X-18.40169 Y47.12193
G01 X-18.23286 Y47.07070
G01 X-18.14655 Y47.03001
G01 X-16.43947 Y47.03001
G01 X-16.32461 Y47.16999
G01 X-16.28996 Y47.20464
G01 X-16.04749 Y47.40362
G01 X-16.00675 Y47.43085
G01 X-15.70795 Y47.58919
G01 X-15.38471 Y47.68851
G01 X-15.33665 Y47.69806
G01 X-15.02448 Y47.72882
G01 X-14.97549 Y47.72882
G01 X-14.66335 Y47.69806
G01 X-14.61526 Y47.68851
G01 X-14.29202 Y47.58919
G01 X-13.99322 Y47.43085
G01 X-13.95248 Y47.40362
G01 X-13.71001 Y47.20464
G01 X-13.67536 Y47.16999
G01 X-13.46177 Y46.90781
G01 X-13.29081 Y46.58797
G01 X-13.19149 Y46.26473
G01 X-13.18194 Y46.21665
G01 X-13.15118 Y45.90451
G01 X-13.15118 Y45.85551
G01 X-13.18194 Y45.54337
G01 X-13.19149 Y45.49529
G01 X-13.29081 Y45.17205
G01 X-13.46177 Y44.85221
G01 X-13.67536 Y44.59004
G01 X-13.71001 Y44.55539
G01 X-13.95248 Y44.35641
G01 X-13.99164 Y44.33012
G01 X-14.30711 Y44.25102
G01 X-14.65359 Y44.19794
G01 X-14.99017 Y44.18028
G01 X-15.32347 Y44.19568
G01 X-15.65999 Y44.24447
G01 X-16.00795 Y44.33002
G01 X-16.68930 Y44.33002
G01 X-16.90403 Y44.54368
G01 X-16.96370 Y44.59463
G01 X-17.06232 Y44.65869
G01 X-17.16979 Y44.70652
G01 X-17.25430 Y44.73002
G01 X-17.40106 Y44.73967
G01 X-18.52996 Y44.74002
G01 X-18.73740 Y44.75003
G01 X-34.68931 Y44.75003
G01 X-37.59998 Y47.66067
G01 X-37.59998 Y49.26681
G01 X-37.49157 Y49.39696
G01 X-37.46434 Y49.43770
G01 X-37.37991 Y49.59820
G01 X-37.32611 Y49.77136
G01 X-37.31656 Y49.81944
G01 X-37.30120 Y49.97550
G01 X-37.30120 Y50.02452
G01 X-37.31656 Y50.18060
G01 X-37.32611 Y50.22866
G01 X-37.37991 Y50.40184
G01 X-37.46434 Y50.56231
G01 X-37.49157 Y50.60308
G01 X-37.59106 Y50.72429
G01 X-37.62571 Y50.75896
G01 X-37.74694 Y50.85845
G01 X-37.78768 Y50.88568
G01 X-37.94816 Y50.97008
G01 X-38.12134 Y51.02388
G01 X-38.16942 Y51.03343
G01 X-38.32548 Y51.04880
G01 X-38.37450 Y51.04880
G01 X-38.53056 Y51.03343
G01 X-38.57864 Y51.02388
G01 X-38.75182 Y50.97008
G01 X-38.85540 Y50.91608
G01 X-41.24998 Y53.31067
G01 X-41.24998 Y66.00003
G01 X-41.26080 Y66.12207
G01 X-41.27035 Y66.17013
G01 X-41.29880 Y66.26393
G01 X-41.31757 Y66.30920
G01 X-41.36377 Y66.39566
G01 X-41.39100 Y66.43640
G01 X-41.46964 Y66.53035
G01 X-44.78998 Y69.85069
G01 X-44.78998 Y74.67321
G01 X-44.72864 Y74.69307
G01 X-44.66323 Y74.72665
G01 X-44.58462 Y74.78497
G01 X-44.51886 Y74.85751
G01 X-44.49163 Y74.89828
G01 X-44.45805 Y74.96366
G01 X-44.42961 Y75.05746
G01 X-44.42120 Y75.13051
G01 X-44.41998 Y75.45391
G01 X-44.37687 Y75.54476
G01 X-44.31401 Y75.75617
G01 X-44.29118 Y75.97552
G01 X-44.29118 Y76.02452
G01 X-44.31040 Y76.21961
G01 X-44.31995 Y76.26767
G01 X-44.38513 Y76.47836
G01 X-44.41998 Y76.54613
G01 X-44.42120 Y76.86952
G01 X-44.42961 Y76.94255
G01 X-44.44977 Y77.01329
G01 X-44.46451 Y77.05004
G01 X-43.75356 Y77.05004
G01 X-43.57139 Y77.11319
G01 X-43.37314 Y77.16145
G01 X-43.18059 Y77.18890
G01 X-43.01005 Y77.19729
G01 X-42.81937 Y77.18890
G01 X-42.62681 Y77.16145
G01 X-42.42854 Y77.11319
G01 X-42.24640 Y77.05004
G01 X-41.21353 Y77.05004
G01 X-41.03139 Y77.11319
G01 X-40.83314 Y77.16145
G01 X-40.64059 Y77.18890
G01 X-40.44991 Y77.19729
G01 X-40.25738 Y77.18672
G01 X-40.08681 Y77.16145
G01 X-39.99576 Y77.14006
G01 X-36.36968 Y77.14006
G01 X-36.24735 Y77.15677
G01 X-36.06061 Y77.16597
G01 X-35.95248 Y77.16630
G01 X-35.75258 Y77.15677
G01 X-35.63026 Y77.14006
G01 X-34.06425 Y77.13965
G01 X-33.85434 Y77.12772
G01 X-33.67791 Y77.10150
G01 X-33.46435 Y77.05004
G01 X-33.42137 Y77.02159
G01 X-33.28500 Y76.90968
G01 X-33.22363 Y76.85004
G01 X-9.99998 Y76.85004
G01 X-9.79988 Y76.83155
G01 X-9.75182 Y76.82195
G01 X-9.68853 Y76.80277
G01 X-9.58299 Y76.77074
G01 X-9.53770 Y76.75200
G01 X-9.36107 Y76.65622
G01 X-9.20499 Y76.52967
G01 X-9.17032 Y76.49500
G01 X-9.04377 Y76.33892
G01 X-8.94799 Y76.16229
G01 X-8.92924 Y76.11700
G01 X-8.87207 Y75.92437
G01 X-8.85116 Y75.72452
G01 X-8.85116 Y75.67552
G01 X-8.87207 Y75.47567
G01 X-8.92924 Y75.28304
G01 X-8.94799 Y75.23775
G01 X-9.04377 Y75.06112
G01 X-9.17032 Y74.90504
G01 X-9.20499 Y74.87037
G01 X-9.34136 Y74.75845
G01 X-9.38210 Y74.73123
G01 X-9.45911 Y74.69005
G01 X-9.59196 Y74.65901
G01 X-9.76841 Y74.63285
G01 X-9.99996 Y74.62002
G01 X-33.69996 Y74.62002
G01 X-33.93151 Y74.63285
G01 X-34.10796 Y74.65901
G01 X-34.24070 Y74.69003
G01 X-35.61692 Y74.69003
G01 X-35.69409 Y74.71345
G01 X-35.74217 Y74.72300
G01 X-35.92797 Y74.74131
G01 X-36.04748 Y74.74250
G01 X-36.25782 Y74.72300
G01 X-36.30587 Y74.71345
G01 X-36.50768 Y74.65099
G01 X-36.69452 Y74.55246
G01 X-36.73526 Y74.52523
G01 X-36.87961 Y74.40679
G01 X-36.91425 Y74.37212
G01 X-37.04732 Y74.20809
G01 X-37.14796 Y74.02236
G01 X-37.16673 Y73.97710
G01 X-37.22093 Y73.79841
G01 X-37.23048 Y73.75033
G01 X-37.24999 Y73.54002
G01 X-37.23048 Y73.32968
G01 X-37.22093 Y73.28162
G01 X-37.15845 Y73.07984
G01 X-37.05995 Y72.89298
G01 X-37.03272 Y72.85224
G01 X-36.91425 Y72.70789
G01 X-36.87961 Y72.67324
G01 X-36.73526 Y72.55478
G01 X-36.69452 Y72.52755
G01 X-36.50768 Y72.42905
G01 X-36.30587 Y72.36659
G01 X-36.25782 Y72.35701
G01 X-36.04748 Y72.33750
G01 X-35.92797 Y72.33872
G01 X-35.74217 Y72.35701
G01 X-35.69409 Y72.36659
G01 X-35.61680 Y72.39003
G01 X-7.11998 Y72.39003
G01 X-7.11998 Y72.15501
G01 X-7.11398 Y72.08173
G01 X-7.10441 Y72.03367
G01 X-7.08193 Y71.96367
G01 X-7.04832 Y71.89826
G01 X-7.02109 Y71.85752
G01 X-6.97355 Y71.80146
G01 X-6.91749 Y71.75389
G01 X-6.87672 Y71.72666
G01 X-6.81132 Y71.69308
G01 X-6.71754 Y71.66461
G01 X-6.61998 Y71.65501
G01 X-5.37998 Y71.65501
G01 X-5.30672 Y71.66103
G01 X-5.25864 Y71.67058
G01 X-5.18864 Y71.69308
G01 X-5.12326 Y71.72666
G01 X-5.08249 Y71.75389
G01 X-5.00995 Y71.81965
G01 X-4.95163 Y71.89826
G01 X-4.91805 Y71.96367
G01 X-4.89555 Y72.03367
G01 X-4.88600 Y72.08173
G01 X-4.87998 Y72.15501
G01 X-4.87998 Y72.74543
G01 X-4.86847 Y72.79994
G01 X-4.85117 Y72.97553
G01 X-4.85117 Y73.02452
G01 X-4.86847 Y73.20011
G01 X-4.87998 Y73.25462
G01 X-4.88120 Y73.86951
G01 X-4.89555 Y73.96636
G01 X-4.91805 Y74.03636
G01 X-4.95163 Y74.10176
G01 X-4.97886 Y74.14250
G01 X-5.02643 Y74.19856
G01 X-5.08249 Y74.24614
G01 X-5.12326 Y74.27337
G01 X-5.21175 Y74.31522
G01 X-5.30672 Y74.33900
G01 X-5.37998 Y74.34502
G01 X-5.71863 Y74.34502
G01 X-5.90108 Y74.49622
G01 X-6.07771 Y74.59201
G01 X-6.12300 Y74.61075
G01 X-6.31564 Y74.66793
G01 X-6.51548 Y74.68883
G01 X-9.45911 Y74.69005
G04 P0 ( dwell for no time -- G64 should not smooth over this point )
G00 Z5.00000 ( retract )

G00 X-20.02998 Y59.40001 ( rapid move to begin. )
G01 F300.00000
( Mill infeed pass 1/1 )
G01 Z-0.02000
G04 P0 ( dwell for no time -- G64 should not smooth over this point )
G01 F600.00000
G01 X-20.02998 Y59.40001
G01 X-20.02998 Y62.60001
G01 X-20.03478 Y62.64878
G01 X-20.04901 Y62.69569
G01 X-20.07212 Y62.73889
G01 X-20.10321 Y62.77679
G01 X-20.14108 Y62.80788
G01 X-20.18431 Y62.83097
G01 X-20.23120 Y62.84522
G01 X-20.28000 Y62.85002
G01 X-23.47999 Y62.85002
G01 X-23.52876 Y62.84522
G01 X-23.57565 Y62.83097
G01 X-23.61888 Y62.80788
G01 X-23.65677 Y62.77679
G01 X-23.68786 Y62.73889
G01 X-23.71095 Y62.69569
G01 X-23.72518 Y62.64878
G01 X-23.72998 Y62.60001
G01 X-23.72998 Y61.75002
G01 X-30.99999 Y61.75002
G01 X-31.09781 Y61.74309
G01 X-31.21284 Y61.71865
G01 X-31.32265 Y61.67649
G01 X-31.35760 Y61.65868
G01 X-31.45623 Y61.59462
G01 X-31.53032 Y61.53034
G01 X-32.88030 Y60.18033
G01 X-32.95897 Y60.08640
G01 X-32.98617 Y60.04563
G01 X-33.03237 Y59.95920
G01 X-33.05114 Y59.91393
G01 X-33.07959 Y59.82013
G01 X-33.08914 Y59.77207
G01 X-33.09996 Y59.65003
G01 X-33.09996 Y56.73418
G01 X-33.20842 Y56.60307
G01 X-33.23565 Y56.56233
G01 X-33.32005 Y56.40182
G01 X-33.37385 Y56.22865
G01 X-33.38340 Y56.18059
G01 X-33.39879 Y56.02451
G01 X-33.39879 Y55.97551
G01 X-33.38340 Y55.81943
G01 X-33.37385 Y55.77137
G01 X-33.32005 Y55.59819
G01 X-33.23565 Y55.43772
G01 X-33.20842 Y55.39695
G01 X-33.10893 Y55.27574
G01 X-33.07428 Y55.24107
G01 X-32.95305 Y55.14158
G01 X-32.91228 Y55.11435
G01 X-32.77398 Y55.04043
G01 X-32.72871 Y55.02166
G01 X-32.57863 Y54.97615
G01 X-32.53057 Y54.96660
G01 X-32.37449 Y54.95120
G01 X-32.32549 Y54.95120
G01 X-32.16941 Y54.96660
G01 X-32.12135 Y54.97615
G01 X-31.94817 Y55.02994
G01 X-31.78767 Y55.11435
G01 X-31.74693 Y55.14158
G01 X-31.62569 Y55.24107
G01 X-31.59105 Y55.27574
G01 X-31.49156 Y55.39695
G01 X-31.46433 Y55.43772
G01 X-31.37992 Y55.59819
G01 X-31.32613 Y55.77137
G01 X-31.31655 Y55.81943
G01 X-31.30118 Y55.97551
G01 X-31.30118 Y56.02451
G01 X-31.31655 Y56.18059
G01 X-31.32613 Y56.22865
G01 X-31.37992 Y56.40182
G01 X-31.46433 Y56.56233
G01 X-31.49156 Y56.60307
G01 X-31.59996 Y56.73322
G01 X-31.59996 Y59.33936
G01 X-30.68932 Y60.25003
G01 X-23.72998 Y60.25003
G01 X-23.72998 Y59.40001
G01 X-23.72518 Y59.35125
G01 X-23.71095 Y59.30433
G01 X-23.68786 Y59.26113
G01 X-23.65677 Y59.22323
G01 X-23.61888 Y59.19214
G01 X-23.57565 Y59.16905
G01 X-23.52876 Y59.15483
G01 X-23.47999 Y59.15000
G01 X-20.28000 Y59.15000
G01 X-20.23120 Y59.15483
G01 X-20.18431 Y59.16905
G01 X-20.14108 Y59.19214
G01 X-20.10321 Y59.22323
G01 X-20.07212 Y59.26113
G01 X-20.04901 Y59.30433
G01 X-20.03478 Y59.35125
G01 X-20.02998 Y59.40001
G04 P0 ( dwell for no time -- G64 should not smooth over this point )
G00 Z5.00000 ( retract )

G00 X-34.24070 Y74.69003 ( rapid move to begin. )
G01 F300.00000
( Mill infeed pass 1/1 )
G01 Z-0.02000
G04 P0 ( dwell for no time -- G64 should not smooth over this point )
G01 F600.00000
G01 X-34.24070 Y74.69003
G01 X-34.31784 Y74.73123
G01 X-34.35858 Y74.75845
G01 X-34.49495 Y74.87037
G01 X-34.55632 Y74.93003
G01 X-35.61680 Y74.93003
G01 X-35.69409 Y74.90659
G01 X-35.74217 Y74.89701
G01 X-35.95248 Y74.87750
G01 X-36.07199 Y74.87872
G01 X-36.25782 Y74.89701
G01 X-36.30587 Y74.90659
G01 X-36.38316 Y74.93003
G01 X-39.73076 Y74.93003
G01 X-39.81803 Y74.85838
G01 X-39.85880 Y74.83115
G01 X-40.00919 Y74.75076
G01 X-40.05448 Y74.73201
G01 X-40.21768 Y74.68248
G01 X-40.26576 Y74.67293
G01 X-40.45999 Y74.65500
G01 X-40.65423 Y74.67293
G01 X-40.70228 Y74.68248
G01 X-40.88859 Y74.74027
G01 X-41.06118 Y74.83115
G01 X-41.10193 Y74.85838
G01 X-41.25194 Y74.98304
G01 X-41.39123 Y75.15276
G01 X-41.48425 Y75.32424
G01 X-41.50299 Y75.36950
G01 X-41.55857 Y75.55703
G01 X-41.57652 Y75.73409
G01 X-41.59149 Y75.79993
G01 X-41.60998 Y76.00003
G01 X-41.59149 Y76.20011
G01 X-41.57652 Y76.26597
G01 X-41.55857 Y76.44301
G01 X-41.49474 Y76.65362
G01 X-41.40386 Y76.82622
G01 X-41.37663 Y76.86698
G01 X-41.26842 Y76.99879
G01 X-41.21353 Y77.05004
G01 X-42.24640 Y77.05004
G01 X-42.19156 Y76.99879
G01 X-42.06875 Y76.84725
G01 X-41.96525 Y76.65362
G01 X-41.90142 Y76.44301
G01 X-41.88346 Y76.26605
G01 X-41.86847 Y76.20011
G01 X-41.85118 Y76.02452
G01 X-41.84998 Y72.47637
G01 X-38.52365 Y69.15003
G01 X-25.64996 Y69.15003
G01 X-25.48956 Y69.13820
G01 X-25.45083 Y69.13205
G01 X-25.27618 Y69.08696
G01 X-25.11075 Y69.01511
G01 X-24.95860 Y68.91826
G01 X-24.83681 Y68.81320
G01 X-22.82033 Y66.79500
G01 X-22.70839 Y66.65862
G01 X-22.68116 Y66.61788
G01 X-22.58751 Y66.44008
G01 X-22.52802 Y66.24816
G01 X-22.51847 Y66.20010
G01 X-22.49998 Y66.00000
G01 X-22.51847 Y65.79993
G01 X-22.52805 Y65.75184
G01 X-22.57926 Y65.58301
G01 X-22.59800 Y65.53775
G01 X-22.68119 Y65.38215
G01 X-22.70841 Y65.34140
G01 X-22.83681 Y65.18685
G01 X-22.99137 Y65.05842
G01 X-23.03211 Y65.03119
G01 X-23.18771 Y64.94803
G01 X-23.23300 Y64.92929
G01 X-23.40183 Y64.87806
G01 X-23.44989 Y64.86851
G01 X-23.64999 Y64.85002
G01 X-23.85007 Y64.86851
G01 X-23.89815 Y64.87808
G01 X-24.06698 Y64.92929
G01 X-24.11225 Y64.94803
G01 X-24.26785 Y65.03122
G01 X-24.30859 Y65.05845
G01 X-24.46315 Y65.18685
G01 X-26.12634 Y66.85004
G01 X-35.73668 Y66.85004
G01 X-35.79658 Y66.86896
G01 X-35.95342 Y66.90825
G01 X-36.14712 Y66.93886
G01 X-36.33523 Y66.94968
G01 X-36.52154 Y66.94196
G01 X-36.74654 Y66.90825
G01 X-36.94999 Y66.85479
G01 X-36.96328 Y66.85004
G01 X-37.07427 Y66.75895
G01 X-37.10892 Y66.72431
G01 X-37.20841 Y66.60307
G01 X-37.23564 Y66.56231
G01 X-37.32007 Y66.40183
G01 X-37.37384 Y66.22865
G01 X-37.38342 Y66.18059
G01 X-37.39878 Y66.02451
G01 X-37.39878 Y65.97552
G01 X-37.38342 Y65.81943
G01 X-37.37384 Y65.77138
G01 X-37.32832 Y65.62129
G01 X-37.30958 Y65.57602
G01 X-37.23564 Y65.43770
G01 X-37.20841 Y65.39695
G01 X-37.10892 Y65.27572
G01 X-37.07427 Y65.24107
G01 X-36.95304 Y65.14158
G01 X-36.91230 Y65.11435
G01 X-36.75179 Y65.02995
G01 X-36.57864 Y64.97615
G01 X-36.53056 Y64.96658
G01 X-36.36119 Y64.95057
G01 X-34.74997 Y63.33938
G01 X-34.74997 Y60.31068
G01 X-35.54677 Y59.51218
G01 X-35.60895 Y59.43641
G01 X-35.63618 Y59.39567
G01 X-35.68238 Y59.30921
G01 X-35.70115 Y59.26395
G01 X-35.72960 Y59.17014
G01 X-35.73915 Y59.12209
G01 X-35.74997 Y59.00001
G01 X-35.74997 Y55.50002
G01 X-35.73915 Y55.37797
G01 X-35.72960 Y55.32992
G01 X-35.70115 Y55.23612
G01 X-35.68238 Y55.19085
G01 X-35.63618 Y55.10439
G01 X-35.60895 Y55.06365
G01 X-35.53031 Y54.96970
G01 X-28.03032 Y47.46968
G01 X-27.92451 Y47.38236
G01 X-27.82265 Y47.32356
G01 X-27.71285 Y47.28139
G01 X-27.59781 Y47.25696
G01 X-27.50000 Y47.25003
G01 X-22.99998 Y47.25003
G01 X-22.87791 Y47.26085
G01 X-22.82985 Y47.27040
G01 X-22.73605 Y47.29884
G01 X-22.69079 Y47.31762
G01 X-22.60433 Y47.36382
G01 X-22.56358 Y47.39105
G01 X-22.46963 Y47.46968
G01 X-19.68932 Y50.25002
G01 X-4.99997 Y50.25002
G01 X-4.87792 Y50.26084
G01 X-4.82986 Y50.27039
G01 X-4.71297 Y50.30712
G01 X-4.60434 Y50.36381
G01 X-4.56359 Y50.39104
G01 X-4.46964 Y50.46968
G01 X-2.46964 Y52.46967
G01 X-2.39101 Y52.56363
G01 X-2.36378 Y52.60437
G01 X-2.30708 Y52.71301
G01 X-2.27036 Y52.82990
G01 X-2.26080 Y52.87795
G01 X-2.24998 Y53.00003
G01 X-2.24998 Y53.91587
G01 X-2.14155 Y54.04696
G01 X-2.11432 Y54.08771
G01 X-2.02992 Y54.24818
G01 X-1.97612 Y54.42136
G01 X-1.96657 Y54.46944
G01 X-1.95118 Y54.62550
G01 X-1.95118 Y54.67452
G01 X-1.96657 Y54.83058
G01 X-1.97612 Y54.87866
G01 X-2.02992 Y55.05184
G01 X-2.11432 Y55.21232
G01 X-2.14155 Y55.25306
G01 X-2.24998 Y55.38415
G01 X-2.24998 Y57.68937
G01 X-0.45319 Y59.48787
G01 X-0.39101 Y59.56364
G01 X-0.36378 Y59.60438
G01 X-0.30709 Y59.71302
G01 X-0.27036 Y59.82991
G01 X-0.26081 Y59.87797
G01 X-0.25118 Y59.97553
G01 X-0.24999 Y76.00001
G01 X-0.26081 Y76.12208
G01 X-0.27036 Y76.17014
G01 X-0.30709 Y76.28703
G01 X-0.36378 Y76.39566
G01 X-0.39101 Y76.43640
G01 X-0.46965 Y76.53036
G01 X-3.46964 Y79.53035
G01 X-3.56360 Y79.60899
G01 X-3.60434 Y79.63622
G01 X-3.71297 Y79.69291
G01 X-3.82986 Y79.72964
G01 X-3.87792 Y79.73919
G01 X-3.99999 Y79.75001
G01 X-46.99998 Y79.75001
G01 X-47.12203 Y79.73919
G01 X-47.17009 Y79.72964
G01 X-47.26389 Y79.70119
G01 X-47.30915 Y79.68242
G01 X-47.39561 Y79.63622
G01 X-47.43636 Y79.60899
G01 X-47.53031 Y79.53035
G01 X-47.62515 Y79.41430
G01 X-47.67072 Y79.32746
G01 X-59.20232 Y67.79583
G01 X-59.28927 Y67.75021
G01 X-59.38713 Y67.67183
G01 X-59.42178 Y67.63718
G01 X-59.48396 Y67.56142
G01 X-59.51119 Y67.52067
G01 X-59.55739 Y67.43421
G01 X-59.57616 Y67.38895
G01 X-59.60461 Y67.29515
G01 X-59.61416 Y67.24709
G01 X-59.62498 Y67.12502
G01 X-59.62498 Y29.87500
G01 X-59.61416 Y29.75296
G01 X-59.60461 Y29.70490
G01 X-59.57616 Y29.61110
G01 X-59.55739 Y29.56583
G01 X-59.51119 Y29.47937
G01 X-59.48396 Y29.43863
G01 X-59.40532 Y29.34468
G01 X-55.53032 Y25.46968
G01 X-55.41663 Y25.37641
G01 X-55.30914 Y25.31761
G01 X-55.26390 Y25.29886
G01 X-55.14627 Y25.26442
G01 X-54.99999 Y25.25002
G01 X-41.99999 Y25.25002
G01 X-41.87792 Y25.26084
G01 X-41.82986 Y25.27039
G01 X-41.71297 Y25.30712
G01 X-41.60434 Y25.36381
G01 X-41.56360 Y25.39104
G01 X-41.46964 Y25.46968
G01 X-37.44963 Y29.48969
G01 X-37.37100 Y29.58364
G01 X-37.34377 Y29.62438
G01 X-37.29756 Y29.71084
G01 X-37.27879 Y29.75611
G01 X-37.25035 Y29.84991
G01 X-37.24080 Y29.89796
G01 X-37.22998 Y30.02001
G01 X-37.22998 Y32.50472
G01 X-37.09609 Y32.61615
G01 X-36.95525 Y32.78587
G01 X-36.92802 Y32.82661
G01 X-36.83561 Y32.99948
G01 X-36.81687 Y33.04477
G01 X-36.75400 Y33.25618
G01 X-36.73117 Y33.47553
G01 X-36.73117 Y37.02452
G01 X-36.75400 Y37.24387
G01 X-36.82512 Y37.47837
G01 X-36.92802 Y37.67344
G01 X-36.95525 Y37.71418
G01 X-37.09609 Y37.88390
G01 X-37.26581 Y38.02475
G01 X-37.30656 Y38.05197
G01 X-37.50163 Y38.15487
G01 X-37.71232 Y38.22005
G01 X-37.76038 Y38.22960
G01 X-37.95548 Y38.24882
G01 X-38.00447 Y38.24882
G01 X-38.19957 Y38.22960
G01 X-38.24763 Y38.22005
G01 X-38.45832 Y38.15487
G01 X-38.65339 Y38.05197
G01 X-38.69413 Y38.02475
G01 X-38.86386 Y37.88390
G01 X-39.00470 Y37.71418
G01 X-39.03193 Y37.67344
G01 X-39.13482 Y37.47837
G01 X-39.20000 Y37.26767
G01 X-39.20955 Y37.21962
G01 X-39.22878 Y37.02452
G01 X-39.22878 Y33.47553
G01 X-39.20594 Y33.25618
G01 X-39.14308 Y33.04477
G01 X-39.12433 Y32.99948
G01 X-39.03193 Y32.82661
G01 X-39.00470 Y32.78587
G01 X-38.86386 Y32.61615
G01 X-38.72997 Y32.50472
G01 X-38.72997 Y30.33068
G01 X-42.31064 Y26.75002
G01 X-54.68933 Y26.75002
G01 X-58.12498 Y30.18567
G01 X-58.12498 Y66.75187
G01 X-46.62686 Y78.25001
G01 X-45.59780 Y78.25007
G04 P0 ( dwell for no time -- G64 should not smooth over this point )
G00 Z5.00000 ( retract )

G00 X-42.52618 Y50.95050 ( rapid move to begin. )
G01 F300.00000
( Mill infeed pass 1/1 )
G01 Z-0.02000
G04 P0 ( dwell for no time -- G64 should not smooth over this point )
G01 F600.00000
G01 X-42.52618 Y50.95050
G01 X-42.52618 Y50.99952
G01 X-42.54251 Y51.16533
G01 X-42.55209 Y51.21342
G01 X-42.60873 Y51.39597
G01 X-42.69776 Y51.56510
G01 X-42.72499 Y51.60585
G01 X-42.83070 Y51.73465
G01 X-42.87497 Y51.77719
G01 X-42.87497 Y54.62502
G01 X-42.88579 Y54.74709
G01 X-42.89534 Y54.79515
G01 X-42.93207 Y54.91204
G01 X-42.98877 Y55.02067
G01 X-43.01599 Y55.06141
G01 X-43.09463 Y55.15537
G01 X-46.70997 Y58.77068
G01 X-46.70997 Y60.67321
G01 X-46.62648 Y60.70357
G01 X-46.54250 Y60.75388
G01 X-46.48645 Y60.80146
G01 X-46.43887 Y60.85752
G01 X-46.41164 Y60.89826
G01 X-46.37804 Y60.96366
G01 X-46.34959 Y61.05747
G01 X-46.34118 Y61.13052
G01 X-46.33999 Y62.84502
G01 X-46.34959 Y62.94255
G01 X-46.37804 Y63.03635
G01 X-46.41164 Y63.10176
G01 X-46.43887 Y63.14250
G01 X-46.48645 Y63.19856
G01 X-46.54250 Y63.24613
G01 X-46.58325 Y63.27336
G01 X-46.64865 Y63.30694
G01 X-46.71865 Y63.32944
G01 X-46.76671 Y63.33900
G01 X-46.83999 Y63.34502
G01 X-48.07999 Y63.34502
G01 X-48.17753 Y63.33541
G01 X-48.27133 Y63.30694
G01 X-48.33673 Y63.27336
G01 X-48.37748 Y63.24613
G01 X-48.43353 Y63.19856
G01 X-48.48111 Y63.14250
G01 X-48.50834 Y63.10176
G01 X-48.54192 Y63.03635
G01 X-48.56442 Y62.96635
G01 X-48.57397 Y62.91830
G01 X-48.57999 Y62.84502
G01 X-48.57999 Y61.15500
G01 X-48.57039 Y61.05747
G01 X-48.55020 Y60.98678
G01 X-48.50834 Y60.89826
G01 X-48.48111 Y60.85752
G01 X-48.43353 Y60.80146
G01 X-48.37748 Y60.75388
G01 X-48.29350 Y60.70357
G01 X-48.20996 Y60.67319
G01 X-48.20996 Y58.46004
G01 X-48.19914 Y58.33796
G01 X-48.18959 Y58.28991
G01 X-48.15286 Y58.17302
G01 X-48.09617 Y58.06438
G01 X-48.06894 Y58.02364
G01 X-47.99030 Y57.92968
G01 X-44.37497 Y54.31438
G01 X-44.37497 Y51.77722
G01 X-44.41929 Y51.73465
G01 X-44.52498 Y51.60585
G01 X-44.55221 Y51.56510
G01 X-44.63077 Y51.41814
G01 X-44.64952 Y51.37285
G01 X-44.70385 Y51.18962
G01 X-44.72379 Y50.99952
G01 X-44.72379 Y50.95050
G01 X-44.70746 Y50.78469
G01 X-44.69788 Y50.73661
G01 X-44.64126 Y50.55406
G01 X-44.55221 Y50.38492
G01 X-44.52498 Y50.34418
G01 X-44.41929 Y50.21537
G01 X-44.38462 Y50.18073
G01 X-44.25582 Y50.07501
G01 X-44.21508 Y50.04778
G01 X-44.04594 Y49.95873
G01 X-43.86339 Y49.90212
G01 X-43.81531 Y49.89254
G01 X-43.64950 Y49.87621
G01 X-43.60047 Y49.87621
G01 X-43.43466 Y49.89254
G01 X-43.38658 Y49.90212
G01 X-43.22714 Y49.95048
G01 X-43.18186 Y49.96922
G01 X-43.03489 Y50.04778
G01 X-42.99415 Y50.07501
G01 X-42.86535 Y50.18073
G01 X-42.83070 Y50.21537
G01 X-42.72499 Y50.34418
G01 X-42.69776 Y50.38492
G01 X-42.60873 Y50.55406
G01 X-42.55209 Y50.73661
G01 X-42.54251 Y50.78469
G01 X-42.52618 Y50.95050
G04 P0 ( dwell for no time -- G64 should not smooth over this point )
G00 Z5.00000 ( retract )

G00 X-45.06618 Y50.95050 ( rapid move to begin. )
G01 F300.00000
( Mill infeed pass 1/1 )
G01 Z-0.02000
G04 P0 ( dwell for no time -- G64 should not smooth over this point )
G01 F600.00000
G01 X-45.06618 Y50.95050
G01 X-45.06618 Y50.99952
G01 X-45.08251 Y51.16533
G01 X-45.09209 Y51.21342
G01 X-45.14873 Y51.39597
G01 X-45.23776 Y51.56510
G01 X-45.26499 Y51.60585
G01 X-45.37070 Y51.73465
G01 X-45.41497 Y51.77719
G01 X-45.41497 Y54.16502
G01 X-45.42579 Y54.28710
G01 X-45.43534 Y54.33515
G01 X-45.47207 Y54.45204
G01 X-45.52876 Y54.56068
G01 X-45.55599 Y54.60142
G01 X-45.63463 Y54.69538
G01 X-49.24997 Y58.31068
G01 X-49.24997 Y60.94708
G01 X-49.19155 Y61.00123
G01 X-49.08337 Y61.13306
G01 X-49.05614 Y61.17382
G01 X-48.96523 Y61.34642
G01 X-48.90747 Y61.53273
G01 X-48.89790 Y61.58078
G01 X-48.87999 Y61.77502
G01 X-48.88118 Y62.24951
G01 X-48.89790 Y62.41924
G01 X-48.90747 Y62.46732
G01 X-48.96523 Y62.65363
G01 X-49.06874 Y62.84725
G01 X-49.19155 Y62.99879
G01 X-49.22622 Y63.03346
G01 X-49.37775 Y63.15627
G01 X-49.57138 Y63.25975
G01 X-49.75769 Y63.31753
G01 X-49.80574 Y63.32708
G01 X-49.99998 Y63.34502
G01 X-50.19421 Y63.32708
G01 X-50.24229 Y63.31753
G01 X-50.42860 Y63.25975
G01 X-50.60117 Y63.16887
G01 X-50.64194 Y63.14164
G01 X-50.77376 Y63.03346
G01 X-50.80843 Y62.99879
G01 X-50.93124 Y62.84725
G01 X-51.03472 Y62.65363
G01 X-51.09251 Y62.46732
G01 X-51.10206 Y62.41924
G01 X-51.11999 Y62.22500
G01 X-51.11999 Y61.77502
G01 X-51.10206 Y61.58078
G01 X-51.09251 Y61.53273
G01 X-51.03472 Y61.34642
G01 X-50.94384 Y61.17382
G01 X-50.91661 Y61.13306
G01 X-50.80843 Y61.00123
G01 X-50.74996 Y60.94705
G01 X-50.74996 Y58.00004
G01 X-50.73914 Y57.87797
G01 X-50.72959 Y57.82991
G01 X-50.69286 Y57.71302
G01 X-50.63617 Y57.60439
G01 X-50.60894 Y57.56364
G01 X-50.53030 Y57.46969
G01 X-46.91497 Y53.85438
G01 X-46.91497 Y51.77722
G01 X-46.95929 Y51.73465
G01 X-47.06498 Y51.60585
G01 X-47.09221 Y51.56510
G01 X-47.17077 Y51.41814
G01 X-47.18952 Y51.37285
G01 X-47.24385 Y51.18962
G01 X-47.26379 Y50.99952
G01 X-47.26379 Y50.95050
G01 X-47.24746 Y50.78469
G01 X-47.23788 Y50.73661
G01 X-47.18126 Y50.55406
G01 X-47.09221 Y50.38492
G01 X-47.06498 Y50.34418
G01 X-46.95929 Y50.21537
G01 X-46.92462 Y50.18073
G01 X-46.79582 Y50.07501
G01 X-46.75508 Y50.04778
G01 X-46.58594 Y49.95873
G01 X-46.40339 Y49.90212
G01 X-46.35531 Y49.89254
G01 X-46.18950 Y49.87621
G01 X-46.14047 Y49.87621
G01 X-45.97466 Y49.89254
G01 X-45.92658 Y49.90212
G01 X-45.74403 Y49.95873
G01 X-45.57489 Y50.04778
G01 X-45.53415 Y50.07501
G01 X-45.38716 Y50.19719
G01 X-45.26499 Y50.34418
G01 X-45.23776 Y50.38492
G01 X-45.15922 Y50.53188
G01 X-45.14045 Y50.57717
G01 X-45.09209 Y50.73661
G01 X-45.08251 Y50.78469
G01 X-45.06618 Y50.95050
G04 P0 ( dwell for no time -- G64 should not smooth over this point )
G00 Z5.00000 ( retract )

G00 X-51.96998 Y33.50002 ( rapid move to begin. )
G01 F300.00000
( Mill infeed pass 1/1 )
G01 Z-0.02000
G04 P0 ( dwell for no time -- G64 should not smooth over this point )
G01 F600.00000
G01 X-51.96998 Y33.50002
G01 X-51.99040 Y33.28043
G01 X-51.99995 Y33.23238
G01 X-52.05684 Y33.04477
G01 X-52.07561 Y32.99948
G01 X-52.18062 Y32.80555
G01 X-52.31958 Y32.63433
G01 X-52.35428 Y32.59966
G01 X-52.50581 Y32.47530
G01 X-52.54656 Y32.44807
G01 X-52.71943 Y32.35567
G01 X-52.76472 Y32.33692
G01 X-52.95232 Y32.28000
G01 X-53.00035 Y32.27045
G01 X-53.19548 Y32.25122
G01 X-53.24447 Y32.25122
G01 X-53.43957 Y32.27045
G01 X-53.48760 Y32.28000
G01 X-53.69832 Y32.34518
G01 X-53.89626 Y32.45000
G01 X-53.94338 Y32.45381
G01 X-53.98549 Y32.46509
G01 X-54.02499 Y32.48351
G01 X-54.06068 Y32.50850
G01 X-54.09151 Y32.53931
G01 X-54.11650 Y32.57502
G01 X-54.13492 Y32.61452
G01 X-54.14706 Y32.66692
G01 X-54.25930 Y32.80555
G01 X-54.36431 Y32.99948
G01 X-54.38305 Y33.04477
G01 X-54.44000 Y33.23238
G01 X-54.44952 Y33.28043
G01 X-54.46997 Y33.50002
G01 X-54.46997 Y36.25002
G01 X-55.02448 Y36.25122
G01 X-55.14627 Y36.26442
G01 X-55.26390 Y36.29884
G01 X-55.30914 Y36.31761
G01 X-55.41663 Y36.37641
G01 X-55.51213 Y36.45322
G01 X-55.70677 Y36.64786
G01 X-55.76895 Y36.72363
G01 X-55.79618 Y36.76437
G01 X-55.85287 Y36.87301
G01 X-55.88960 Y36.98990
G01 X-55.89915 Y37.03796
G01 X-55.90997 Y37.16000
G01 X-55.90997 Y40.95001
G01 X-56.00339 Y40.95382
G01 X-56.04548 Y40.96510
G01 X-56.08495 Y40.98352
G01 X-56.12069 Y41.00851
G01 X-56.15148 Y41.03932
G01 X-56.17647 Y41.07501
G01 X-56.19489 Y41.11450
G01 X-56.20616 Y41.15659
G01 X-56.21000 Y41.20003
G01 X-56.20997 Y41.98941
G01 X-56.85529 Y42.63472
G01 X-56.93395 Y42.72865
G01 X-56.96115 Y42.76941
G01 X-57.00738 Y42.85585
G01 X-57.02613 Y42.90111
G01 X-57.05457 Y42.99492
G01 X-57.06412 Y43.04297
G01 X-57.07375 Y43.14053
G01 X-57.07494 Y49.87501
G01 X-57.17500 Y49.87501
G01 X-57.22376 Y49.87981
G01 X-57.27065 Y49.89404
G01 X-57.31388 Y49.91715
G01 X-57.35175 Y49.94824
G01 X-57.38284 Y49.98611
G01 X-57.40596 Y50.02934
G01 X-57.42018 Y50.07623
G01 X-57.42498 Y50.12500
G01 X-57.42498 Y51.82502
G01 X-57.42018 Y51.87379
G01 X-57.40596 Y51.92068
G01 X-57.38284 Y51.96391
G01 X-57.35175 Y52.00178
G01 X-57.31388 Y52.03287
G01 X-57.27065 Y52.05599
G01 X-57.22376 Y52.07021
G01 X-57.17500 Y52.07501
G01 X-55.47500 Y52.07501
G01 X-55.42621 Y52.07021
G01 X-55.37932 Y52.05599
G01 X-55.33609 Y52.03287
G01 X-55.29821 Y52.00178
G01 X-55.26713 Y51.96391
G01 X-55.24401 Y51.92068
G01 X-55.22979 Y51.87379
G01 X-55.22499 Y51.82502
G01 X-55.22499 Y50.12500
G01 X-55.22979 Y50.07623
G01 X-55.24401 Y50.02934
G01 X-55.26713 Y49.98611
G01 X-55.29821 Y49.94824
G01 X-55.33609 Y49.91715
G01 X-55.37932 Y49.89404
G01 X-55.42621 Y49.87981
G01 X-55.47500 Y49.87501
G01 X-55.57495 Y49.87501
G01 X-55.57495 Y43.47569
G01 X-55.14927 Y43.05001
G01 X-54.35996 Y43.05001
G01 X-54.31122 Y43.04521
G01 X-54.26431 Y43.03098
G01 X-54.22110 Y43.00787
G01 X-54.18321 Y42.97678
G01 X-54.15209 Y42.93891
G01 X-54.12900 Y42.89568
G01 X-54.11480 Y42.84879
G01 X-54.10995 Y42.80002
G01 X-54.10995 Y41.20003
G01 X-54.11480 Y41.15123
G01 X-54.12900 Y41.10434
G01 X-54.15209 Y41.06111
G01 X-54.18321 Y41.02324
G01 X-54.22110 Y40.99215
G01 X-54.26431 Y40.96904
G01 X-54.31122 Y40.95481
G01 X-54.40998 Y40.95001
G01 X-54.40998 Y37.75002
G01 X-54.21529 Y37.75002
G01 X-54.10383 Y37.88390
G01 X-53.93413 Y38.02475
G01 X-53.89337 Y38.05197
G01 X-53.72049 Y38.14438
G01 X-53.67523 Y38.16312
G01 X-53.48760 Y38.22005
G01 X-53.43957 Y38.22960
G01 X-53.24447 Y38.24882
G01 X-53.19548 Y38.24882
G01 X-53.00035 Y38.22960
G01 X-52.95232 Y38.22005
G01 X-52.76472 Y38.16312
G01 X-52.71943 Y38.14438
G01 X-52.54656 Y38.05197
G01 X-52.50581 Y38.02475
G01 X-52.35428 Y37.90039
G01 X-52.31958 Y37.86572
G01 X-52.18062 Y37.69449
G01 X-52.07561 Y37.50057
G01 X-52.05684 Y37.45528
G01 X-51.99995 Y37.26767
G01 X-51.99040 Y37.21962
G01 X-51.96998 Y37.00001
G01 X-51.96998 Y33.50002
G04 P0 ( dwell for no time -- G64 should not smooth over this point )
G00 Z5.00000 ( retract )

G00 X-44.72455 Y40.67536 ( rapid move to begin. )
G01 F300.00000
( Mill infeed pass 1/1 )
G01 Z-0.02000
G04 P0 ( dwell for no time -- G64 should not smooth over this point )
G01 F600.00000
G01 X-44.72455 Y40.67536
G01 X-44.75884 Y40.69825
G01 X-45.01180 Y40.95121
G01 X-45.18056 Y40.96660
G01 X-45.22864 Y40.97615
G01 X-45.40182 Y41.02995
G01 X-45.56229 Y41.11435
G01 X-45.60303 Y41.14158
G01 X-45.72427 Y41.24107
G01 X-45.75891 Y41.27572
G01 X-45.85841 Y41.39695
G01 X-45.88563 Y41.43772
G01 X-45.97006 Y41.59820
G01 X-46.02386 Y41.77137
G01 X-46.03341 Y41.81943
G01 X-46.04878 Y41.97551
G01 X-46.04878 Y42.02451
G01 X-46.03341 Y42.18059
G01 X-46.02386 Y42.22865
G01 X-45.97006 Y42.40183
G01 X-45.88563 Y42.56233
G01 X-45.85841 Y42.60307
G01 X-45.75891 Y42.72430
G01 X-45.72427 Y42.75895
G01 X-45.60303 Y42.85844
G01 X-45.56229 Y42.88567
G01 X-45.40182 Y42.97007
G01 X-45.22864 Y43.02387
G01 X-45.18056 Y43.03345
G01 X-45.02450 Y43.04881
G01 X-44.97548 Y43.04881
G01 X-44.81942 Y43.03345
G01 X-44.77134 Y43.02387
G01 X-44.59816 Y42.97007
G01 X-44.43768 Y42.88567
G01 X-44.39694 Y42.85844
G01 X-44.27571 Y42.75895
G01 X-44.24106 Y42.72430
G01 X-44.14157 Y42.60307
G01 X-44.11434 Y42.56233
G01 X-44.02991 Y42.40183
G01 X-43.97611 Y42.22865
G01 X-43.96656 Y42.18059
G01 X-43.95054 Y42.01125
G01 X-40.11884 Y38.17956
G01 X-40.06472 Y38.16312
G01 X-40.01943 Y38.14438
G01 X-39.84656 Y38.05197
G01 X-39.80581 Y38.02475
G01 X-39.63609 Y37.88390
G01 X-39.49525 Y37.71418
G01 X-39.46802 Y37.67344
G01 X-39.36512 Y37.47837
G01 X-39.29995 Y37.26767
G01 X-39.29040 Y37.21962
G01 X-39.26998 Y37.00001
G01 X-39.26998 Y33.50002
G01 X-39.29400 Y33.25618
G01 X-39.36512 Y33.02168
G01 X-39.46802 Y32.82661
G01 X-39.49525 Y32.78587
G01 X-39.61961 Y32.63433
G01 X-39.65428 Y32.59966
G01 X-39.80581 Y32.47530
G01 X-39.84656 Y32.44807
G01 X-40.04163 Y32.34518
G01 X-40.27612 Y32.27406
G01 X-40.49548 Y32.25122
G01 X-40.54447 Y32.25122
G01 X-40.76383 Y32.27406
G01 X-40.97523 Y32.33692
G01 X-41.02052 Y32.35567
G01 X-41.19339 Y32.44807
G01 X-41.23413 Y32.47530
G01 X-41.38567 Y32.59966
G01 X-41.42034 Y32.63433
G01 X-41.54470 Y32.78587
G01 X-41.57193 Y32.82661
G01 X-41.66433 Y32.99948
G01 X-41.68308 Y33.04477
G01 X-41.74594 Y33.25618
G01 X-41.76997 Y33.50002
G01 X-41.76997 Y37.00001
G01 X-41.74955 Y37.21962
G01 X-41.74000 Y37.26767
G01 X-41.67482 Y37.47837
G01 X-41.62839 Y37.56780
G01 X-42.36174 Y38.30115
G01 X-42.44366 Y38.41502
G01 X-42.55244 Y38.53755
G01 X-44.52244 Y40.50755
G01 X-44.64497 Y40.61633
G01 X-44.76001 Y40.69901
G01 X-44.85986 Y40.72964
G01 X-44.90791 Y40.73919
G01 X-45.02999 Y40.75001
G01 X-45.68932 Y40.75001
G01 X-46.56140 Y41.62210
G01 X-46.51611 Y41.77137
G01 X-46.50656 Y41.81943
G01 X-46.49120 Y41.97551
G01 X-46.49120 Y42.02451
G01 X-46.50656 Y42.18059
G01 X-46.51611 Y42.22865
G01 X-46.56166 Y42.37874
G01 X-46.58040 Y42.42400
G01 X-46.65434 Y42.56233
G01 X-46.68157 Y42.60307
G01 X-46.78106 Y42.72430
G01 X-46.81571 Y42.75895
G01 X-46.93694 Y42.85844
G01 X-46.97768 Y42.88567
G01 X-47.11599 Y42.95958
G01 X-47.16127 Y42.97836
G01 X-47.31134 Y43.02387
G01 X-47.35942 Y43.03345
