( pcb2gcode 2.5.0 )
( Software-independent Gcode )

( This file uses 7 drill bit sizes. )
( Bit sizes: [0.75mm] [0.8mm] [1mm] [1.09mm] [1.1mm] [1.19mm] [1.6mm] )

G94       (Millimeters per minute feed rate.)
G21       (Units == Millimeters.)
G91.1     (Incremental arc distance mode.)
G90       (Absolute coordinates.)
G00 S2000     (RPM spindle speed.)

G00 Z10.00000 (Retract)
T1
M5      (Spindle stop.)
G04 P1.00000
(MSG, Change tool bit to drill size 0.75mm)
M6      (Tool change.)
M0      (Temporary machine stop.)
M3      (Spindle on clockwise.)
G0 Z5.00000
G04 P1.00000

G81 R5.00000 Z-0.80000 F300.00000 X-16.27000 Y67.14000
X-15.00000 Y67.14000
X-13.73000 Y67.14000
G80

G00 Z10.00000 (Retract)
T2
M5      (Spindle stop.)
G04 P1.00000
(MSG, Change tool bit to drill size 0.8mm)
M6      (Tool change.)
M0      (Temporary machine stop.)
M3      (Spindle on clockwise.)
G0 Z5.00000
G04 P1.00000

G81 R5.00000 Z-0.80000 F300.00000 X-53.30000 Y33.70000
X-50.76000 Y33.70000
X-48.22000 Y33.70000
X-45.68000 Y33.70000
X-43.14000 Y33.70000
X-40.60000 Y33.70000
X-38.06000 Y33.70000
X-35.52000 Y33.70000
X-32.98000 Y33.70000
X-30.44000 Y33.70000
X-27.90000 Y33.70000
X-25.36000 Y33.70000
X-19.65000 Y46.00000
X-19.65000 Y56.00000
X-25.65000 Y50.00000
X-32.35000 Y46.00000
X-38.35000 Y50.00000
X-32.35000 Y56.00000
X-36.35000 Y66.00000
X-23.65000 Y66.00000
X-10.00000 Y75.70000
X-3.00000 Y67.35000
X-10.00000 Y63.00000
X-3.00000 Y54.65000
X-7.58000 Y33.70000
X-10.12000 Y33.70000
X-12.66000 Y33.70000
X-15.20000 Y33.70000
X-17.74000 Y33.70000
X-20.28000 Y33.70000
X-22.82000 Y33.70000
X-7.58300 Y8.30400
X-10.12300 Y8.30400
X-12.66000 Y8.30000
X-15.20000 Y8.30000
X-17.74000 Y8.30000
X-20.28000 Y8.30000
X-22.82000 Y8.30000
X-25.36000 Y8.30000
X-27.90000 Y8.30000
X-30.44000 Y8.30000
X-32.98000 Y8.30000
X-35.52000 Y8.30000
X-38.06000 Y8.30000
X-40.60000 Y8.30000
X-43.14000 Y8.30000
X-45.68000 Y8.30000
X-48.22000 Y8.30000
X-50.76000 Y8.30000
X-53.30000 Y8.30000
G80

G00 Z10.00000 (Retract)
T3
M5      (Spindle stop.)
G04 P1.00000
(MSG, Change tool bit to drill size 1mm)
M6      (Tool change.)
M0      (Temporary machine stop.)
M3      (Spindle on clockwise.)
G0 Z5.00000
G04 P1.00000

G81 R5.00000 Z-0.80000 F300.00000 X-56.32500 Y50.97500
X-53.78500 Y50.97500
X-51.24500 Y50.97500
X-48.70500 Y50.97500
X-46.16500 Y50.97500
X-43.62500 Y50.97500
G80

G00 Z10.00000 (Retract)
T4
M5      (Spindle stop.)
G04 P1.00000
(MSG, Change tool bit to drill size 1.09mm)
M6      (Tool change.)
M0      (Temporary machine stop.)
M3      (Spindle on clockwise.)
G0 Z5.00000
G04 P1.00000

G81 R5.00000 Z-0.80000 F300.00000 X-53.25000 Y3.00000
X-50.71000 Y3.00000
X-48.17000 Y3.00000
X-45.63000 Y3.00000
X-43.09000 Y3.00000
X-40.55000 Y3.00000
X-38.01000 Y3.00000
X-35.47000 Y3.00000
X-32.93000 Y3.00000
X-30.39000 Y3.00000
X-27.85000 Y3.00000
X-25.31000 Y3.00000
X-22.77000 Y3.00000
X-20.23000 Y3.00000
X-17.69000 Y3.00000
X-15.15000 Y3.00000
X-12.61000 Y3.00000
X-10.07000 Y3.00000
X-7.53000 Y3.00000
X-7.50000 Y37.00000
X-10.04000 Y37.00000
X-12.58000 Y37.00000
X-15.12000 Y37.00000
X-17.66000 Y37.00000
X-20.20000 Y37.00000
X-22.74000 Y37.00000
X-25.28000 Y37.00000
X-27.82000 Y37.00000
X-30.36000 Y37.00000
X-32.90000 Y37.00000
X-35.44000 Y37.00000
X-37.98000 Y37.00000
X-40.52000 Y37.00000
X-43.06000 Y37.00000
X-45.60000 Y37.00000
X-48.14000 Y37.00000
X-50.68000 Y37.00000
X-53.22000 Y37.00000
G80

G00 Z10.00000 (Retract)
T5
M5      (Spindle stop.)
G04 P1.00000
(MSG, Change tool bit to drill size 1.1mm)
M6      (Tool change.)
M0      (Temporary machine stop.)
M3      (Spindle on clockwise.)
G0 Z5.00000
G04 P1.00000

G81 R5.00000 Z-0.80000 F300.00000 X-36.00000 Y71.00000
X-36.00000 Y73.54000
X-36.00000 Y76.08000
G80

G00 Z10.00000 (Retract)
T6
M5      (Spindle stop.)
G04 P1.00000
(MSG, Change tool bit to drill size 1.19mm)
M6      (Tool change.)
M0      (Temporary machine stop.)
M3      (Spindle on clockwise.)
G0 Z5.00000
G04 P1.00000

G81 R5.00000 Z-0.80000 F300.00000 X-47.46000 Y62.00000
X-50.00000 Y62.00000
X-45.54000 Y76.00000
X-43.00000 Y76.00000
X-40.46000 Y76.00000
X-6.00000 Y73.00000
X-3.46000 Y73.00000
G80

G00 Z10.00000 (Retract)
T7
M5      (Spindle stop.)
G04 P1.00000
(MSG, Change tool bit to drill size 1.6mm)
M6      (Tool change.)
M0      (Temporary machine stop.)
M3      (Spindle on clockwise.)
G0 Z5.00000
G04 P1.00000

G81 R5.00000 Z-0.80000 F300.00000 X-37.12000 Y61.00000
X-21.88000 Y61.00000
X-15.00000 Y62.24000
X-15.00000 Y47.00000
G80

G00 Z10.000 ( All done -- retract )

M5      (Spindle off.)
G04 P1.000000
M9      (Coolant off.)
M2      (Program end.)

