( pcb2gcode 2.5.0 )
( Software-independent Gcode )

G94 ( Millimeters per minute feed rate. )
G21 ( Units == Millimeters. )

G90 ( Absolute coordinates. )
G00 S3000 ( RPM spindle speed. )
G64 P0.00500 ( set maximum deviation from commanded toolpath )
G01 F600.00000 ( Feedrate. )


G00 Z10.00000 (Retract to tool change height)
T1
M5      (Spindle stop.)
G04 P1.00000 (Wait for spindle to stop)
(MSG, Change tool bit to mill diameter 0.50000mm)
M6      (Tool change.)
M0      (Temporary machine stop.)
M3 ( Spindle on clockwise. )
G04 P1.00000 (Wait for spindle to get up to speed)
G04 P0 ( dwell for no time -- G64 should not smooth over this point )
G00 Z5.00000 ( retract )

G00 X-4.17996 Y7.98567 ( rapid move to begin. )
G01 F300.00000
( Mill infeed pass 1/1 )
G01 Z-0.02000
G04 P0 ( dwell for no time -- G64 should not smooth over this point )
G01 F600.00000
G01 X-4.17996 Y7.98567
G01 X-4.17996 Y8.36438
G01 X-4.36932 Y8.17502
G01 X-4.17996 Y7.98567
G04 P0 ( dwell for no time -- G64 should not smooth over this point )
G00 Z5.00000 ( retract )

G00 X-11.99996 Y22.38569 ( rapid move to begin. )
G01 F300.00000
( Mill infeed pass 1/1 )
G01 Z-0.02000
G04 P0 ( dwell for no time -- G64 should not smooth over this point )
G01 F600.00000
G01 X-11.99996 Y22.38569
G01 X-7.67942 Y26.70623
G01 X-7.66342 Y26.87560
G01 X-7.65385 Y26.92365
G01 X-7.60833 Y27.07374
G01 X-7.58956 Y27.11900
G01 X-7.51562 Y27.25731
G01 X-7.48842 Y27.29807
G01 X-7.37244 Y27.43747
G01 X-7.23302 Y27.55345
G01 X-7.19230 Y27.58067
G01 X-7.03180 Y27.66508
G01 X-6.85862 Y27.71888
G01 X-6.81057 Y27.72843
G01 X-6.65448 Y27.74382
G01 X-6.60549 Y27.74382
G01 X-6.44940 Y27.72843
G01 X-6.40135 Y27.71888
G01 X-6.22817 Y27.66508
G01 X-6.06769 Y27.58067
G01 X-6.02692 Y27.55345
G01 X-5.90572 Y27.45395
G01 X-5.87104 Y27.41931
G01 X-5.77155 Y27.29807
G01 X-5.74432 Y27.25731
G01 X-5.67041 Y27.11900
G01 X-5.65164 Y27.07374
G01 X-5.60612 Y26.92365
G01 X-5.59657 Y26.87560
G01 X-5.58118 Y26.71951
G01 X-5.58118 Y26.67052
G01 X-5.59657 Y26.51443
G01 X-5.60612 Y26.46638
G01 X-5.65992 Y26.29320
G01 X-5.74432 Y26.13270
G01 X-5.77155 Y26.09196
G01 X-5.87104 Y25.97072
G01 X-5.90572 Y25.93608
G01 X-6.02692 Y25.83658
G01 X-6.06769 Y25.80935
G01 X-6.22817 Y25.72495
G01 X-6.40135 Y25.67115
G01 X-6.44940 Y25.66158
G01 X-6.61877 Y25.64558
G01 X-7.38786 Y24.87844
G01 X-7.48842 Y24.75807
G01 X-7.51562 Y24.71731
G01 X-7.58956 Y24.57900
G01 X-7.60833 Y24.53374
G01 X-7.65385 Y24.38365
G01 X-7.66342 Y24.33560
G01 X-7.67998 Y24.15500
G01 X-7.66342 Y23.97443
G01 X-7.65385 Y23.92638
G01 X-7.60833 Y23.77629
G01 X-7.58956 Y23.73103
G01 X-7.51562 Y23.59270
G01 X-7.48842 Y23.55196
G01 X-7.37244 Y23.41256
G01 X-7.21331 Y23.28198
G01 X-7.05397 Y23.19544
G01 X-7.00869 Y23.17667
G01 X-6.85862 Y23.13115
G01 X-6.81057 Y23.12158
G01 X-6.65448 Y23.10621
G01 X-6.60549 Y23.10621
G01 X-6.44940 Y23.12158
G01 X-6.40135 Y23.13115
G01 X-6.25126 Y23.17667
G01 X-6.20599 Y23.19544
G01 X-6.06769 Y23.26935
G01 X-6.02692 Y23.29658
G01 X-5.90572 Y23.39608
G01 X-5.87673 Y23.42503
G01 X-4.72998 Y23.42503
G01 X-4.72878 Y23.35051
G01 X-4.71443 Y23.25366
G01 X-4.68144 Y23.16148
G01 X-4.63112 Y23.07753
G01 X-4.58354 Y23.02145
G01 X-4.52749 Y22.97390
G01 X-4.48672 Y22.94667
G01 X-4.42134 Y22.91307
G01 X-4.32754 Y22.88462
G01 X-4.22998 Y22.87502
G01 X-2.62998 Y22.87502
G01 X-2.53244 Y22.88462
G01 X-2.43864 Y22.91307
G01 X-2.37324 Y22.94667
G01 X-2.33249 Y22.97390
G01 X-2.27644 Y23.02145
G01 X-2.22886 Y23.07753
G01 X-2.20163 Y23.11828
G01 X-2.16805 Y23.18368
G01 X-2.14555 Y23.25366
G01 X-2.13600 Y23.30174
G01 X-2.12998 Y23.37502
G01 X-2.12998 Y24.97502
G01 X-2.13600 Y25.04829
G01 X-2.14555 Y25.09635
G01 X-2.16805 Y25.16635
G01 X-2.20163 Y25.23176
G01 X-2.22886 Y25.27250
G01 X-2.27644 Y25.32856
G01 X-2.33249 Y25.37613
G01 X-2.37324 Y25.40336
G01 X-2.46176 Y25.44522
G01 X-2.55670 Y25.46899
G01 X-2.62998 Y25.47501
G01 X-4.22998 Y25.47501
G01 X-4.32754 Y25.46541
G01 X-4.42134 Y25.43694
G01 X-4.48672 Y25.40336
G01 X-4.52749 Y25.37613
G01 X-4.58354 Y25.32856
G01 X-4.63112 Y25.27250
G01 X-4.65835 Y25.23176
G01 X-4.69193 Y25.16635
G01 X-4.72037 Y25.07255
G01 X-4.72878 Y24.99953
G01 X-4.72998 Y24.92503
G01 X-5.91920 Y24.92503
G01 X-6.02692 Y25.01345
G01 X-6.06769 Y25.04067
G01 X-6.22817 Y25.12508
G01 X-6.40135 Y25.17888
G01 X-6.44940 Y25.18843
G01 X-6.60549 Y25.20382
G01 X-6.65448 Y25.20382
G01 X-6.81057 Y25.18843
G01 X-6.85862 Y25.17888
G01 X-7.03180 Y25.12508
G01 X-7.21331 Y25.02805
G01 X-7.35336 Y24.91294
G01 X-10.75999 Y21.50436
G01 X-10.75999 Y10.90916
G01 X-10.65155 Y10.77807
G01 X-10.62430 Y10.73732
G01 X-10.55041 Y10.59900
G01 X-10.53164 Y10.55373
G01 X-10.48015 Y10.37985
G01 X-10.46118 Y10.19951
G01 X-10.46118 Y10.15051
G01 X-10.48015 Y9.97017
G01 X-10.53164 Y9.79631
G01 X-10.55041 Y9.75102
G01 X-10.62430 Y9.61271
G01 X-10.65155 Y9.57195
G01 X-10.75105 Y9.45074
G01 X-10.77670 Y9.42508
G01 X-9.70317 Y9.42503
G01 X-9.53421 Y9.36390
G01 X-9.34147 Y9.31368
G01 X-9.15798 Y9.28511
G01 X-8.97980 Y9.27528
G01 X-8.78194 Y9.28511
G01 X-8.59850 Y9.31368
G01 X-8.40571 Y9.36390
G01 X-8.23670 Y9.42508
G01 X-7.16314 Y9.42503
G01 X-8.23670 Y9.42508
G01 X-8.21105 Y9.45074
G01 X-8.11155 Y9.57195
G01 X-8.08432 Y9.61271
G01 X-8.01041 Y9.75102
G01 X-7.99164 Y9.79631
G01 X-7.94015 Y9.97017
G01 X-7.92118 Y10.15051
G01 X-7.92118 Y10.19951
G01 X-7.94015 Y10.37985
G01 X-7.99164 Y10.55373
G01 X-8.01041 Y10.59900
G01 X-8.08432 Y10.73732
G01 X-8.11155 Y10.77807
G01 X-8.19354 Y10.87799
G01 X-8.96029 Y11.64469
G01 X-9.01993 Y11.71545
G01 X-9.04452 Y11.79097
G01 X-9.06906 Y11.88899
G01 X-9.09131 Y12.02564
G01 X-9.09997 Y12.17502
G01 X-9.09997 Y14.73501
G01 X-9.09471 Y14.84979
G01 X-9.07678 Y14.98245
G01 X-9.04452 Y15.11910
G01 X-9.01996 Y15.19457
G01 X-9.01998 Y18.16436
G01 X-7.33254 Y19.85181
G01 X-7.21331 Y19.94805
G01 X-7.05397 Y20.03459
G01 X-7.00869 Y20.05336
G01 X-6.85862 Y20.09888
G01 X-6.81057 Y20.10843
G01 X-6.65448 Y20.12382
G01 X-6.60549 Y20.12382
G01 X-6.44940 Y20.10843
G01 X-6.40135 Y20.09888
G01 X-6.22817 Y20.04508
G01 X-6.06769 Y19.96067
G01 X-6.01666 Y19.92501
G01 X-4.72998 Y19.92501
G01 X-4.72878 Y19.99951
G01 X-4.72037 Y20.07256
G01 X-4.69193 Y20.16636
G01 X-4.65835 Y20.23174
G01 X-4.63112 Y20.27251
G01 X-4.58354 Y20.32857
G01 X-4.52749 Y20.37614
G01 X-4.48672 Y20.40337
G01 X-4.42134 Y20.43695
G01 X-4.32754 Y20.46540
G01 X-4.22998 Y20.47502
G01 X-2.62998 Y20.47502
G01 X-2.55670 Y20.46900
G01 X-2.50864 Y20.45945
G01 X-2.43864 Y20.43695
G01 X-2.37324 Y20.40337
G01 X-2.33249 Y20.37614
G01 X-2.27644 Y20.32857
G01 X-2.22886 Y20.27251
G01 X-2.17855 Y20.18854
G01 X-2.15977 Y20.14325
G01 X-2.13961 Y20.07256
G01 X-2.12998 Y19.97500
G01 X-2.12998 Y18.37500
G01 X-2.13600 Y18.30172
G01 X-2.14555 Y18.25367
G01 X-2.16805 Y18.18367
G01 X-2.20163 Y18.11826
G01 X-2.22886 Y18.07752
G01 X-2.27644 Y18.02146
G01 X-2.33249 Y17.97389
G01 X-2.37324 Y17.94666
G01 X-2.43864 Y17.91308
G01 X-2.53244 Y17.88463
G01 X-2.62998 Y17.87500
G01 X-4.22998 Y17.87500
G01 X-4.32754 Y17.88463
G01 X-4.42134 Y17.91308
G01 X-4.48672 Y17.94666
G01 X-4.56536 Y18.00498
G01 X-4.63112 Y18.07752
G01 X-4.65835 Y18.11826
G01 X-4.69193 Y18.18367
G01 X-4.71443 Y18.25367
G01 X-4.72878 Y18.35052
G01 X-4.72998 Y18.42502
G01 X-5.81008 Y18.42502
G01 X-5.87104 Y18.35072
G01 X-5.90572 Y18.31608
G01 X-6.02692 Y18.21658
G01 X-6.06769 Y18.18935
G01 X-6.22817 Y18.10495
G01 X-6.40135 Y18.05115
G01 X-6.44940 Y18.04158
G01 X-6.60549 Y18.02621
G01 X-6.65448 Y18.02621
G01 X-6.81057 Y18.04158
G01 X-6.85862 Y18.05115
G01 X-7.00869 Y18.09667
G01 X-7.05397 Y18.11544
G01 X-7.21331 Y18.20198
G01 X-7.37244 Y18.33256
G01 X-7.48842 Y18.47196
G01 X-7.51562 Y18.51270
G01 X-7.58956 Y18.65103
G01 X-7.60833 Y18.69629
G01 X-7.65385 Y18.84638
G01 X-7.66342 Y18.89443
G01 X-7.67998 Y19.07500
G01 X-7.66342 Y19.25560
G01 X-7.65385 Y19.30365
G01 X-7.60833 Y19.45374
G01 X-7.58956 Y19.49900
G01 X-7.51562 Y19.63731
G01 X-7.48842 Y19.67807
G01 X-7.38786 Y19.79844
G01 X-6.61877 Y20.56558
G01 X-6.44940 Y20.58158
G01 X-6.40135 Y20.59115
G01 X-6.22817 Y20.64495
G01 X-6.06769 Y20.72935
G01 X-6.02692 Y20.75658
G01 X-5.90572 Y20.85608
G01 X-5.87104 Y20.89072
G01 X-5.77155 Y21.01196
G01 X-5.74432 Y21.05270
G01 X-5.65992 Y21.21320
G01 X-5.60612 Y21.38638
G01 X-5.59657 Y21.43443
G01 X-5.58118 Y21.59052
G01 X-5.58118 Y21.63951
G01 X-5.59657 Y21.79560
G01 X-5.60612 Y21.84365
G01 X-5.65164 Y21.99374
G01 X-5.67041 Y22.03900
G01 X-5.74432 Y22.17731
G01 X-5.77155 Y22.21807
G01 X-5.87104 Y22.33931
G01 X-5.90572 Y22.37395
G01 X-6.02692 Y22.47345
G01 X-6.06769 Y22.50067
G01 X-6.22817 Y22.58508
G01 X-6.40135 Y22.63888
G01 X-6.44940 Y22.64843
G01 X-6.60549 Y22.66382
G01 X-6.65448 Y22.66382
G01 X-6.81057 Y22.64843
G01 X-6.85862 Y22.63888
G01 X-7.03180 Y22.58508
G01 X-7.19230 Y22.50067
G01 X-7.23302 Y22.47345
G01 X-7.35428 Y22.37395
G01 X-7.38892 Y22.33931
G01 X-7.48842 Y22.21807
G01 X-7.51562 Y22.17731
G01 X-7.58956 Y22.03900
G01 X-7.60833 Y21.99374
G01 X-7.65385 Y21.84365
G01 X-7.66342 Y21.79560
G01 X-7.67942 Y21.62623
G01 X-10.31678 Y18.98717
G01 X-10.37896 Y18.91140
G01 X-10.40619 Y18.87066
G01 X-10.46288 Y18.76202
G01 X-10.50558 Y18.62133
G01 X-10.51998 Y18.47500
G01 X-10.51998 Y10.97502
G01 X-10.51305 Y10.87720
G01 X-10.48861 Y10.76217
G01 X-10.47645 Y10.72485
G01 X-10.42864 Y10.61741
G01 X-10.38765 Y10.55051
G01 X-10.30030 Y10.44469
G01 X-10.01879 Y10.16318
G01 X-9.99981 Y9.97017
G01 X-9.94833 Y9.79631
G01 X-9.92958 Y9.75102
G01 X-9.85564 Y9.61271
G01 X-9.82842 Y9.57195
G01 X-9.72892 Y9.45074
G01 X-9.70317 Y9.42503
G01 X-9.69105 Y9.42000
G01 X-9.49832 Y9.35297
G01 X-9.34147 Y9.31368
G01 X-9.15798 Y9.28511
G01 X-8.97980 Y9.27528
G01 X-8.78194 Y9.28511
G01 X-8.59850 Y9.31368
G01 X-8.40571 Y9.36390
G01 X-8.23670 Y9.42508
G01 X-7.16314 Y9.42503
G01 X-6.95832 Y9.35297
G01 X-6.77483 Y9.30835
G01 X-6.59662 Y9.28300
G01 X-6.43980 Y9.27528
G01 X-6.26332 Y9.28300
G01 X-6.08514 Y9.30835
G01 X-5.90165 Y9.35297
G01 X-5.69670 Y9.42508
G01 X-5.67105 Y9.45074
G01 X-5.57155 Y9.57195
G01 X-5.54432 Y9.61271
G01 X-5.45992 Y9.77319
G01 X-5.40612 Y9.94637
G01 X-5.39657 Y9.99443
G01 X-5.38118 Y10.15051
G01 X-5.38118 Y10.19951
G01 X-5.39657 Y10.35559
G01 X-5.40612 Y10.40365
G01 X-5.45992 Y10.57682
G01 X-5.54432 Y10.73732
G01 X-5.57155 Y10.77807
G01 X-5.67105 Y10.89930
G01 X-5.70572 Y10.93395
G01 X-5.82692 Y11.03344
G01 X-5.86769 Y11.06067
G01 X-6.00599 Y11.13461
G01 X-6.05126 Y11.15335
G01 X-6.20135 Y11.19887
G01 X-6.24940 Y11.20844
G01 X-6.41811 Y11.22381
G01 X-7.67998 Y12.48568
G01 X-7.67998 Y14.42436
G01 X-7.35336 Y14.75294
G01 X-7.23302 Y14.85345
G01 X-7.19230 Y14.88067
G01 X-7.05397 Y14.95459
G01 X-7.00869 Y14.97336
G01 X-6.85862 Y15.01888
G01 X-6.81057 Y15.02843
G01 X-6.65448 Y15.04382
G01 X-6.60549 Y15.04382
G01 X-6.44940 Y15.02843
G01 X-6.40135 Y15.01888
G01 X-6.22817 Y14.96508
G01 X-6.15067 Y14.92502
G01 X-4.72998 Y14.92502
G01 X-4.72398 Y15.04829
G01 X-4.70018 Y15.14326
G01 X-4.65835 Y15.23175
G01 X-4.60003 Y15.31039
G01 X-4.52749 Y15.37613
G01 X-4.48672 Y15.40336
G01 X-4.42134 Y15.43696
G01 X-4.32754 Y15.46541
G01 X-4.25449 Y15.47382
G01 X-2.62998 Y15.47501
G01 X-2.55670 Y15.46901
G01 X-2.50864 Y15.45944
G01 X-2.43864 Y15.43696
G01 X-2.37324 Y15.40336
G01 X-2.33249 Y15.37613
G01 X-2.27644 Y15.32858
G01 X-2.22886 Y15.27249
G01 X-2.20163 Y15.23175
G01 X-2.16805 Y15.16635
G01 X-2.14555 Y15.09635
G01 X-2.13600 Y15.04829
G01 X-2.12998 Y14.97501
G01 X-2.12998 Y13.37501
G01 X-2.13600 Y13.30173
G01 X-2.14555 Y13.25368
G01 X-2.16805 Y13.18368
G01 X-2.20163 Y13.11827
G01 X-2.22886 Y13.07753
G01 X-2.27644 Y13.02147
G01 X-2.33249 Y12.97390
G01 X-2.37324 Y12.94667
G01 X-2.43864 Y12.91306
G01 X-2.53244 Y12.88462
G01 X-2.62998 Y12.87501
G01 X-4.22998 Y12.87501
G01 X-4.32754 Y12.88462
G01 X-4.42134 Y12.91306
G01 X-4.48672 Y12.94667
G01 X-4.56536 Y13.00499
G01 X-4.63112 Y13.07753
G01 X-4.65835 Y13.11827
G01 X-4.69193 Y13.18368
G01 X-4.71443 Y13.25368
G01 X-4.72878 Y13.35050
G01 X-4.72998 Y13.42503
G01 X-5.74945 Y13.42503
G01 X-5.77155 Y13.39196
G01 X-5.87104 Y13.27072
G01 X-5.90572 Y13.23608
G01 X-6.02692 Y13.13658
G01 X-6.06769 Y13.10935
G01 X-6.22817 Y13.02495
G01 X-6.40135 Y12.97115
G01 X-6.44940 Y12.96158
G01 X-6.60549 Y12.94621
G01 X-6.65448 Y12.94621
G01 X-6.81057 Y12.96158
G01 X-6.85862 Y12.97115
G01 X-7.00869 Y13.01667
G01 X-7.05397 Y13.03544
G01 X-7.21331 Y13.12198
G01 X-7.37244 Y13.25256
G01 X-7.48842 Y13.39196
G01 X-7.51562 Y13.43270
G01 X-7.58956 Y13.57103
G01 X-7.60833 Y13.61629
G01 X-7.65385 Y13.76638
G01 X-7.66342 Y13.81443
G01 X-7.67937 Y14.00760
G01 X-7.66342 Y14.17560
G01 X-7.65385 Y14.22365
G01 X-7.60833 Y14.37374
G01 X-7.58956 Y14.41900
G01 X-7.51562 Y14.55731
G01 X-7.48842 Y14.59807
G01 X-7.38786 Y14.71844
G01 X-6.61877 Y15.48558
G01 X-6.44940 Y15.50158
G01 X-6.40135 Y15.51115
G01 X-6.22817 Y15.56495
G01 X-6.06769 Y15.64935
G01 X-6.02692 Y15.67658
G01 X-5.90572 Y15.77608
G01 X-5.87104 Y15.81072
G01 X-5.77155 Y15.93196
G01 X-5.74432 Y15.97270
G01 X-5.65992 Y16.13320
G01 X-5.60612 Y16.30638
G01 X-5.59657 Y16.35443
G01 X-5.58118 Y16.51052
G01 X-5.58118 Y16.55951
G01 X-5.59657 Y16.71560
G01 X-5.60612 Y16.76365
G01 X-5.65992 Y16.93683
G01 X-5.74432 Y17.09731
G01 X-5.77155 Y17.13807
G01 X-5.87104 Y17.25931
G01 X-5.90572 Y17.29395
G01 X-6.02692 Y17.39345
G01 X-6.06769 Y17.42067
G01 X-6.22817 Y17.50508
G01 X-6.40135 Y17.55888
G01 X-6.44940 Y17.56843
G01 X-6.60549 Y17.58382
G01 X-6.65448 Y17.58382
G01 X-6.81057 Y17.56843
G01 X-6.85862 Y17.55888
G01 X-7.03180 Y17.50508
G01 X-7.21331 Y17.40805
G01 X-7.35428 Y17.29395
G01 X-7.38892 Y17.25931
G01 X-7.48842 Y17.13807
G01 X-7.51562 Y17.09731
G01 X-7.58956 Y16.95900
G01 X-7.60833 Y16.91374
G01 X-7.65385 Y16.76365
G01 X-7.66342 Y16.71560
G01 X-7.67942 Y16.54623
G01 X-8.96029 Y15.26536
G01 X-9.01996 Y15.19457
G01 X-9.04452 Y15.11910
G01 X-9.07678 Y14.98245
G01 X-9.09471 Y14.84979
G01 X-9.09997 Y14.73501
G01 X-9.09997 Y12.17502
G01 X-9.09471 Y12.06028
G01 X-9.07678 Y11.92762
G01 X-9.04452 Y11.79097
G01 X-9.01993 Y11.71545
G01 X-9.01998 Y11.28569
G01 X-8.95874 Y11.22447
G01 X-8.78938 Y11.20844
G01 X-8.74135 Y11.19887
G01 X-8.59126 Y11.15335
G01 X-8.54597 Y11.13461
G01 X-8.38664 Y11.04807
G01 X-8.26698 Y10.95140
G01 X-8.21211 Y10.89844
G01 X-7.47945 Y10.16382
G01 X-7.46342 Y9.99443
G01 X-7.45382 Y9.94637
G01 X-7.40830 Y9.79631
G01 X-7.38956 Y9.75102
G01 X-7.31564 Y9.61271
G01 X-7.28839 Y9.57195
G01 X-7.16500 Y9.42580
G01 X-6.99423 Y9.36390
G01 X-6.80147 Y9.31368
G01 X-6.61798 Y9.28511
G01 X-6.43980 Y9.27528
G01 X-6.24196 Y9.28511
G01 X-6.05850 Y9.31368
G01 X-5.86571 Y9.36390
G01 X-5.69670 Y9.42508
G01 X-5.24062 Y9.42503
G01 X-4.93998 Y9.72567
G01 X-4.93998 Y10.97502
G01 X-4.93518 Y11.02379
G01 X-4.92096 Y11.07067
G01 X-4.89784 Y11.11391
G01 X-4.86675 Y11.15180
G01 X-4.82888 Y11.18289
G01 X-4.78565 Y11.20598
G01 X-4.73876 Y11.22020
G01 X-4.69000 Y11.22500
G01 X-3.09000 Y11.22500
G01 X-3.04656 Y11.22122
G01 X-3.00448 Y11.20994
G01 X-2.96498 Y11.19153
G01 X-2.92929 Y11.16653
G01 X-2.89848 Y11.13570
G01 X-2.87349 Y11.10001
G01 X-2.85507 Y11.06051
G01 X-2.84380 Y11.01843
G01 X-2.83999 Y10.97502
G01 X-2.83999 Y10.17388
G01 X-2.79376 Y10.11066
G01 X-2.73707 Y10.00202
G01 X-2.70034 Y9.88513
G01 X-2.69079 Y9.83707
G01 X-2.68116 Y9.73951
G01 X-2.67997 Y7.47503
G01 X-2.55670 Y7.46901
G01 X-2.46176 Y7.44521
G01 X-2.37324 Y7.40337
G01 X-2.29462 Y7.34505
G01 X-2.22886 Y7.27251
G01 X-2.20163 Y7.23174
G01 X-2.16805 Y7.16636
G01 X-2.13961 Y7.07256
G01 X-2.13120 Y6.99951
G01 X-2.12998 Y5.37500
G01 X-2.13600 Y5.30172
G01 X-2.15977 Y5.20678
G01 X-2.20163 Y5.11826
G01 X-2.22886 Y5.07752
G01 X-2.27644 Y5.02146
G01 X-2.33249 Y4.97389
G01 X-2.37324 Y4.94666
G01 X-2.43864 Y4.91308
G01 X-2.50864 Y4.89058
G01 X-2.55670 Y4.88102
G01 X-2.62998 Y4.87500
G01 X-4.22998 Y4.87500
G01 X-4.32754 Y4.88463
G01 X-4.39823 Y4.90480
G01 X-4.48672 Y4.94666
G01 X-4.52749 Y4.97389
G01 X-4.60003 Y5.03965
G01 X-4.65835 Y5.11826
G01 X-4.69193 Y5.18367
G01 X-4.71443 Y5.25367
G01 X-4.72398 Y5.30172
G01 X-4.72998 Y5.37500
G01 X-4.72998 Y6.41437
G01 X-6.24064 Y7.92504
G01 X-39.82998 Y7.92504
G01 X-39.97629 Y7.93944
G01 X-40.09389 Y7.97386
G01 X-40.13915 Y7.99263
G01 X-40.24664 Y8.05143
G01 X-40.36031 Y8.14470
G01 X-41.34060 Y9.12501
G01 X-42.12998 Y9.12501
G01 X-42.17877 Y9.12981
G01 X-42.22566 Y9.14403
G01 X-42.26889 Y9.16715
G01 X-42.30676 Y9.19824
G01 X-42.33785 Y9.23611
G01 X-42.36096 Y9.27934
G01 X-42.37519 Y9.32623
G01 X-42.37999 Y9.37502
G01 X-42.37999 Y10.97502
G01 X-42.37519 Y11.02379
G01 X-42.36096 Y11.07067
G01 X-42.33785 Y11.11391
G01 X-42.30676 Y11.15180
G01 X-42.26889 Y11.18289
G01 X-42.22566 Y11.20598
G01 X-42.17877 Y11.22020
G01 X-42.12998 Y11.22500
G01 X-40.52998 Y11.22500
G01 X-40.48121 Y11.22020
G01 X-40.43432 Y11.20598
G01 X-40.39109 Y11.18289
G01 X-40.35322 Y11.15180
G01 X-40.32213 Y11.11391
G01 X-40.29902 Y11.07067
G01 X-40.28479 Y11.02379
G01 X-40.27999 Y10.97502
G01 X-40.27999 Y10.18571
G01 X-39.51931 Y9.42503
G01 X-32.78316 Y9.42503
G01 X-32.61422 Y9.36390
G01 X-32.42146 Y9.31368
G01 X-32.23800 Y9.28511
G01 X-32.05979 Y9.27528
G01 X-31.86195 Y9.28511
G01 X-31.67849 Y9.31368
G01 X-31.48573 Y9.36390
G01 X-31.31671 Y9.42506
G01 X-30.24316 Y9.42503
G01 X-31.31671 Y9.42506
G01 X-31.29106 Y9.45074
G01 X-31.19157 Y9.57195
G01 X-31.16434 Y9.61271
G01 X-31.09040 Y9.75102
G01 X-31.07165 Y9.79631
G01 X-31.02017 Y9.97017
G01 X-31.00120 Y10.16316
G01 X-30.28662 Y10.87774
G01 X-30.36840 Y10.77807
G01 X-30.39563 Y10.73732
G01 X-30.46957 Y10.59900
G01 X-30.48832 Y10.55373
G01 X-30.53386 Y10.40365
G01 X-30.54341 Y10.35559
G01 X-30.55878 Y10.19951
G01 X-30.55878 Y10.15051
G01 X-30.53980 Y9.97017
G01 X-30.48832 Y9.79631
G01 X-30.46957 Y9.75102
G01 X-30.39563 Y9.61271
G01 X-30.36840 Y9.57195
G01 X-30.26891 Y9.45074
G01 X-30.24316 Y9.42503
G01 X-30.03831 Y9.35297
G01 X-29.85482 Y9.30835
G01 X-29.69800 Y9.28511
G01 X-29.50016 Y9.27528
G01 X-29.32195 Y9.28511
G01 X-29.13849 Y9.31368
G01 X-28.94573 Y9.36390
G01 X-28.77671 Y9.42506
G01 X-27.70316 Y9.42503
G01 X-27.53422 Y9.36390
G01 X-27.34146 Y9.31368
G01 X-27.15800 Y9.28511
G01 X-26.96016 Y9.27528
G01 X-26.78195 Y9.28511
G01 X-26.59849 Y9.31368
G01 X-26.40573 Y9.36390
G01 X-26.23671 Y9.42506
G01 X-25.16316 Y9.42503
G01 X-26.23671 Y9.42506
G01 X-26.21106 Y9.45074
G01 X-26.11157 Y9.57195
G01 X-26.08434 Y9.61271
G01 X-26.01040 Y9.75102
G01 X-25.99165 Y9.79631
G01 X-25.94017 Y9.97017
G01 X-25.92120 Y10.15051
G01 X-25.92120 Y10.19951
G01 X-25.93656 Y10.35559
G01 X-25.94611 Y10.40365
G01 X-25.99165 Y10.55373
G01 X-26.01040 Y10.59900
G01 X-26.08434 Y10.73732
G01 X-26.11157 Y10.77807
G01 X-26.19364 Y10.87809
G01 X-26.26689 Y10.95135
G01 X-26.38665 Y11.04807
G01 X-26.54598 Y11.13461
G01 X-26.59127 Y11.15335
G01 X-26.74134 Y11.19887
G01 X-26.78942 Y11.20844
G01 X-26.95810 Y11.22381
G01 X-27.01997 Y11.28569
G01 X-27.01997 Y18.16436
G01 X-25.33255 Y19.85178
G01 X-25.21335 Y19.94805
G01 X-25.05399 Y20.03459
G01 X-25.00870 Y20.05336
G01 X-24.85864 Y20.09888
G01 X-24.81055 Y20.10843
G01 X-24.65450 Y20.12382
G01 X-24.60548 Y20.12382
G01 X-24.44942 Y20.10843
G01 X-24.40134 Y20.09888
G01 X-24.22816 Y20.04508
G01 X-24.06768 Y19.96067
G01 X-24.01665 Y19.92501
G01 X-22.72999 Y19.92501
G01 X-22.72397 Y20.04828
G01 X-22.71442 Y20.09636
G01 X-22.69192 Y20.16636
G01 X-22.65834 Y20.23174
G01 X-22.63111 Y20.27251
G01 X-22.58353 Y20.32857
G01 X-22.52748 Y20.37614
G01 X-22.48673 Y20.40337
G01 X-22.39824 Y20.44523
G01 X-22.32753 Y20.46540
G01 X-22.22999 Y20.47502
G01 X-20.62999 Y20.47502
G01 X-20.55672 Y20.46900
G01 X-20.46174 Y20.44523
G01 X-20.37325 Y20.40337
G01 X-20.33251 Y20.37614
G01 X-20.25997 Y20.31038
G01 X-20.22888 Y20.27251
G01 X-20.17996 Y20.19118
G01 X-20.16238 Y20.09128
G01 X-20.15499 Y19.97500
G01 X-20.15499 Y18.37500
G01 X-20.16238 Y18.25877
G01 X-20.17996 Y18.15882
G01 X-20.22888 Y18.07752
G01 X-20.29461 Y18.00498
G01 X-20.37325 Y17.94666
G01 X-20.41646 Y17.92357
G01 X-20.46174 Y17.90480
G01 X-20.53243 Y17.88463
G01 X-20.62999 Y17.87500
G01 X-22.22999 Y17.87500
G01 X-22.32753 Y17.88463
G01 X-22.39824 Y17.90480
G01 X-22.48673 Y17.94666
G01 X-22.56537 Y18.00498
G01 X-22.63111 Y18.07752
G01 X-22.65834 Y18.11826
G01 X-22.69192 Y18.18367
G01 X-22.71442 Y18.25367
G01 X-22.72877 Y18.35052
G01 X-22.72999 Y18.42502
G01 X-23.81007 Y18.42502
G01 X-23.87106 Y18.35072
G01 X-23.90571 Y18.31608
G01 X-24.02694 Y18.21658
G01 X-24.06768 Y18.18935
G01 X-24.22816 Y18.10495
G01 X-24.40134 Y18.05115
G01 X-24.44942 Y18.04158
G01 X-24.60548 Y18.02621
G01 X-24.65450 Y18.02621
G01 X-24.81055 Y18.04158
G01 X-24.85864 Y18.05115
G01 X-25.00870 Y18.09667
G01 X-25.05399 Y18.11544
G01 X-25.21335 Y18.20198
G01 X-25.35427 Y18.31608
G01 X-25.38891 Y18.35072
G01 X-25.48840 Y18.47196
G01 X-25.51563 Y18.51270
G01 X-25.58957 Y18.65103
G01 X-25.60832 Y18.69629
G01 X-25.65980 Y18.87018
G01 X-25.68000 Y19.07500
G01 X-25.66341 Y19.25560
G01 X-25.65386 Y19.30365
G01 X-25.60006 Y19.47683
G01 X-25.51563 Y19.63731
G01 X-25.48840 Y19.67807
G01 X-25.40674 Y19.77759
G01 X-24.61812 Y20.56621
G01 X-24.44942 Y20.58158
G01 X-24.40134 Y20.59115
G01 X-24.22816 Y20.64495
G01 X-24.04665 Y20.74198
G01 X-23.90571 Y20.85608
G01 X-23.87106 Y20.89072
G01 X-23.77157 Y21.01196
G01 X-23.74434 Y21.05270
G01 X-23.67040 Y21.19103
G01 X-23.65165 Y21.23629
G01 X-23.60017 Y21.41018
G01 X-23.58119 Y21.59052
G01 X-23.58119 Y21.63951
G01 X-23.60017 Y21.81985
G01 X-23.65165 Y21.99374
G01 X-23.67040 Y22.03900
G01 X-23.74434 Y22.17731
G01 X-23.77157 Y22.21807
G01 X-23.87106 Y22.33931
G01 X-23.90571 Y22.37395
G01 X-24.04665 Y22.48805
G01 X-24.20598 Y22.57459
G01 X-24.25127 Y22.59336
G01 X-24.40134 Y22.63888
G01 X-24.44942 Y22.64843
G01 X-24.60548 Y22.66382
G01 X-24.65450 Y22.66382
G01 X-24.81055 Y22.64843
G01 X-24.85864 Y22.63888
G01 X-25.03181 Y22.58508
G01 X-25.19229 Y22.50067
G01 X-25.23303 Y22.47345
G01 X-25.35427 Y22.37395
G01 X-25.38891 Y22.33931
G01 X-25.48840 Y22.21807
G01 X-25.51563 Y22.17731
G01 X-25.60006 Y22.01683
G01 X-25.65386 Y21.84365
G01 X-25.66341 Y21.79560
G01 X-25.67944 Y21.62620
G01 X-28.30031 Y19.00536
G01 X-28.37895 Y18.91140
G01 X-28.40618 Y18.87066
G01 X-28.45238 Y18.78420
G01 X-28.47115 Y18.73893
G01 X-28.50557 Y18.62133
G01 X-28.51997 Y18.47500
G01 X-28.51878 Y10.95053
G01 X-28.50557 Y10.82871
G01 X-28.47115 Y10.71111
G01 X-28.45238 Y10.66585
G01 X-28.40618 Y10.57939
G01 X-28.37895 Y10.53865
G01 X-28.30031 Y10.44469
G01 X-28.01878 Y10.16318
G01 X-27.99980 Y9.97017
G01 X-27.94832 Y9.79631
G01 X-27.92957 Y9.75102
G01 X-27.85563 Y9.61271
G01 X-27.82840 Y9.57195
G01 X-27.72891 Y9.45074
G01 X-27.70316 Y9.42503
G01 X-28.77671 Y9.42506
G01 X-28.75106 Y9.45074
G01 X-28.65157 Y9.57195
G01 X-28.62434 Y9.61271
G01 X-28.55040 Y9.75102
G01 X-28.53165 Y9.79631
G01 X-28.48017 Y9.97017
G01 X-28.46120 Y10.15051
G01 X-28.46120 Y10.19951
G01 X-28.48017 Y10.37985
G01 X-28.53165 Y10.55373
G01 X-28.55040 Y10.59900
G01 X-28.62434 Y10.73732
G01 X-28.65157 Y10.77807
G01 X-28.75998 Y10.90916
G01 X-28.75998 Y21.50436
G01 X-25.35335 Y24.91294
G01 X-25.21335 Y25.02805
G01 X-25.03181 Y25.12508
G01 X-24.85864 Y25.17888
G01 X-24.81055 Y25.18843
G01 X-24.65450 Y25.20382
G01 X-24.60548 Y25.20382
G01 X-24.44942 Y25.18843
G01 X-24.40134 Y25.17888
G01 X-24.22816 Y25.12508
G01 X-24.04665 Y25.02805
G01 X-23.91919 Y24.92503
G01 X-22.72999 Y24.92503
G01 X-22.72397 Y25.04829
G01 X-22.71442 Y25.09635
G01 X-22.69192 Y25.16635
G01 X-22.65834 Y25.23176
G01 X-22.63111 Y25.27250
G01 X-22.58353 Y25.32856
G01 X-22.52748 Y25.37613
G01 X-22.44350 Y25.42648
G01 X-22.39824 Y25.44522
G01 X-22.32753 Y25.46541
G01 X-22.22999 Y25.47501
G01 X-20.62999 Y25.47501
G01 X-20.55672 Y25.46899
G01 X-20.50863 Y25.45944
G01 X-20.41646 Y25.42648
G01 X-20.33251 Y25.37613
G01 X-20.25997 Y25.31040
G01 X-20.22888 Y25.27250
G01 X-20.17996 Y25.19119
G01 X-20.16238 Y25.09127
G01 X-20.15499 Y24.97502
G01 X-20.15499 Y23.37502
G01 X-20.16238 Y23.25884
G01 X-20.17996 Y23.15881
G01 X-20.17996 Y20.19118
G01 X-20.16238 Y20.09128
G01 X-20.15499 Y19.97500
G01 X-20.15499 Y18.37500
G01 X-20.16238 Y18.25877
G01 X-20.17996 Y18.15882
G01 X-20.17998 Y17.17501
G01 X-20.16558 Y17.02870
G01 X-20.12288 Y16.88801
G01 X-20.06619 Y16.77938
G01 X-20.03896 Y16.73863
G01 X-19.97678 Y16.66287
G01 X-19.32032 Y16.00468
G01 X-19.22636 Y15.92604
G01 X-19.18562 Y15.89881
G01 X-19.09916 Y15.85261
G01 X-19.05390 Y15.83383
G01 X-18.96010 Y15.80539
G01 X-18.91204 Y15.79584
G01 X-18.78997 Y15.78502
G01 X-14.98413 Y15.78502
G01 X-14.83333 Y15.66198
G01 X-14.65180 Y15.56495
G01 X-14.47862 Y15.51115
G01 X-14.43057 Y15.50158
G01 X-14.27448 Y15.48621
G01 X-14.22549 Y15.48621
G01 X-14.06940 Y15.50158
G01 X-14.02135 Y15.51115
G01 X-13.84817 Y15.56495
G01 X-13.66663 Y15.66198
G01 X-13.52572 Y15.77608
G01 X-13.49999 Y15.80181
G01 X-13.49996 Y14.72822
G01 X-13.52572 Y14.75395
G01 X-13.66663 Y14.86805
G01 X-13.84817 Y14.96508
G01 X-14.02135 Y15.01888
G01 X-14.06940 Y15.02843
G01 X-14.22549 Y15.04382
G01 X-14.27448 Y15.04382
G01 X-14.43057 Y15.02843
G01 X-14.47862 Y15.01888
G01 X-14.65180 Y14.96508
G01 X-14.83333 Y14.86805
G01 X-14.98319 Y14.74501
G01 X-16.12998 Y14.74501
G01 X-16.12998 Y14.97501
G01 X-16.13600 Y15.04829
G01 X-16.15977 Y15.14326
G01 X-16.17854 Y15.18852
G01 X-16.20163 Y15.23175
G01 X-16.25995 Y15.31039
G01 X-16.33249 Y15.37613
G01 X-16.41646 Y15.42647
G01 X-16.50864 Y15.45944
G01 X-16.55672 Y15.46901
G01 X-16.62998 Y15.47501
G01 X-18.23000 Y15.47501
G01 X-18.30325 Y15.46901
G01 X-18.35133 Y15.45944
G01 X-18.44351 Y15.42647
G01 X-18.48672 Y15.40336
G01 X-18.52748 Y15.37613
G01 X-18.58354 Y15.32858
G01 X-18.63112 Y15.27249
G01 X-18.65834 Y15.23175
G01 X-18.70020 Y15.14326
G01 X-18.72398 Y15.04829
G01 X-18.73000 Y14.97501
G01 X-18.73000 Y13.37501
G01 X-18.72398 Y13.30173
G01 X-18.71443 Y13.25368
G01 X-18.69192 Y13.18368
G01 X-18.65834 Y13.11827
G01 X-18.60003 Y13.03963
G01 X-18.56536 Y13.00499
G01 X-18.52748 Y12.97390
G01 X-18.44351 Y12.92355
G01 X-18.39822 Y12.90481
G01 X-18.32753 Y12.88462
G01 X-18.23000 Y12.87501
G01 X-16.62998 Y12.87501
G01 X-16.55672 Y12.88101
G01 X-16.50864 Y12.89058
G01 X-16.41646 Y12.92355
G01 X-16.33249 Y12.97390
G01 X-16.29462 Y13.00499
G01 X-16.25995 Y13.03963
G01 X-16.20163 Y13.11827
G01 X-16.16805 Y13.18368
G01 X-16.14819 Y13.24502
G01 X-14.98413 Y13.24502
G01 X-14.83333 Y13.12198
G01 X-14.65180 Y13.02495
G01 X-14.47862 Y12.97115
G01 X-14.43057 Y12.96158
G01 X-14.27448 Y12.94621
G01 X-14.22549 Y12.94621
G01 X-14.06940 Y12.96158
G01 X-14.02135 Y12.97115
G01 X-13.84817 Y13.02495
G01 X-13.66663 Y13.12198
G01 X-13.52572 Y13.23608
G01 X-13.49999 Y13.26178
G01 X-13.43882 Y13.43077
G01 X-13.38861 Y13.62350
G01 X-13.36003 Y13.80702
G01 X-13.35023 Y13.98520
G01 X-13.36003 Y14.18304
G01 X-13.38861 Y14.36650
G01 X-13.43882 Y14.55929
G01 X-13.49996 Y14.72822
G01 X-13.49999 Y15.80181
G01 X-13.43882 Y15.97077
G01 X-13.38861 Y16.16350
G01 X-13.36003 Y16.34702
G01 X-13.35023 Y16.54483
G01 X-13.36003 Y16.72304
G01 X-13.38861 Y16.90650
G01 X-13.43882 Y17.09929
G01 X-13.49996 Y17.26822
G01 X-13.49999 Y18.34178
G01 X-13.49996 Y17.26822
G01 X-13.49999 Y18.34178
G01 X-13.43882 Y18.51077
G01 X-13.38861 Y18.70350
G01 X-13.36003 Y18.88702
G01 X-13.35023 Y19.08483
G01 X-13.36003 Y19.26304
G01 X-13.38861 Y19.44650
G01 X-13.43882 Y19.63929
G01 X-13.49996 Y19.80822
G01 X-13.49999 Y20.88181
G01 X-13.49996 Y19.80822
G01 X-13.52572 Y19.83395
G01 X-13.66663 Y19.94805
G01 X-13.84817 Y20.04508
G01 X-14.02135 Y20.09888
G01 X-14.06940 Y20.10843
G01 X-14.22549 Y20.12382
G01 X-14.27448 Y20.12382
G01 X-14.43057 Y20.10843
G01 X-14.47862 Y20.09888
G01 X-14.65180 Y20.04508
G01 X-14.83333 Y19.94805
G01 X-14.98319 Y19.82501
G01 X-16.12998 Y19.82501
G01 X-16.12998 Y19.97500
G01 X-16.13600 Y20.04828
G01 X-16.15977 Y20.14325
G01 X-16.20163 Y20.23174
G01 X-16.25995 Y20.31038
G01 X-16.33249 Y20.37614
G01 X-16.41646 Y20.42646
G01 X-16.46175 Y20.44523
G01 X-16.53244 Y20.46540
G01 X-16.62998 Y20.47502
G01 X-18.23000 Y20.47502
G01 X-18.30325 Y20.46900
G01 X-18.35133 Y20.45945
G01 X-18.39822 Y20.44523
G01 X-18.48672 Y20.40337
G01 X-18.52748 Y20.37614
G01 X-18.58354 Y20.32857
G01 X-18.63112 Y20.27251
G01 X-18.65834 Y20.23174
G01 X-18.68075 Y20.18821
G01 X-18.70203 Y20.04612
G01 X-18.70498 Y19.97500
G01 X-18.70498 Y18.37500
G01 X-18.69756 Y18.25877
G01 X-18.67996 Y18.15875
G01 X-18.67999 Y17.48567
G01 X-18.47933 Y17.28501
G01 X-14.98319 Y17.28501
G01 X-14.83333 Y17.40805
G01 X-14.65180 Y17.50508
G01 X-14.47862 Y17.55888
G01 X-14.43057 Y17.56843
G01 X-14.27448 Y17.58382
G01 X-14.22549 Y17.58382
G01 X-14.06940 Y17.56843
G01 X-14.02135 Y17.55888
G01 X-13.84817 Y17.50508
G01 X-13.66663 Y17.40805
G01 X-13.52572 Y17.29395
G01 X-13.49996 Y17.26822
G01 X-13.43882 Y17.09929
G01 X-13.38861 Y16.90650
G01 X-13.36003 Y16.72304
G01 X-13.35023 Y16.54483
G01 X-13.36003 Y16.34702
G01 X-13.38861 Y16.16350
G01 X-13.43882 Y15.97077
G01 X-13.49999 Y15.80181
G01 X-13.49996 Y14.72822
G01 X-13.43882 Y14.55929
G01 X-13.38861 Y14.36650
G01 X-13.36003 Y14.18304
G01 X-13.35023 Y13.98520
G01 X-13.36003 Y13.80702
G01 X-13.38861 Y13.62350
G01 X-13.43882 Y13.43077
G01 X-13.49999 Y13.26178
G01 X-13.49999 Y11.78568
G01 X-14.06186 Y11.22381
G01 X-14.23057 Y11.20844
G01 X-14.27862 Y11.19887
G01 X-14.45180 Y11.14510
G01 X-14.63333 Y11.04807
G01 X-14.77428 Y10.93395
G01 X-14.80892 Y10.89930
G01 X-14.90842 Y10.77807
G01 X-14.93564 Y10.73732
G01 X-15.00958 Y10.59900
G01 X-15.02833 Y10.55373
G01 X-15.07385 Y10.40365
G01 X-15.08342 Y10.35559
G01 X-15.09998 Y10.17502
G01 X-15.07981 Y9.97017
G01 X-15.02833 Y9.79631
G01 X-15.00958 Y9.75102
G01 X-14.93564 Y9.61271
G01 X-14.90842 Y9.57195
G01 X-14.80892 Y9.45074
G01 X-14.78317 Y9.42503
G01 X-14.57832 Y9.35297
G01 X-14.39483 Y9.30835
G01 X-14.23798 Y9.28511
G01 X-14.05980 Y9.27528
G01 X-13.86196 Y9.28511
G01 X-13.70514 Y9.30835
G01 X-13.52165 Y9.35297
G01 X-13.31670 Y9.42508
G01 X-12.24317 Y9.42503
G01 X-13.31670 Y9.42508
G01 X-13.29105 Y9.45074
G01 X-13.19155 Y9.57195
G01 X-13.16432 Y9.61271
G01 X-13.09041 Y9.75102
G01 X-13.07164 Y9.79631
G01 X-13.02015 Y9.97017
G01 X-13.00118 Y10.16316
G01 X-12.28655 Y10.87781
G01 X-13.00118 Y10.16316
G01 X-13.02015 Y9.97017
G01 X-13.07164 Y9.79631
G01 X-13.09041 Y9.75102
G01 X-13.16432 Y9.61271
G01 X-13.19155 Y9.57195
G01 X-13.29105 Y9.45074
G01 X-13.31670 Y9.42508
G01 X-13.48571 Y9.36390
G01 X-13.70514 Y9.30835
G01 X-13.86196 Y9.28511
G01 X-14.04017 Y9.27528
G01 X-14.23798 Y9.28511
G01 X-14.39483 Y9.30835
G01 X-14.57832 Y9.35297
G01 X-14.78317 Y9.42503
G01 X-20.07932 Y9.42503
G01 X-20.83998 Y10.18571
G01 X-20.83998 Y10.97502
G01 X-20.84480 Y11.02379
G01 X-20.85903 Y11.07067
G01 X-20.88211 Y11.11391
G01 X-20.91320 Y11.15180
G01 X-20.95110 Y11.18289
G01 X-20.99431 Y11.20598
G01 X-21.04122 Y11.22020
G01 X-21.08999 Y11.22500
G01 X-22.68999 Y11.22500
G01 X-22.73875 Y11.22020
G01 X-22.78567 Y11.20598
G01 X-22.82887 Y11.18289
G01 X-22.86677 Y11.15180
G01 X-22.89786 Y11.11391
G01 X-22.92095 Y11.07067
G01 X-22.93517 Y11.02379
G01 X-22.94000 Y10.97502
G01 X-22.94000 Y10.18569
G01 X-23.69989 Y9.42333
G01 X-23.90164 Y9.35297
G01 X-24.08513 Y9.30835
G01 X-24.26331 Y9.28300
G01 X-24.42016 Y9.27528
G01 X-24.59664 Y9.28300
G01 X-24.77482 Y9.30835
G01 X-24.95831 Y9.35297
G01 X-25.16316 Y9.42503
G01 X-25.18891 Y9.45074
G01 X-25.28840 Y9.57195
G01 X-25.31563 Y9.61271
G01 X-25.38957 Y9.75102
G01 X-25.40832 Y9.79631
G01 X-25.45980 Y9.97017
G01 X-25.47878 Y10.16318
G01 X-26.67677 Y11.36288
G01 X-26.73895 Y11.43864
G01 X-26.77743 Y11.50042
G01 X-26.82287 Y11.58802
G01 X-26.85960 Y11.70491
G01 X-26.86915 Y11.75297
G01 X-26.87997 Y11.87502
G01 X-26.87878 Y15.05952
G01 X-26.86557 Y15.18133
G01 X-26.83115 Y15.29894
G01 X-26.81238 Y15.34420
G01 X-26.76618 Y15.43066
G01 X-26.73895 Y15.47140
G01 X-26.66031 Y15.56536
G01 X-25.67944 Y16.54620
G01 X-25.66341 Y16.71560
G01 X-25.65386 Y16.76365
G01 X-25.60006 Y16.93683
G01 X-25.51563 Y17.09731
G01 X-25.48840 Y17.13807
G01 X-25.38891 Y17.25931
G01 X-25.35427 Y17.29395
G01 X-25.21335 Y17.40805
G01 X-25.03181 Y17.50508
G01 X-24.85864 Y17.55888
G01 X-24.81055 Y17.56843
G01 X-24.65450 Y17.58382
G01 X-24.60548 Y17.58382
G01 X-24.44942 Y17.56843
G01 X-24.40134 Y17.55888
G01 X-24.22816 Y17.50508
G01 X-24.04665 Y17.40805
G01 X-23.90571 Y17.29395
G01 X-23.87106 Y17.25931
G01 X-23.77157 Y17.13807
G01 X-23.74434 Y17.09731
G01 X-23.67040 Y16.95900
G01 X-23.65165 Y16.91374
G01 X-23.60611 Y16.76365
G01 X-23.59656 Y16.71560
G01 X-23.58119 Y16.55951
G01 X-23.58119 Y16.51052
G01 X-23.59656 Y16.35443
G01 X-23.60611 Y16.30638
G01 X-23.65165 Y16.15629
G01 X-23.67040 Y16.11103
G01 X-23.74434 Y15.97270
G01 X-23.77157 Y15.93196
G01 X-23.87106 Y15.81072
G01 X-23.90571 Y15.77608
G01 X-24.04665 Y15.66198
G01 X-24.22816 Y15.56495
G01 X-24.40134 Y15.51115
G01 X-24.44942 Y15.50158
G01 X-24.61812 Y15.48621
G01 X-25.38170 Y14.72510
G01 X-25.45203 Y14.52335
G01 X-25.49666 Y14.33986
G01 X-25.51990 Y14.18304
G01 X-25.52973 Y14.00483
G01 X-25.51990 Y13.80702
G01 X-25.49666 Y13.65017
G01 X-25.45203 Y13.46668
G01 X-25.37992 Y13.26173
G01 X-25.35427 Y13.23608
G01 X-25.23303 Y13.13658
G01 X-25.19229 Y13.10935
G01 X-25.03181 Y13.02495
G01 X-24.85864 Y12.97115
G01 X-24.81055 Y12.96158
G01 X-24.65450 Y12.94621
G01 X-24.60548 Y12.94621
G01 X-24.44942 Y12.96158
G01 X-24.40134 Y12.97115
G01 X-24.22816 Y13.02495
G01 X-24.04665 Y13.12198
G01 X-23.90571 Y13.23608
G01 X-23.87106 Y13.27072
G01 X-23.77157 Y13.39196
G01 X-23.74947 Y13.42503
G01 X-22.72999 Y13.42503
G01 X-22.72877 Y13.35050
G01 X-22.71442 Y13.25368
G01 X-22.69192 Y13.18368
G01 X-22.65834 Y13.11827
G01 X-22.63111 Y13.07753
G01 X-22.56537 Y13.00499
G01 X-22.48673 Y12.94667
G01 X-22.39824 Y12.90481
G01 X-22.32753 Y12.88462
G01 X-22.22999 Y12.87501
G01 X-20.62999 Y12.87501
G01 X-20.53243 Y12.88462
G01 X-20.46174 Y12.90481
G01 X-20.37325 Y12.94667
G01 X-20.29461 Y13.00499
G01 X-20.25997 Y13.03963
G01 X-20.20165 Y13.11827
G01 X-20.16804 Y13.18368
G01 X-20.14557 Y13.25368
G01 X-20.13599 Y13.30173
G01 X-20.13000 Y13.37501
G01 X-20.13000 Y14.97501
G01 X-20.13599 Y15.04829
G01 X-20.15979 Y15.14326
G01 X-20.17853 Y15.18852
G01 X-20.22888 Y15.27249
G01 X-20.27643 Y15.32858
G01 X-20.33251 Y15.37613
G01 X-20.41646 Y15.42647
G01 X-20.46174 Y15.44521
G01 X-20.53243 Y15.46541
G01 X-20.62999 Y15.47501
G01 X-22.25450 Y15.47382
G01 X-22.32753 Y15.46541
G01 X-22.39824 Y15.44521
G01 X-22.44350 Y15.42647
G01 X-22.52748 Y15.37613
G01 X-22.60002 Y15.31039
G01 X-22.65834 Y15.23175
G01 X-22.70020 Y15.14326
G01 X-22.72397 Y15.04829
G01 X-22.72999 Y14.92502
G01 X-24.15066 Y14.92502
G01 X-24.22816 Y14.96508
G01 X-24.40134 Y15.01888
G01 X-24.44942 Y15.02843
G01 X-24.60548 Y15.04382
G01 X-24.65450 Y15.04382
G01 X-24.81055 Y15.02843
G01 X-24.85864 Y15.01888
G01 X-25.03181 Y14.96508
G01 X-25.21335 Y14.86805
G01 X-25.33255 Y14.77178
G01 X-25.38170 Y14.72510
G01 X-25.45203 Y14.52335
G01 X-25.49666 Y14.33986
G01 X-25.52201 Y14.16168
G01 X-25.52973 Y13.98520
G01 X-25.51990 Y13.80702
G01 X-25.49133 Y13.62353
G01 X-25.44111 Y13.43077
G01 X-25.37992 Y13.26173
G01 X-25.37997 Y12.18568
G01 X-24.41873 Y11.22447
G01 X-24.24942 Y11.20844
G01 X-24.20134 Y11.19887
G01 X-24.02816 Y11.14510
G01 X-23.86768 Y11.06067
G01 X-23.82694 Y11.03344
G01 X-23.70571 Y10.93395
G01 X-23.67106 Y10.89930
G01 X-23.57157 Y10.77807
G01 X-23.54434 Y10.73732
G01 X-23.47040 Y10.59900
G01 X-23.45165 Y10.55373
G01 X-23.40611 Y10.40365
G01 X-23.39656 Y10.35559
G01 X-23.38120 Y10.19951
G01 X-23.38120 Y10.15051
G01 X-23.40017 Y9.97017
G01 X-23.45165 Y9.79631
G01 X-23.47040 Y9.75102
G01 X-23.54434 Y9.61271
G01 X-23.57157 Y9.57195
G01 X-23.65323 Y9.47246
G01 X-22.94000 Y10.18569
G01 X-22.94000 Y10.97502
G01 X-22.93517 Y11.02379
G01 X-22.92095 Y11.07067
G01 X-22.89786 Y11.11391
G01 X-22.86677 Y11.15180
G01 X-22.82887 Y11.18289
G01 X-22.78567 Y11.20598
G01 X-22.73875 Y11.22020
G01 X-22.68999 Y11.22500
G01 X-21.08999 Y11.22500
G01 X-21.04122 Y11.22020
G01 X-20.99431 Y11.20598
G01 X-20.95110 Y11.18289
G01 X-20.91320 Y11.15180
G01 X-20.88211 Y11.11391
G01 X-20.85903 Y11.07067
G01 X-20.84480 Y11.02379
G01 X-20.83998 Y10.97502
G01 X-20.83998 Y10.18571
G01 X-20.07932 Y9.42503
G01 X-14.78317 Y9.42503
G01 X-14.61423 Y9.36390
G01 X-14.42147 Y9.31368
G01 X-14.23798 Y9.28511
G01 X-14.05980 Y9.27528
G01 X-13.86196 Y9.28511
G01 X-13.67850 Y9.31368
G01 X-13.48571 Y9.36390
G01 X-13.31670 Y9.42508
G01 X-12.24317 Y9.42503
G01 X-12.07423 Y9.36390
G01 X-11.88147 Y9.31368
G01 X-11.69798 Y9.28511
G01 X-11.51980 Y9.27528
G01 X-11.32196 Y9.28511
G01 X-11.13850 Y9.31368
G01 X-10.94571 Y9.36390
G01 X-10.77670 Y9.42508
G01 X-9.70317 Y9.42503
G01 X-10.77670 Y9.42508
G01 X-10.98163 Y9.35297
G01 X-11.16512 Y9.30835
G01 X-11.34330 Y9.28300
G01 X-11.50017 Y9.27528
G01 X-11.67660 Y9.28300
G01 X-11.88147 Y9.31368
G01 X-12.07423 Y9.36390
G01 X-12.24317 Y9.42503
G01 X-12.26892 Y9.45074
G01 X-12.36842 Y9.57195
G01 X-12.39564 Y9.61271
G01 X-12.46958 Y9.75102
G01 X-12.48833 Y9.79631
G01 X-12.53385 Y9.94637
G01 X-12.54342 Y9.99443
G01 X-12.55879 Y10.15051
G01 X-12.55879 Y10.19951
G01 X-12.54342 Y10.35559
G01 X-12.53385 Y10.40365
G01 X-12.48833 Y10.55373
G01 X-12.46958 Y10.59900
G01 X-12.39564 Y10.73732
G01 X-12.36842 Y10.77807
G01 X-12.25810 Y10.90888
G01 X-12.22793 Y10.98322
G01 X-12.18228 Y11.11604
G01 X-12.15772 Y11.21403
G01 X-12.13753 Y11.34047
G01 X-12.13027 Y11.46321
G01 X-12.12999 Y21.81500
G01 X-12.12242 Y21.94960
G01 X-12.10222 Y22.07604
G01 X-12.06707 Y22.20883
G01 X-11.99996 Y22.38569
G01 X-11.99999 Y25.34438
G01 X-7.35336 Y29.99294
G01 X-7.21331 Y30.10805
G01 X-7.05397 Y30.19459
G01 X-7.00869 Y30.21336
G01 X-6.85862 Y30.25888
G01 X-6.81057 Y30.26843
G01 X-6.65448 Y30.28382
G01 X-6.60549 Y30.28382
G01 X-6.44940 Y30.26843
G01 X-6.40135 Y30.25888
G01 X-6.22817 Y30.20508
G01 X-6.06769 Y30.12067
G01 X-6.02692 Y30.09345
G01 X-5.90572 Y29.99395
G01 X-5.84326 Y29.92502
G01 X-4.72998 Y29.92502
G01 X-4.72878 Y29.99952
G01 X-4.71443 Y30.09637
G01 X-4.68144 Y30.18854
G01 X-4.63112 Y30.27252
G01 X-4.58354 Y30.32857
G01 X-4.52749 Y30.37612
G01 X-4.48672 Y30.40335
G01 X-4.42134 Y30.43696
G01 X-4.35134 Y30.45943
G01 X-4.30326 Y30.46901
G01 X-4.22998 Y30.47500
G01 X-2.62998 Y30.47500
G01 X-2.55670 Y30.46901
G01 X-2.50864 Y30.45943
G01 X-2.43864 Y30.43696
G01 X-2.37324 Y30.40335
G01 X-2.33249 Y30.37612
G01 X-2.25995 Y30.31039
G01 X-2.22886 Y30.27252
G01 X-2.17855 Y30.18854
G01 X-2.15977 Y30.14326
G01 X-2.13961 Y30.07257
G01 X-2.12998 Y29.97501
G01 X-2.12998 Y28.37501
G01 X-2.13600 Y28.30173
G01 X-2.14555 Y28.25367
G01 X-2.16805 Y28.18367
G01 X-2.20163 Y28.11827
G01 X-2.22886 Y28.07752
G01 X-2.27644 Y28.02147
G01 X-2.33249 Y27.97389
G01 X-2.37324 Y27.94666
G01 X-2.43864 Y27.91308
G01 X-2.53244 Y27.88461
G01 X-2.62998 Y27.87501
G01 X-4.22998 Y27.87501
G01 X-4.32754 Y27.88461
G01 X-4.42134 Y27.91308
G01 X-4.48672 Y27.94666
G01 X-4.56536 Y28.00498
G01 X-4.63112 Y28.07752
G01 X-4.65835 Y28.11827
G01 X-4.69193 Y28.18367
G01 X-4.71443 Y28.25367
G01 X-4.72878 Y28.35050
G01 X-4.72998 Y28.42502
G01 X-5.96894 Y28.42502
G01 X-6.04572 Y28.36259
G01 X-6.22817 Y28.26495
G01 X-6.40135 Y28.21115
G01 X-6.44940 Y28.20158
G01 X-6.60549 Y28.18621
G01 X-6.65448 Y28.18621
G01 X-6.81057 Y28.20158
G01 X-6.85862 Y28.21115
G01 X-7.00869 Y28.25667
G01 X-7.05397 Y28.27544
G01 X-7.21331 Y28.36198
G01 X-7.37244 Y28.49256
G01 X-7.48842 Y28.63196
G01 X-7.51562 Y28.67270
G01 X-7.58956 Y28.81103
G01 X-7.60833 Y28.85629
G01 X-7.65385 Y29.00638
G01 X-7.66342 Y29.05443
G01 X-7.67998 Y29.23500
G01 X-7.66342 Y29.41560
G01 X-7.65385 Y29.46365
G01 X-7.60833 Y29.61374
G01 X-7.58956 Y29.65900
G01 X-7.51562 Y29.79731
G01 X-7.48842 Y29.83807
G01 X-7.40653 Y29.93782
G01 X-6.61933 Y30.72502
G01 X-5.83000 Y30.72502
G01 X-5.78121 Y30.72982
G01 X-5.73432 Y30.74404
G01 X-5.69109 Y30.76716
G01 X-5.65321 Y30.79824
G01 X-5.62212 Y30.83612
G01 X-5.59901 Y30.87935
G01 X-5.58479 Y30.92624
G01 X-5.57999 Y30.97500
G01 X-5.57999 Y32.57500
G01 X-5.58479 Y32.62379
G01 X-5.59901 Y32.67068
G01 X-5.62212 Y32.71391
G01 X-5.65321 Y32.75178
G01 X-5.69109 Y32.78287
G01 X-5.73432 Y32.80599
G01 X-5.78121 Y32.82021
G01 X-5.83000 Y32.82501
G01 X-7.43000 Y32.82501
G01 X-7.47876 Y32.82021
G01 X-7.52563 Y32.80599
G01 X-7.56888 Y32.78287
G01 X-7.60675 Y32.75178
G01 X-7.63784 Y32.71391
G01 X-7.66096 Y32.67068
G01 X-7.67518 Y32.62379
G01 X-7.67998 Y32.57500
G01 X-7.67998 Y31.78567
G01 X-13.28033 Y26.18538
G01 X-13.36765 Y26.07956
G01 X-13.42645 Y25.97771
G01 X-13.46862 Y25.86790
G01 X-13.48693 Y25.79163
G01 X-13.49922 Y25.67466
G01 X-13.49996 Y24.88822
G01 X-13.43882 Y24.71929
G01 X-13.38861 Y24.52650
G01 X-13.36003 Y24.34304
G01 X-13.35023 Y24.14520
G01 X-13.36003 Y23.96702
G01 X-13.38861 Y23.78350
G01 X-13.43882 Y23.59077
G01 X-13.49999 Y23.42178
G01 X-13.49996 Y22.34822
G01 X-13.43882 Y22.17929
G01 X-13.38861 Y21.98650
G01 X-13.36003 Y21.80304
G01 X-13.35023 Y21.60520
G01 X-13.36003 Y21.42702
G01 X-13.38861 Y21.24350
G01 X-13.43882 Y21.05077
G01 X-13.49999 Y20.88181
G01 X-13.52572 Y20.85608
G01 X-13.66663 Y20.74198
G01 X-13.84817 Y20.64495
G01 X-14.02135 Y20.59115
G01 X-14.06940 Y20.58158
G01 X-14.22549 Y20.56621
G01 X-14.27448 Y20.56621
G01 X-14.43057 Y20.58158
G01 X-14.47862 Y20.59115
G01 X-14.65180 Y20.64495
G01 X-14.83333 Y20.74198
G01 X-14.98413 Y20.86502
G01 X-18.67999 Y20.86502
G01 X-18.67999 Y20.19123
G01 X-18.69756 Y20.09128
G01 X-18.70498 Y19.97500
G01 X-18.70498 Y18.37500
G01 X-18.69756 Y18.25877
G01 X-18.67996 Y18.15875
G01 X-18.63112 Y18.07752
G01 X-18.58354 Y18.02146
G01 X-18.52748 Y17.97389
G01 X-18.44351 Y17.92357
G01 X-18.35133 Y17.89057
G01 X-18.30325 Y17.88102
G01 X-18.23000 Y17.87500
G01 X-16.62998 Y17.87500
G01 X-16.53244 Y17.88463
G01 X-16.46175 Y17.90480
G01 X-16.37323 Y17.94666
G01 X-16.33249 Y17.97389
G01 X-16.25995 Y18.03965
G01 X-16.20163 Y18.11826
G01 X-16.16805 Y18.18367
G01 X-16.14555 Y18.25367
G01 X-16.13371 Y18.32502
G01 X-14.98413 Y18.32502
G01 X-14.85304 Y18.21658
G01 X-14.81230 Y18.18935
G01 X-14.65180 Y18.10495
G01 X-14.47862 Y18.05115
G01 X-14.43057 Y18.04158
G01 X-14.27448 Y18.02621
G01 X-14.22549 Y18.02621
G01 X-14.06940 Y18.04158
G01 X-14.02135 Y18.05115
G01 X-13.84817 Y18.10495
G01 X-13.68769 Y18.18935
G01 X-13.64692 Y18.21658
G01 X-13.52572 Y18.31608
G01 X-13.49999 Y18.34178
G01 X-13.42790 Y18.54668
G01 X-13.38861 Y18.70350
G01 X-13.36003 Y18.88702
G01 X-13.35023 Y19.08483
G01 X-13.36003 Y19.26304
G01 X-13.38330 Y19.41986
G01 X-13.42790 Y19.60335
G01 X-13.49996 Y19.80822
G01 X-13.49999 Y20.88181
G01 X-13.43882 Y21.05077
G01 X-13.38861 Y21.24350
G01 X-13.36003 Y21.42702
G01 X-13.35023 Y21.62483
G01 X-13.36003 Y21.80304
G01 X-13.38861 Y21.98650
G01 X-13.43882 Y22.17929
G01 X-13.49996 Y22.34822
G01 X-13.49999 Y23.42178
G01 X-13.42790 Y23.62668
G01 X-13.38330 Y23.81017
G01 X-13.35792 Y23.98838
G01 X-13.35023 Y24.14520
G01 X-13.35792 Y24.32168
G01 X-13.38330 Y24.49986
G01 X-13.42790 Y24.68335
G01 X-13.49996 Y24.88822
G01 X-13.52572 Y24.91395
G01 X-13.66663 Y25.02805
G01 X-13.84817 Y25.12508
G01 X-14.02135 Y25.17888
G01 X-14.06940 Y25.18843
G01 X-14.22549 Y25.20382
G01 X-14.27448 Y25.20382
G01 X-14.43057 Y25.18843
G01 X-14.47862 Y25.17888
G01 X-14.65180 Y25.12508
G01 X-14.83333 Y25.02805
G01 X-14.98319 Y24.90501
G01 X-16.12998 Y24.90501
G01 X-16.13120 Y24.99953
G01 X-16.14555 Y25.09635
G01 X-16.16805 Y25.16635
G01 X-16.20163 Y25.23176
G01 X-16.22886 Y25.27250
G01 X-16.29462 Y25.34504
G01 X-16.37323 Y25.40336
G01 X-16.46175 Y25.44522
G01 X-16.53244 Y25.46541
G01 X-16.62998 Y25.47501
G01 X-18.23000 Y25.47501
G01 X-18.32753 Y25.46541
G01 X-18.39822 Y25.44522
G01 X-18.44351 Y25.42648
G01 X-18.52748 Y25.37613
G01 X-18.58354 Y25.32856
G01 X-18.63112 Y25.27250
G01 X-18.67999 Y25.19122
G01 X-18.69030 Y25.14027
G01 X-18.70203 Y25.04614
G01 X-18.70498 Y24.97502
G01 X-18.70498 Y23.37502
G01 X-18.69759 Y23.25884
G01 X-18.67999 Y23.15876
G01 X-18.67999 Y22.36501
G01 X-14.98319 Y22.36501
G01 X-14.83333 Y22.48805
G01 X-14.65180 Y22.58508
G01 X-14.47862 Y22.63888
G01 X-14.43057 Y22.64843
G01 X-14.27448 Y22.66382
G01 X-14.22549 Y22.66382
G01 X-14.06940 Y22.64843
G01 X-14.02135 Y22.63888
G01 X-13.84817 Y22.58508
G01 X-13.66663 Y22.48805
G01 X-13.52572 Y22.37395
G01 X-13.49996 Y22.34822
G01 X-13.49999 Y23.42178
G01 X-13.52572 Y23.39608
G01 X-13.66663 Y23.28198
G01 X-13.84817 Y23.18495
G01 X-14.02135 Y23.13115
G01 X-14.06940 Y23.12158
G01 X-14.22549 Y23.10621
G01 X-14.27448 Y23.10621
G01 X-14.43057 Y23.12158
G01 X-14.47862 Y23.13115
G01 X-14.65180 Y23.18495
G01 X-14.83333 Y23.28198
G01 X-14.98413 Y23.40502
G01 X-16.12998 Y23.40502
G01 X-16.13600 Y23.30174
G01 X-16.14555 Y23.25366
G01 X-16.16805 Y23.18368
G01 X-16.20163 Y23.11828
G01 X-16.22886 Y23.07753
G01 X-16.27643 Y23.02145
G01 X-16.33249 Y22.97390
G01 X-16.41646 Y22.92356
G01 X-16.46175 Y22.90481
G01 X-16.53244 Y22.88462
G01 X-16.62998 Y22.87502
G01 X-18.23000 Y22.87502
G01 X-18.32753 Y22.88462
G01 X-18.39822 Y22.90481
G01 X-18.44351 Y22.92356
G01 X-18.52748 Y22.97390
G01 X-18.56536 Y23.00499
G01 X-18.60003 Y23.03964
G01 X-18.65834 Y23.11828
G01 X-18.67999 Y23.15876
G01 X-18.69032 Y23.20982
G01 X-18.70203 Y23.30392
G01 X-18.70498 Y23.37502
G01 X-18.70498 Y24.97502
G01 X-18.69756 Y25.09127
G01 X-18.67999 Y25.19122
G01 X-18.67999 Y25.94502
G01 X-14.98413 Y25.94502
G01 X-14.83333 Y25.82198
G01 X-14.67397 Y25.73544
G01 X-14.62871 Y25.71667
G01 X-14.47862 Y25.67115
G01 X-14.43057 Y25.66158
G01 X-14.27448 Y25.64621
G01 X-14.22549 Y25.64621
G01 X-14.06940 Y25.66158
G01 X-14.02135 Y25.67115
G01 X-13.87126 Y25.71667
G01 X-13.82599 Y25.73544
G01 X-13.66663 Y25.82198
G01 X-13.52572 Y25.93608
G01 X-13.49104 Y25.97072
G01 X-13.39155 Y26.09196
G01 X-13.36432 Y26.13270
G01 X-13.29041 Y26.27103
G01 X-13.27164 Y26.31629
G01 X-13.22015 Y26.49018
G01 X-13.20118 Y26.67052
G01 X-13.20118 Y26.71951
G01 X-13.22015 Y26.89985
G01 X-13.27164 Y27.07374
G01 X-13.29041 Y27.11900
G01 X-13.36432 Y27.25731
G01 X-13.39155 Y27.29807
G01 X-13.49104 Y27.41931
G01 X-13.52572 Y27.45395
G01 X-13.66663 Y27.56805
G01 X-13.84817 Y27.66508
G01 X-14.02135 Y27.71888
G01 X-14.06940 Y27.72843
G01 X-14.22549 Y27.74382
G01 X-14.27448 Y27.74382
G01 X-14.43057 Y27.72843
G01 X-14.47862 Y27.71888
G01 X-14.62871 Y27.67336
G01 X-14.67397 Y27.65459
G01 X-14.83333 Y27.56805
G01 X-14.98319 Y27.44501
G01 X-18.67999 Y27.44501
G01 X-18.67999 Y33.42504
G01 X-16.74062 Y33.42504
G01 X-15.28139 Y31.96578
G01 X-15.29998 Y31.77500
G01 X-15.27981 Y31.57018
G01 X-15.22833 Y31.39629
G01 X-15.20958 Y31.35103
G01 X-15.13564 Y31.21270
G01 X-15.10842 Y31.17196
G01 X-15.00892 Y31.05072
G01 X-14.97428 Y31.01608
G01 X-14.83333 Y30.90198
G01 X-14.67397 Y30.81544
G01 X-14.62871 Y30.79667
G01 X-14.47862 Y30.75115
G01 X-14.43057 Y30.74158
G01 X-14.27448 Y30.72621
G01 X-14.22549 Y30.72621
G01 X-14.06940 Y30.74158
G01 X-14.02135 Y30.75115
G01 X-13.84817 Y30.80495
G01 X-13.68769 Y30.88935
G01 X-13.64692 Y30.91658
G01 X-13.52572 Y31.01608
G01 X-13.49104 Y31.05072
G01 X-13.39155 Y31.17196
G01 X-13.36432 Y31.21270
G01 X-13.29041 Y31.35103
G01 X-13.27164 Y31.39629
G01 X-13.22612 Y31.54638
G01 X-13.21657 Y31.59443
G01 X-13.20118 Y31.75052
G01 X-13.20118 Y31.79951
G01 X-13.21657 Y31.95560
G01 X-13.22612 Y32.00365
G01 X-13.27164 Y32.15374
G01 X-13.29041 Y32.19900
G01 X-13.36432 Y32.33731
G01 X-13.39155 Y32.37807
G01 X-13.49104 Y32.49931
G01 X-13.52572 Y32.53395
G01 X-13.64692 Y32.63345
G01 X-13.68769 Y32.66067
G01 X-13.84817 Y32.74508
G01 X-13.98091 Y32.78661
G01 X-15.89963 Y34.70537
G01 X-15.97372 Y34.76964
G01 X-16.07235 Y34.83370
G01 X-16.17979 Y34.88152
G01 X-16.21997 Y34.89435
G01 X-16.21997 Y35.12501
G01 X-16.12121 Y35.12981
G01 X-16.07433 Y35.14403
G01 X-16.03110 Y35.16715
G01 X-15.99320 Y35.19824
G01 X-15.96211 Y35.23613
G01 X-15.93902 Y35.27934
G01 X-15.92480 Y35.32625
G01 X-15.92000 Y35.37502
G01 X-15.92000 Y36.97502
G01 X-15.92480 Y37.02378
G01 X-15.93902 Y37.07067
G01 X-15.96211 Y37.11390
G01 X-15.99320 Y37.15180
G01 X-16.03110 Y37.18289
G01 X-16.07433 Y37.20598
G01 X-16.12121 Y37.22020
G01 X-16.16998 Y37.22500
G01 X-17.76998 Y37.22500
G01 X-17.81875 Y37.22020
G01 X-17.86566 Y37.20598
G01 X-17.90889 Y37.18289
G01 X-17.94676 Y37.15180
G01 X-17.97785 Y37.11390
G01 X-18.00097 Y37.07067
G01 X-18.01519 Y37.02378
G01 X-18.01999 Y36.97502
G01 X-18.01999 Y35.37502
G01 X-18.01618 Y35.33161
G01 X-18.00490 Y35.28950
G01 X-17.98649 Y35.25000
G01 X-17.96150 Y35.21431
G01 X-17.93069 Y35.18350
G01 X-17.89500 Y35.15851
G01 X-17.85550 Y35.14010
G01 X-17.81339 Y35.12882
G01 X-17.71997 Y35.12501
G01 X-17.71997 Y34.94568
G01 X-17.74062 Y34.92503
G01 X-33.67998 Y34.92503
G01 X-33.67998 Y35.12501
G01 X-33.58658 Y35.12882
G01 X-33.54447 Y35.14010
G01 X-33.50497 Y35.15851
G01 X-33.46929 Y35.18350
G01 X-33.43848 Y35.21431
G01 X-33.41348 Y35.25000
G01 X-33.39507 Y35.28950
G01 X-33.38379 Y35.33161
G01 X-33.37998 Y35.37502
G01 X-33.37998 Y36.97502
G01 X-33.38478 Y37.02378
G01 X-33.39901 Y37.07067
G01 X-33.42212 Y37.11390
G01 X-33.45321 Y37.15180
G01 X-33.49111 Y37.18289
G01 X-33.53431 Y37.20598
G01 X-33.58123 Y37.22020
G01 X-33.62999 Y37.22500
G01 X-35.22999 Y37.22500
G01 X-35.27876 Y37.22020
G01 X-35.32565 Y37.20598
G01 X-35.36888 Y37.18289
G01 X-35.40677 Y37.15180
G01 X-35.43786 Y37.11390
G01 X-35.46095 Y37.07067
G01 X-35.47518 Y37.02378
G01 X-35.47998 Y36.97502
G01 X-35.47998 Y35.37502
G01 X-35.47619 Y35.33161
G01 X-35.46491 Y35.28950
G01 X-35.44650 Y35.25000
G01 X-35.42151 Y35.21431
G01 X-35.39070 Y35.18350
G01 X-35.35498 Y35.15851
G01 X-35.31549 Y35.14010
G01 X-35.27340 Y35.12882
G01 X-35.17998 Y35.12501
G01 X-35.17998 Y34.92503
G01 X-52.67997 Y34.92503
G01 X-52.67997 Y35.12501
G01 X-52.58657 Y35.12882
G01 X-52.54448 Y35.14010
G01 X-52.50499 Y35.15851
G01 X-52.46930 Y35.18350
G01 X-52.43847 Y35.21431
G01 X-52.41347 Y35.25000
G01 X-52.39506 Y35.28950
G01 X-52.38378 Y35.33161
G01 X-52.37999 Y35.37502
G01 X-52.37997 Y36.92503
G01 X-51.62320 Y36.92503
G01 X-51.45427 Y36.98617
G01 X-51.26145 Y37.03638
G01 X-51.07802 Y37.06498
G01 X-50.89978 Y37.07479
G01 X-50.70194 Y37.06498
G01 X-50.51848 Y37.03638
G01 X-50.32572 Y36.98619
G01 X-50.15673 Y36.92503
G01 X-49.08320 Y36.92503
G01 X-48.91427 Y36.98617
G01 X-48.72145 Y37.03638
G01 X-48.53802 Y37.06498
G01 X-48.35978 Y37.07479
G01 X-48.16194 Y37.06498
G01 X-47.97848 Y37.03638
G01 X-47.78572 Y36.98619
G01 X-47.61673 Y36.92503
G01 X-46.54320 Y36.92503
G01 X-46.37427 Y36.98617
G01 X-46.18145 Y37.03638
G01 X-45.99802 Y37.06498
G01 X-45.81978 Y37.07479
G01 X-45.62194 Y37.06498
G01 X-45.43848 Y37.03638
G01 X-45.24572 Y36.98619
G01 X-45.07673 Y36.92503
G01 X-44.00318 Y36.92503
G01 X-45.07673 Y36.92503
G01 X-45.05105 Y36.89930
G01 X-44.95156 Y36.77807
G01 X-44.92433 Y36.73732
G01 X-44.85039 Y36.59902
G01 X-44.83165 Y36.55373
G01 X-44.78016 Y36.37987
G01 X-44.76119 Y36.19953
G01 X-44.76119 Y36.15051
G01 X-44.78016 Y35.97017
G01 X-44.83165 Y35.79630
G01 X-44.85039 Y35.75102
G01 X-44.92433 Y35.61271
G01 X-44.95156 Y35.57195
G01 X-45.05105 Y35.45074
G01 X-45.08570 Y35.41607
G01 X-45.22664 Y35.30197
G01 X-45.38600 Y35.21543
G01 X-45.43127 Y35.19669
G01 X-45.58135 Y35.15114
G01 X-45.62941 Y35.14159
G01 X-45.78549 Y35.12623
G01 X-45.83449 Y35.12623
G01 X-45.99057 Y35.14159
G01 X-46.03863 Y35.15114
G01 X-46.21181 Y35.20494
G01 X-46.39334 Y35.30197
G01 X-46.53426 Y35.41607
G01 X-46.56893 Y35.45074
G01 X-46.66842 Y35.57195
G01 X-46.69565 Y35.61271
G01 X-46.76957 Y35.75102
G01 X-46.78834 Y35.79630
G01 X-46.83385 Y35.94637
G01 X-46.84340 Y35.99442
G01 X-46.85877 Y36.15051
G01 X-46.85877 Y36.19953
G01 X-46.83982 Y36.37987
G01 X-46.78834 Y36.55373
G01 X-46.76957 Y36.59902
G01 X-46.69565 Y36.73732
G01 X-46.66842 Y36.77807
G01 X-46.56893 Y36.89930
G01 X-46.54320 Y36.92503
G01 X-47.61673 Y36.92503
G01 X-47.59105 Y36.89930
G01 X-47.49156 Y36.77807
G01 X-47.46433 Y36.73732
G01 X-47.39039 Y36.59902
G01 X-47.37165 Y36.55373
G01 X-47.32016 Y36.37987
G01 X-47.30119 Y36.19953
G01 X-47.30119 Y36.15051
G01 X-47.32016 Y35.97017
G01 X-47.37165 Y35.79630
G01 X-47.39039 Y35.75102
G01 X-47.46433 Y35.61271
G01 X-47.49156 Y35.57195
G01 X-47.59105 Y35.45074
G01 X-47.62570 Y35.41607
G01 X-47.76664 Y35.30197
G01 X-47.92600 Y35.21543
G01 X-47.97127 Y35.19669
G01 X-48.12135 Y35.15114
G01 X-48.16941 Y35.14159
G01 X-48.32549 Y35.12623
G01 X-48.37449 Y35.12623
G01 X-48.53057 Y35.14159
G01 X-48.57863 Y35.15114
G01 X-48.75181 Y35.20494
G01 X-48.93334 Y35.30197
G01 X-49.07426 Y35.41607
G01 X-49.10893 Y35.45074
G01 X-49.20842 Y35.57195
G01 X-49.23565 Y35.61271
G01 X-49.30957 Y35.75102
G01 X-49.32834 Y35.79630
G01 X-49.37385 Y35.94637
G01 X-49.38340 Y35.99442
G01 X-49.39877 Y36.15051
G01 X-49.39877 Y36.19953
G01 X-49.37982 Y36.37987
G01 X-49.32834 Y36.55373
G01 X-49.30957 Y36.59902
G01 X-49.23565 Y36.73732
G01 X-49.20842 Y36.77807
G01 X-49.10893 Y36.89930
G01 X-49.08320 Y36.92503
G01 X-50.15673 Y36.92503
G01 X-50.13105 Y36.89930
G01 X-50.03156 Y36.77807
G01 X-50.00433 Y36.73732
G01 X-49.93039 Y36.59902
G01 X-49.91165 Y36.55373
G01 X-49.86016 Y36.37987
G01 X-49.84119 Y36.19953
G01 X-49.84119 Y36.15051
G01 X-49.85655 Y35.99442
G01 X-49.86613 Y35.94637
G01 X-49.91165 Y35.79630
G01 X-49.93039 Y35.75102
G01 X-50.00433 Y35.61271
G01 X-50.03156 Y35.57195
G01 X-50.13105 Y35.45074
G01 X-50.16570 Y35.41607
G01 X-50.30664 Y35.30197
G01 X-50.48818 Y35.20494
G01 X-50.66135 Y35.15114
G01 X-50.70941 Y35.14159
G01 X-50.86549 Y35.12623
G01 X-50.91449 Y35.12623
G01 X-51.07057 Y35.14159
G01 X-51.11863 Y35.15114
G01 X-51.26869 Y35.19669
G01 X-51.31398 Y35.21543
G01 X-51.47334 Y35.30197
G01 X-51.61426 Y35.41607
G01 X-51.64893 Y35.45074
G01 X-51.74842 Y35.57195
G01 X-51.77565 Y35.61271
G01 X-51.84957 Y35.75102
G01 X-51.86834 Y35.79630
G01 X-51.91982 Y35.97017
G01 X-51.93877 Y36.15051
G01 X-51.93877 Y36.19953
G01 X-51.92340 Y36.35559
G01 X-51.91385 Y36.40364
G01 X-51.86006 Y36.57682
G01 X-51.77565 Y36.73732
G01 X-51.74842 Y36.77807
G01 X-51.64893 Y36.89930
G01 X-51.62320 Y36.92503
G01 X-52.37997 Y36.92503
G01 X-52.47997 Y37.01878
G01 X-52.52998 Y37.05002
G01 X-52.57997 Y37.06877
G01 X-52.62998 Y37.07502
G01 X-54.22995 Y37.07502
G01 X-54.27996 Y37.06877
G01 X-54.32998 Y37.05002
G01 X-54.37996 Y37.01878
G01 X-54.47996 Y36.92503
G01 X-54.47999 Y35.37502
G01 X-54.47519 Y35.32625
G01 X-54.46097 Y35.27934
G01 X-54.43785 Y35.23613
G01 X-54.40676 Y35.19824
G01 X-54.36889 Y35.16715
G01 X-54.32566 Y35.14403
G01 X-54.27877 Y35.12981
G01 X-54.17997 Y35.12501
G01 X-54.17997 Y32.52501
G01 X-54.82998 Y32.52501
G01 X-54.95202 Y32.51419
G01 X-55.00008 Y32.50464
G01 X-55.09388 Y32.47619
G01 X-55.13915 Y32.45742
G01 X-55.22558 Y32.41122
G01 X-55.26635 Y32.38402
G01 X-55.36028 Y32.30535
G01 X-56.67996 Y30.98570
G01 X-56.67999 Y34.86438
G01 X-54.61931 Y36.92503
G01 X-54.47996 Y36.92503
G01 X-54.61931 Y36.92503
G01 X-56.67999 Y34.86438
G01 X-56.67996 Y30.98570
G01 X-56.73371 Y30.84638
G01 X-56.76561 Y30.73789
G01 X-56.78730 Y30.63416
G01 X-56.80168 Y30.51336
G01 X-56.80498 Y30.42504
G01 X-56.80498 Y27.96503
G01 X-56.79731 Y27.82898
G01 X-56.77689 Y27.70153
G01 X-56.74143 Y27.56764
G01 X-56.67993 Y27.40432
G01 X-56.67996 Y25.98568
G01 X-56.67993 Y27.40432
G01 X-55.97064 Y26.69500
G01 X-56.67996 Y25.98568
G01 X-56.74143 Y25.82241
G01 X-56.77689 Y25.68853
G01 X-56.79731 Y25.56107
G01 X-56.80467 Y25.43732
G01 X-56.80467 Y22.84228
G01 X-56.79731 Y22.71856
G01 X-56.77689 Y22.59110
G01 X-56.74143 Y22.45722
G01 X-56.67993 Y22.29389
G01 X-56.67996 Y20.93611
G01 X-56.67993 Y22.29389
G01 X-56.00107 Y21.61500
G01 X-56.67996 Y20.93611
G01 X-56.74143 Y20.77284
G01 X-56.77689 Y20.63896
G01 X-56.79731 Y20.51150
G01 X-56.80467 Y20.38775
G01 X-56.80467 Y17.68229
G01 X-56.79731 Y17.55857
G01 X-56.77689 Y17.43111
G01 X-56.74143 Y17.29723
G01 X-56.67993 Y17.13391
G01 X-56.67996 Y15.93612
G01 X-56.67993 Y17.13391
G01 X-56.08105 Y16.53503
G01 X-56.67996 Y15.93612
G01 X-56.75235 Y15.73698
G01 X-56.78275 Y15.60953
G01 X-56.79985 Y15.48580
G01 X-56.80498 Y15.37544
G01 X-56.80498 Y10.92501
G01 X-56.79731 Y10.78899
G01 X-56.77689 Y10.66153
G01 X-56.74143 Y10.52765
G01 X-56.70498 Y10.42579
G01 X-56.70498 Y9.37502
G01 X-56.69756 Y9.25884
G01 X-56.67996 Y9.15871
G01 X-56.67999 Y7.48567
G01 X-54.66930 Y5.47500
G01 X-53.62998 Y5.47500
G01 X-53.53244 Y5.46540
G01 X-53.46175 Y5.44521
G01 X-53.41647 Y5.42646
G01 X-53.33249 Y5.37612
G01 X-53.27644 Y5.32857
G01 X-53.22886 Y5.27251
G01 X-53.20163 Y5.23175
G01 X-53.16805 Y5.16634
G01 X-53.14555 Y5.09637
G01 X-53.13120 Y4.99952
G01 X-53.12998 Y4.66002
G01 X-51.98320 Y4.66002
G01 X-51.85305 Y4.76845
G01 X-51.81230 Y4.79568
G01 X-51.65180 Y4.88008
G01 X-51.47862 Y4.93388
G01 X-51.43057 Y4.94343
G01 X-51.27448 Y4.95880
G01 X-51.22549 Y4.95880
G01 X-51.06940 Y4.94343
G01 X-51.02135 Y4.93388
G01 X-50.87126 Y4.88834
G01 X-50.82600 Y4.86959
G01 X-50.66664 Y4.78306
G01 X-50.52569 Y4.66896
G01 X-50.49105 Y4.63429
G01 X-50.39156 Y4.51305
G01 X-50.36433 Y4.47231
G01 X-50.29041 Y4.33401
G01 X-50.27164 Y4.28872
G01 X-50.22612 Y4.13866
G01 X-50.21657 Y4.09058
G01 X-50.20118 Y3.93452
G01 X-50.20118 Y3.88550
G01 X-50.22016 Y3.70516
G01 X-50.27164 Y3.53129
G01 X-50.29041 Y3.48601
G01 X-50.36433 Y3.34770
G01 X-50.39156 Y3.30696
G01 X-50.49105 Y3.18573
G01 X-50.52569 Y3.15108
G01 X-50.66664 Y3.03696
G01 X-50.82600 Y2.95042
G01 X-50.87126 Y2.93168
G01 X-51.02135 Y2.88616
G01 X-51.06940 Y2.87658
G01 X-51.22549 Y2.86122
G01 X-51.27448 Y2.86122
G01 X-51.43057 Y2.87658
G01 X-51.47862 Y2.88616
G01 X-51.62871 Y2.93168
G01 X-51.67398 Y2.95042
G01 X-51.83334 Y3.03696
G01 X-51.98322 Y3.16002
G01 X-53.17933 Y3.16002
G01 X-53.22886 Y3.07752
G01 X-53.27644 Y3.02147
G01 X-53.33249 Y2.97389
G01 X-53.37324 Y2.94666
G01 X-53.46175 Y2.90480
G01 X-53.50864 Y2.89058
G01 X-53.60549 Y2.87623
G01 X-55.22998 Y2.87501
G01 X-55.32754 Y2.88461
G01 X-55.39823 Y2.90480
G01 X-55.44351 Y2.92357
G01 X-55.52749 Y2.97389
G01 X-55.58354 Y3.02147
G01 X-55.63112 Y3.07752
G01 X-55.65835 Y3.11826
G01 X-55.69193 Y3.18367
G01 X-55.71443 Y3.25367
G01 X-55.72398 Y3.30173
G01 X-55.72997 Y3.37501
G01 X-55.72997 Y4.41438
G01 X-57.97363 Y6.65910
G01 X-58.04765 Y6.75049
G01 X-58.10645 Y6.85234
G01 X-58.14861 Y6.96215
G01 X-58.17305 Y7.07718
G01 X-58.17998 Y7.17500
G01 X-58.17998 Y35.17502
G01 X-58.16693 Y35.31162
G01 X-58.13647 Y35.42521
G01 X-58.08864 Y35.53265
G01 X-58.04765 Y35.59956
G01 X-57.96032 Y35.70537
G01 X-55.46030 Y38.20537
G01 X-55.36635 Y38.28401
G01 X-55.32561 Y38.31123
G01 X-55.23915 Y38.35744
G01 X-55.19388 Y38.37621
G01 X-55.10008 Y38.40466
G01 X-55.05202 Y38.41421
G01 X-54.92998 Y38.42503
G01 X-42.22998 Y38.42503
G01 X-42.08365 Y38.41062
G01 X-41.96604 Y38.37621
G01 X-41.92078 Y38.35744
G01 X-41.81329 Y38.29864
G01 X-41.71781 Y38.22183
G01 X-40.71809 Y37.22381
G01 X-40.54941 Y37.20844
G01 X-40.50135 Y37.19887
G01 X-40.32818 Y37.14510
G01 X-40.14664 Y37.04807
G01 X-40.00570 Y36.93395
G01 X-39.97105 Y36.89930
G01 X-39.87156 Y36.77807
G01 X-39.84433 Y36.73732
G01 X-39.77039 Y36.59902
G01 X-39.75165 Y36.55373
G01 X-39.70016 Y36.37987
G01 X-39.68119 Y36.19953
G01 X-39.68119 Y36.15051
G01 X-39.70016 Y35.97017
G01 X-39.75165 Y35.79630
G01 X-39.77039 Y35.75102
G01 X-39.84433 Y35.61271
G01 X-39.87156 Y35.57195
G01 X-39.97105 Y35.45074
G01 X-40.00570 Y35.41607
G01 X-40.14664 Y35.30197
G01 X-40.32818 Y35.20494
G01 X-40.50135 Y35.15114
G01 X-40.54941 Y35.14159
G01 X-40.70549 Y35.12623
G01 X-40.75449 Y35.12623
G01 X-40.91057 Y35.14159
G01 X-40.95863 Y35.15114
G01 X-41.10869 Y35.19669
G01 X-41.15398 Y35.21543
G01 X-41.31334 Y35.30197
G01 X-41.45426 Y35.41607
G01 X-41.48893 Y35.45074
G01 X-41.58842 Y35.57195
G01 X-41.61565 Y35.61271
G01 X-41.68957 Y35.75102
G01 X-41.70834 Y35.79630
G01 X-41.75982 Y35.97017
G01 X-41.77877 Y36.16318
G01 X-42.53988 Y36.92676
G01 X-42.74166 Y36.99711
G01 X-42.92510 Y37.04169
G01 X-43.10333 Y37.06709
G01 X-43.26015 Y37.07479
G01 X-43.43663 Y37.06709
G01 X-43.61484 Y37.04169
G01 X-43.79827 Y36.99711
G01 X-44.00318 Y36.92503
G01 X-44.02893 Y36.89930
G01 X-44.12842 Y36.77807
G01 X-44.15565 Y36.73732
G01 X-44.24006 Y36.57682
G01 X-44.29385 Y36.40364
G01 X-44.30340 Y36.35559
G01 X-44.31999 Y36.17502
G01 X-44.29982 Y35.97017
G01 X-44.24834 Y35.79630
G01 X-44.22957 Y35.75102
G01 X-44.15565 Y35.61271
G01 X-44.12842 Y35.57195
G01 X-44.02893 Y35.45074
G01 X-43.99426 Y35.41607
G01 X-43.85334 Y35.30197
G01 X-43.67181 Y35.20494
G01 X-43.49863 Y35.15114
G01 X-43.45057 Y35.14159
G01 X-43.29449 Y35.12623
G01 X-43.24549 Y35.12623
G01 X-43.08941 Y35.14159
G01 X-43.04135 Y35.15114
G01 X-42.86818 Y35.20494
G01 X-42.68664 Y35.30197
G01 X-42.54570 Y35.41607
G01 X-42.51105 Y35.45074
G01 X-42.41156 Y35.57195
G01 X-42.38433 Y35.61271
G01 X-42.31039 Y35.75102
G01 X-42.29165 Y35.79630
G01 X-42.24016 Y35.97017
G01 X-42.22119 Y36.15051
G01 X-42.22119 Y36.19953
G01 X-42.24016 Y36.37987
G01 X-42.29165 Y36.55373
G01 X-42.31039 Y36.59902
G01 X-42.38433 Y36.73732
G01 X-42.41156 Y36.77807
G01 X-42.49370 Y36.87817
G04 P0 ( dwell for no time -- G64 should not smooth over this point )
G00 Z5.00000 ( retract )

G00 X-39.12998 Y28.37501 ( rapid move to begin. )
G01 F300.00000
( Mill infeed pass 1/1 )
G01 Z-0.02000
G04 P0 ( dwell for no time -- G64 should not smooth over this point )
G01 F600.00000
G01 X-39.12998 Y28.37501
G01 X-39.12998 Y29.97501
G01 X-39.13600 Y30.04828
G01 X-39.14555 Y30.09637
G01 X-39.17855 Y30.18854
G01 X-39.22886 Y30.27252
G01 X-39.27644 Y30.32857
G01 X-39.33250 Y30.37612
G01 X-39.41647 Y30.42647
G01 X-39.46176 Y30.44521
G01 X-39.53245 Y30.46540
G01 X-39.62998 Y30.47500
G01 X-41.22998 Y30.47500
G01 X-41.32754 Y30.46540
G01 X-41.39823 Y30.44521
G01 X-41.48672 Y30.40335
G01 X-41.52749 Y30.37612
G01 X-41.60001 Y30.31039
G01 X-41.65832 Y30.23175
G01 X-41.69193 Y30.16634
G01 X-41.71441 Y30.09637
G01 X-41.72398 Y30.04828
G01 X-41.72949 Y29.98501
G01 X-42.69678 Y29.98501
G01 X-42.82693 Y30.09345
G01 X-42.86769 Y30.12067
G01 X-43.02817 Y30.20508
G01 X-43.20135 Y30.25888
G01 X-43.24941 Y30.26843
G01 X-43.40549 Y30.28382
G01 X-43.45448 Y30.28382
G01 X-43.61057 Y30.26843
G01 X-43.65862 Y30.25888
G01 X-43.83180 Y30.20508
G01 X-43.99230 Y30.12067
G01 X-44.03305 Y30.09345
G01 X-44.15428 Y29.99395
G01 X-44.18893 Y29.95931
G01 X-44.28842 Y29.83807
G01 X-44.31565 Y29.79731
G01 X-44.38956 Y29.65900
G01 X-44.40833 Y29.61374
G01 X-44.45982 Y29.43985
G01 X-44.47879 Y29.25951
G01 X-44.47879 Y29.21052
G01 X-44.45982 Y29.03018
G01 X-44.40833 Y28.85629
G01 X-44.38956 Y28.81103
G01 X-44.31565 Y28.67270
G01 X-44.28842 Y28.63196
G01 X-44.18893 Y28.51072
G01 X-44.15428 Y28.47608
G01 X-44.01334 Y28.36198
G01 X-43.83180 Y28.26495
G01 X-43.65862 Y28.21115
G01 X-43.61057 Y28.20158
G01 X-43.45448 Y28.18621
G01 X-43.40549 Y28.18621
G01 X-43.24941 Y28.20158
G01 X-43.20135 Y28.21115
G01 X-43.02817 Y28.26495
G01 X-42.86769 Y28.34935
G01 X-42.82693 Y28.37658
G01 X-42.69675 Y28.48502
G01 X-41.72998 Y28.48502
G01 X-41.72998 Y28.37501
G01 X-41.72398 Y28.30173
G01 X-41.71441 Y28.25367
G01 X-41.69193 Y28.18367
G01 X-41.65832 Y28.11827
G01 X-41.60001 Y28.03963
G01 X-41.52749 Y27.97389
G01 X-41.44352 Y27.92357
G01 X-41.35134 Y27.89058
G01 X-41.30326 Y27.88103
G01 X-41.22998 Y27.87501
G01 X-39.62998 Y27.87501
G01 X-39.53245 Y27.88461
G01 X-39.46176 Y27.90480
G01 X-39.37324 Y27.94666
G01 X-39.33250 Y27.97389
G01 X-39.27644 Y28.02147
G01 X-39.22886 Y28.07752
G01 X-39.20164 Y28.11827
G01 X-39.16806 Y28.18367
G01 X-39.14555 Y28.25367
G01 X-39.13600 Y28.30173
G01 X-39.12998 Y28.37501
G04 P0 ( dwell for no time -- G64 should not smooth over this point )
G00 Z5.00000 ( retract )

G00 X-30.84120 Y36.15051 ( rapid move to begin. )
G01 F300.00000
( Mill infeed pass 1/1 )
G01 Z-0.02000
G04 P0 ( dwell for no time -- G64 should not smooth over this point )
G01 F600.00000
G01 X-30.84120 Y36.15051
G01 X-30.84120 Y36.19953
G01 X-30.86017 Y36.37987
G01 X-30.91166 Y36.55373
G01 X-30.93041 Y36.59902
G01 X-31.00432 Y36.73732
G01 X-31.03155 Y36.77807
G01 X-31.13104 Y36.89930
G01 X-31.16571 Y36.93395
G01 X-31.30663 Y37.04807
G01 X-31.48816 Y37.14510
G01 X-31.66134 Y37.19887
G01 X-31.70942 Y37.20844
G01 X-31.86548 Y37.22381
G01 X-31.91450 Y37.22381
G01 X-32.07056 Y37.20844
G01 X-32.11864 Y37.19887
G01 X-32.29179 Y37.14510
G01 X-32.47333 Y37.04807
G01 X-32.61427 Y36.93395
G01 X-32.64892 Y36.89930
G01 X-32.74841 Y36.77807
G01 X-32.77564 Y36.73732
G01 X-32.86007 Y36.57682
G01 X-32.91384 Y36.40364
G01 X-32.92342 Y36.35559
G01 X-32.93998 Y36.17502
G01 X-32.91981 Y35.97017
G01 X-32.86832 Y35.79630
G01 X-32.84958 Y35.75102
G01 X-32.77564 Y35.61271
G01 X-32.74841 Y35.57195
G01 X-32.64892 Y35.45074
G01 X-32.61427 Y35.41607
G01 X-32.47333 Y35.30197
G01 X-32.29179 Y35.20494
G01 X-32.11864 Y35.15114
G01 X-32.07056 Y35.14159
G01 X-31.91450 Y35.12623
G01 X-31.86548 Y35.12623
G01 X-31.70942 Y35.14159
G01 X-31.66134 Y35.15114
G01 X-31.48816 Y35.20494
G01 X-31.30663 Y35.30197
G01 X-31.16571 Y35.41607
G01 X-31.13104 Y35.45074
G01 X-31.03155 Y35.57195
G01 X-31.00432 Y35.61271
G01 X-30.93041 Y35.75102
G01 X-30.91166 Y35.79630
G01 X-30.86017 Y35.97017
G01 X-30.84120 Y36.15051
G04 P0 ( dwell for no time -- G64 should not smooth over this point )
G00 Z5.00000 ( retract )

G00 X-28.30120 Y36.15051 ( rapid move to begin. )
G01 F300.00000
( Mill infeed pass 1/1 )
G01 Z-0.02000
G04 P0 ( dwell for no time -- G64 should not smooth over this point )
G01 F600.00000
G01 X-28.30120 Y36.15051
G01 X-28.30120 Y36.19953
G01 X-28.32017 Y36.37987
G01 X-28.37166 Y36.55373
G01 X-28.39041 Y36.59902
G01 X-28.46432 Y36.73732
G01 X-28.49155 Y36.77807
G01 X-28.59104 Y36.89930
G01 X-28.62571 Y36.93395
G01 X-28.76663 Y37.04807
G01 X-28.94816 Y37.14510
G01 X-29.12134 Y37.19887
G01 X-29.16942 Y37.20844
G01 X-29.32548 Y37.22381
G01 X-29.37450 Y37.22381
G01 X-29.53056 Y37.20844
G01 X-29.57864 Y37.19887
G01 X-29.75179 Y37.14510
G01 X-29.93333 Y37.04807
G01 X-30.07427 Y36.93395
G01 X-30.10892 Y36.89930
G01 X-30.20841 Y36.77807
G01 X-30.23564 Y36.73732
G01 X-30.32007 Y36.57682
G01 X-30.37384 Y36.40364
G01 X-30.38342 Y36.35559
G01 X-30.39998 Y36.17502
G01 X-30.37981 Y35.97017
G01 X-30.32832 Y35.79630
G01 X-30.30958 Y35.75102
G01 X-30.23564 Y35.61271
G01 X-30.20841 Y35.57195
G01 X-30.10892 Y35.45074
G01 X-30.07427 Y35.41607
G01 X-29.93333 Y35.30197
G01 X-29.75179 Y35.20494
G01 X-29.57864 Y35.15114
G01 X-29.53056 Y35.14159
G01 X-29.37450 Y35.12623
G01 X-29.32548 Y35.12623
G01 X-29.16942 Y35.14159
G01 X-29.12134 Y35.15114
G01 X-28.94816 Y35.20494
G01 X-28.76663 Y35.30197
G01 X-28.62571 Y35.41607
G01 X-28.59104 Y35.45074
G01 X-28.49155 Y35.57195
G01 X-28.46432 Y35.61271
G01 X-28.39041 Y35.75102
G01 X-28.37166 Y35.79630
G01 X-28.32017 Y35.97017
G01 X-28.30120 Y36.15051
G04 P0 ( dwell for no time -- G64 should not smooth over this point )
G00 Z5.00000 ( retract )

G00 X-25.76120 Y36.15051 ( rapid move to begin. )
G01 F300.00000
( Mill infeed pass 1/1 )
G01 Z-0.02000
G04 P0 ( dwell for no time -- G64 should not smooth over this point )
G01 F600.00000
G01 X-25.76120 Y36.15051
G01 X-25.76120 Y36.19953
G01 X-25.78017 Y36.37987
G01 X-25.83166 Y36.55373
G01 X-25.85041 Y36.59902
G01 X-25.92432 Y36.73732
G01 X-25.95155 Y36.77807
G01 X-26.05104 Y36.89930
G01 X-26.08571 Y36.93395
G01 X-26.22663 Y37.04807
G01 X-26.40816 Y37.14510
G01 X-26.58134 Y37.19887
G01 X-26.62942 Y37.20844
G01 X-26.78548 Y37.22381
G01 X-26.83450 Y37.22381
G01 X-26.99056 Y37.20844
G01 X-27.03864 Y37.19887
G01 X-27.21179 Y37.14510
G01 X-27.39333 Y37.04807
G01 X-27.53427 Y36.93395
G01 X-27.56892 Y36.89930
G01 X-27.66841 Y36.77807
G01 X-27.69564 Y36.73732
G01 X-27.76958 Y36.59902
G01 X-27.78832 Y36.55373
G01 X-27.83981 Y36.37987
G01 X-27.85878 Y36.19953
G01 X-27.85878 Y36.15051
G01 X-27.83981 Y35.97017
G01 X-27.78832 Y35.79630
G01 X-27.76958 Y35.75102
G01 X-27.69564 Y35.61271
G01 X-27.66841 Y35.57195
G01 X-27.56892 Y35.45074
G01 X-27.53427 Y35.41607
G01 X-27.39333 Y35.30197
G01 X-27.21179 Y35.20494
G01 X-27.03864 Y35.15114
G01 X-26.99056 Y35.14159
G01 X-26.83450 Y35.12623
G01 X-26.78548 Y35.12623
G01 X-26.62942 Y35.14159
G01 X-26.58134 Y35.15114
G01 X-26.40816 Y35.20494
G01 X-26.22663 Y35.30197
G01 X-26.08571 Y35.41607
G01 X-26.05104 Y35.45074
G01 X-25.95155 Y35.57195
G01 X-25.92432 Y35.61271
G01 X-25.85041 Y35.75102
G01 X-25.83166 Y35.79630
G01 X-25.78017 Y35.97017
G01 X-25.76120 Y36.15051
G04 P0 ( dwell for no time -- G64 should not smooth over this point )
G00 Z5.00000 ( retract )

G00 X-23.22120 Y36.15051 ( rapid move to begin. )
G01 F300.00000
( Mill infeed pass 1/1 )
G01 Z-0.02000
G04 P0 ( dwell for no time -- G64 should not smooth over this point )
G01 F600.00000
G01 X-23.22120 Y36.15051
G01 X-23.22120 Y36.19953
G01 X-23.24017 Y36.37987
G01 X-23.29166 Y36.55373
G01 X-23.31041 Y36.59902
G01 X-23.38432 Y36.73732
G01 X-23.41155 Y36.77807
G01 X-23.51104 Y36.89930
G01 X-23.54571 Y36.93395
G01 X-23.68663 Y37.04807
G01 X-23.86816 Y37.14510
G01 X-24.04134 Y37.19887
G01 X-24.08942 Y37.20844
G01 X-24.24548 Y37.22381
G01 X-24.29450 Y37.22381
G01 X-24.45056 Y37.20844
G01 X-24.49864 Y37.19887
G01 X-24.67179 Y37.14510
G01 X-24.85333 Y37.04807
G01 X-24.99427 Y36.93395
G01 X-25.02892 Y36.89930
G01 X-25.12841 Y36.77807
G01 X-25.15564 Y36.73732
G01 X-25.22958 Y36.59902
G01 X-25.24832 Y36.55373
G01 X-25.29981 Y36.37987
G01 X-25.31878 Y36.19953
G01 X-25.31878 Y36.15051
G01 X-25.29981 Y35.97017
G01 X-25.24832 Y35.79630
G01 X-25.22958 Y35.75102
G01 X-25.15564 Y35.61271
G01 X-25.12841 Y35.57195
G01 X-25.02892 Y35.45074
G01 X-24.99427 Y35.41607
G01 X-24.85333 Y35.30197
G01 X-24.67179 Y35.20494
G01 X-24.49864 Y35.15114
G01 X-24.45056 Y35.14159
G01 X-24.29450 Y35.12623
G01 X-24.24548 Y35.12623
G01 X-24.08942 Y35.14159
G01 X-24.04134 Y35.15114
G01 X-23.86816 Y35.20494
G01 X-23.68663 Y35.30197
G01 X-23.54571 Y35.41607
G01 X-23.51104 Y35.45074
G01 X-23.41155 Y35.57195
G01 X-23.38432 Y35.61271
G01 X-23.31041 Y35.75102
G01 X-23.29166 Y35.79630
G01 X-23.24017 Y35.97017
G01 X-23.22120 Y36.15051
G04 P0 ( dwell for no time -- G64 should not smooth over this point )
G00 Z5.00000 ( retract )

G00 X-13.38119 Y36.15051 ( rapid move to begin. )
G01 F300.00000
( Mill infeed pass 1/1 )
G01 Z-0.02000
G04 P0 ( dwell for no time -- G64 should not smooth over this point )
G01 F600.00000
G01 X-13.38119 Y36.15051
G01 X-13.38119 Y36.19953
G01 X-13.40016 Y36.37987
G01 X-13.45165 Y36.55373
G01 X-13.47039 Y36.59902
G01 X-13.54433 Y36.73732
G01 X-13.57156 Y36.77807
G01 X-13.67105 Y36.89930
G01 X-13.70570 Y36.93395
G01 X-13.84664 Y37.04807
G01 X-14.02818 Y37.14510
G01 X-14.20136 Y37.19887
G01 X-14.24941 Y37.20844
G01 X-14.40550 Y37.22381
G01 X-14.45449 Y37.22381
G01 X-14.61058 Y37.20844
G01 X-14.65863 Y37.19887
G01 X-14.83181 Y37.14510
G01 X-15.01334 Y37.04807
G01 X-15.15426 Y36.93395
G01 X-15.18893 Y36.89930
G01 X-15.28842 Y36.77807
G01 X-15.31565 Y36.73732
G01 X-15.38957 Y36.59902
G01 X-15.40834 Y36.55373
G01 X-15.45982 Y36.37987
G01 X-15.47877 Y36.19953
G01 X-15.47877 Y36.15051
G01 X-15.45982 Y35.97017
G01 X-15.40834 Y35.79630
G01 X-15.38957 Y35.75102
G01 X-15.31565 Y35.61271
G01 X-15.28842 Y35.57195
G01 X-15.18893 Y35.45074
G01 X-15.15426 Y35.41607
G01 X-15.01334 Y35.30197
G01 X-14.83181 Y35.20494
G01 X-14.65863 Y35.15114
G01 X-14.61058 Y35.14159
G01 X-14.45449 Y35.12623
G01 X-14.40550 Y35.12623
G01 X-14.24941 Y35.14159
G01 X-14.20136 Y35.15114
G01 X-14.02818 Y35.20494
G01 X-13.84664 Y35.30197
G01 X-13.70570 Y35.41607
G01 X-13.67105 Y35.45074
G01 X-13.57156 Y35.57195
G01 X-13.54433 Y35.61271
G01 X-13.47039 Y35.75102
G01 X-13.45165 Y35.79630
G01 X-13.40016 Y35.97017
G01 X-13.38119 Y36.15051
G04 P0 ( dwell for no time -- G64 should not smooth over this point )
G00 Z5.00000 ( retract )

G00 X-10.84119 Y36.15051 ( rapid move to begin. )
G01 F300.00000
( Mill infeed pass 1/1 )
G01 Z-0.02000
G04 P0 ( dwell for no time -- G64 should not smooth over this point )
G01 F600.00000
G01 X-10.84119 Y36.15051
G01 X-10.84119 Y36.19953
G01 X-10.86016 Y36.37987
G01 X-10.91165 Y36.55373
G01 X-10.93039 Y36.59902
G01 X-11.00433 Y36.73732
G01 X-11.03156 Y36.77807
G01 X-11.13105 Y36.89930
G01 X-11.16570 Y36.93395
G01 X-11.30664 Y37.04807
G01 X-11.48818 Y37.14510
G01 X-11.66136 Y37.19887
G01 X-11.70941 Y37.20844
G01 X-11.86550 Y37.22381
G01 X-11.91449 Y37.22381
G01 X-12.07058 Y37.20844
G01 X-12.11863 Y37.19887
G01 X-12.29181 Y37.14510
G01 X-12.47334 Y37.04807
G01 X-12.61426 Y36.93395
G01 X-12.64893 Y36.89930
G01 X-12.74843 Y36.77807
G01 X-12.77565 Y36.73732
G01 X-12.84957 Y36.59902
G01 X-12.86834 Y36.55373
G01 X-12.91982 Y36.37987
G01 X-12.93877 Y36.19953
G01 X-12.93877 Y36.15051
G01 X-12.91982 Y35.97017
G01 X-12.86834 Y35.79630
G01 X-12.84957 Y35.75102
G01 X-12.77565 Y35.61271
G01 X-12.74843 Y35.57195
G01 X-12.64893 Y35.45074
G01 X-12.61426 Y35.41607
G01 X-12.47334 Y35.30197
G01 X-12.29181 Y35.20494
G01 X-12.11863 Y35.15114
G01 X-12.07058 Y35.14159
G01 X-11.91449 Y35.12623
G01 X-11.86550 Y35.12623
G01 X-11.70941 Y35.14159
G01 X-11.66136 Y35.15114
G01 X-11.48818 Y35.20494
G01 X-11.30664 Y35.30197
G01 X-11.16570 Y35.41607
G01 X-11.13105 Y35.45074
G01 X-11.03156 Y35.57195
G01 X-11.00433 Y35.61271
G01 X-10.93039 Y35.75102
G01 X-10.91165 Y35.79630
G01 X-10.86016 Y35.97017
G01 X-10.84119 Y36.15051
G04 P0 ( dwell for no time -- G64 should not smooth over this point )
G00 Z5.00000 ( retract )

G00 X-8.30119 Y36.15051 ( rapid move to begin. )
G01 F300.00000
( Mill infeed pass 1/1 )
G01 Z-0.02000
G04 P0 ( dwell for no time -- G64 should not smooth over this point )
G01 F600.00000
G01 X-8.30119 Y36.15051
G01 X-8.30119 Y36.19953
G01 X-8.32016 Y36.37987
G01 X-8.37165 Y36.55373
G01 X-8.39039 Y36.59902
G01 X-8.46431 Y36.73732
G01 X-8.49156 Y36.77807
G01 X-8.59105 Y36.89930
G01 X-8.62570 Y36.93395
G01 X-8.76662 Y37.04807
G01 X-8.94818 Y37.14510
G01 X-9.12136 Y37.19887
G01 X-9.16941 Y37.20844
G01 X-9.32550 Y37.22381
G01 X-9.37449 Y37.22381
G01 X-9.53058 Y37.20844
G01 X-9.57861 Y37.19887
G01 X-9.75178 Y37.14510
G01 X-9.93334 Y37.04807
G01 X-10.07424 Y36.93395
G01 X-10.10893 Y36.89930
G01 X-10.20842 Y36.77807
G01 X-10.23563 Y36.73732
G01 X-10.32006 Y36.57682
G01 X-10.37386 Y36.40364
G01 X-10.38341 Y36.35559
G01 X-10.39999 Y36.17502
G01 X-10.37982 Y35.97017
G01 X-10.32834 Y35.79630
G01 X-10.30954 Y35.75102
G01 X-10.23563 Y35.61271
G01 X-10.20842 Y35.57195
G01 X-10.10893 Y35.45074
G01 X-10.07424 Y35.41607
G01 X-9.93334 Y35.30197
G01 X-9.75178 Y35.20494
G01 X-9.57861 Y35.15114
G01 X-9.53058 Y35.14159
G01 X-9.37449 Y35.12623
G01 X-9.32550 Y35.12623
G01 X-9.16941 Y35.14159
G01 X-9.12136 Y35.15114
G01 X-8.94818 Y35.20494
G01 X-8.76662 Y35.30197
G01 X-8.62570 Y35.41607
G01 X-8.59105 Y35.45074
G01 X-8.49156 Y35.57195
G01 X-8.46431 Y35.61271
G01 X-8.39039 Y35.75102
G01 X-8.37165 Y35.79630
G01 X-8.32016 Y35.97017
G01 X-8.30119 Y36.15051
G04 P0 ( dwell for no time -- G64 should not smooth over this point )
G00 Z5.00000 ( retract )

G00 X-5.76119 Y36.15051 ( rapid move to begin. )
G01 F300.00000
( Mill infeed pass 1/1 )
G01 Z-0.02000
G04 P0 ( dwell for no time -- G64 should not smooth over this point )
G01 F600.00000
G01 X-5.76119 Y36.15051
G01 X-5.76119 Y36.19953
G01 X-5.77656 Y36.35559
G01 X-5.78613 Y36.40364
G01 X-5.83990 Y36.57682
G01 X-5.92433 Y36.73732
G01 X-5.95156 Y36.77807
G01 X-6.05105 Y36.89930
G01 X-6.08570 Y36.93395
G01 X-6.20693 Y37.03344
G01 X-6.24768 Y37.06067
G01 X-6.40818 Y37.14510
G01 X-6.58136 Y37.19887
G01 X-6.62941 Y37.20844
G01 X-6.78550 Y37.22381
G01 X-6.83449 Y37.22381
G01 X-6.99058 Y37.20844
G01 X-7.03863 Y37.19887
G01 X-7.21181 Y37.14510
G01 X-7.39334 Y37.04807
G01 X-7.55242 Y36.91749
G01 X-7.66843 Y36.77807
G01 X-7.69565 Y36.73732
G01 X-7.76957 Y36.59902
G01 X-7.78834 Y36.55373
G01 X-7.83386 Y36.40364
G01 X-7.84341 Y36.35559
G01 X-7.85999 Y36.17502
G01 X-7.84341 Y35.99442
G01 X-7.83386 Y35.94637
G01 X-7.78834 Y35.79630
G01 X-7.76957 Y35.75102
G01 X-7.69565 Y35.61271
G01 X-7.66843 Y35.57195
G01 X-7.55242 Y35.43255
G01 X-7.39334 Y35.30197
G01 X-7.21181 Y35.20494
G01 X-7.03863 Y35.15114
G01 X-6.99058 Y35.14159
G01 X-6.83449 Y35.12623
G01 X-6.78550 Y35.12623
G01 X-6.62941 Y35.14159
G01 X-6.58136 Y35.15114
G01 X-6.40818 Y35.20494
G01 X-6.24768 Y35.28935
G01 X-6.20693 Y35.31657
G01 X-6.08570 Y35.41607
G01 X-6.05105 Y35.45074
G01 X-5.95156 Y35.57195
G01 X-5.92433 Y35.61271
G01 X-5.83990 Y35.77319
G01 X-5.78613 Y35.94637
G01 X-5.77656 Y35.99442
G01 X-5.76119 Y36.15051
G04 P0 ( dwell for no time -- G64 should not smooth over this point )
G00 Z5.00000 ( retract )

G00 X-13.20118 Y29.21052 ( rapid move to begin. )
G01 F300.00000
( Mill infeed pass 1/1 )
G01 Z-0.02000
G04 P0 ( dwell for no time -- G64 should not smooth over this point )
G01 F600.00000
G01 X-13.20118 Y29.21052
G01 X-13.20118 Y29.25951
G01 X-13.22015 Y29.43985
G01 X-13.27164 Y29.61374
G01 X-13.29041 Y29.65900
G01 X-13.36432 Y29.79731
G01 X-13.39155 Y29.83807
G01 X-13.49104 Y29.95931
G01 X-13.52572 Y29.99395
G01 X-13.64692 Y30.09345
G01 X-13.68769 Y30.12067
G01 X-13.84817 Y30.20508
G01 X-14.02135 Y30.25888
G01 X-14.06940 Y30.26843
G01 X-14.22549 Y30.28382
G01 X-14.27448 Y30.28382
G01 X-14.43057 Y30.26843
G01 X-14.47862 Y30.25888
G01 X-14.62871 Y30.21336
G01 X-14.67397 Y30.19459
G01 X-14.83333 Y30.10805
G01 X-14.98319 Y29.98501
G01 X-16.06998 Y29.98501
G01 X-16.07120 Y30.05951
G01 X-16.08555 Y30.15636
G01 X-16.10806 Y30.22636
G01 X-16.14164 Y30.29174
G01 X-16.16887 Y30.33251
G01 X-16.23460 Y30.40505
G01 X-16.31324 Y30.46337
G01 X-16.35647 Y30.48646
G01 X-16.44865 Y30.51945
G01 X-16.49670 Y30.52900
G01 X-16.56998 Y30.53502
G01 X-18.16998 Y30.53502
G01 X-18.26754 Y30.52540
G01 X-18.33823 Y30.50521
G01 X-18.42672 Y30.46337
G01 X-18.50536 Y30.40505
G01 X-18.57110 Y30.33251
G01 X-18.62144 Y30.24854
G01 X-18.65441 Y30.15636
G01 X-18.66398 Y30.10828
G01 X-18.66998 Y30.03500
G01 X-18.66998 Y28.43500
G01 X-18.66398 Y28.36172
G01 X-18.64018 Y28.26678
G01 X-18.62144 Y28.22149
G01 X-18.57110 Y28.13752
G01 X-18.52355 Y28.08146
G01 X-18.46749 Y28.03389
G01 X-18.42672 Y28.00666
G01 X-18.33823 Y27.96480
G01 X-18.26754 Y27.94463
G01 X-18.16998 Y27.93500
G01 X-16.56998 Y27.93500
G01 X-16.47245 Y27.94463
G01 X-16.40176 Y27.96480
G01 X-16.31324 Y28.00666
G01 X-16.23460 Y28.06498
G01 X-16.16887 Y28.13752
G01 X-16.14164 Y28.17826
G01 X-16.10806 Y28.24367
G01 X-16.08555 Y28.31367
G01 X-16.07120 Y28.41052
G01 X-16.06998 Y28.48502
G01 X-14.98413 Y28.48502
G01 X-14.85304 Y28.37658
G01 X-14.81230 Y28.34935
G01 X-14.65180 Y28.26495
G01 X-14.47862 Y28.21115
G01 X-14.43057 Y28.20158
G01 X-14.27448 Y28.18621
G01 X-14.22549 Y28.18621
G01 X-14.06940 Y28.20158
G01 X-14.02135 Y28.21115
G01 X-13.84817 Y28.26495
G01 X-13.68769 Y28.34935
G01 X-13.64692 Y28.37658
G01 X-13.52572 Y28.47608
G01 X-13.49104 Y28.51072
G01 X-13.39155 Y28.63196
G01 X-13.36432 Y28.67270
G01 X-13.29041 Y28.81103
G01 X-13.27164 Y28.85629
G01 X-13.22015 Y29.03018
G01 X-13.20118 Y29.21052
G04 P0 ( dwell for no time -- G64 should not smooth over this point )
G00 Z5.00000 ( retract )

G00 X-29.99995 Y22.38569 ( rapid move to begin. )
G01 F300.00000
( Mill infeed pass 1/1 )
G01 Z-0.02000
G04 P0 ( dwell for no time -- G64 should not smooth over this point )
G01 F600.00000
G01 X-29.99995 Y22.38569
G01 X-25.67944 Y26.70620
G01 X-25.66341 Y26.87560
G01 X-25.65386 Y26.92365
G01 X-25.60006 Y27.09683
G01 X-25.51563 Y27.25731
G01 X-25.48840 Y27.29807
G01 X-25.38891 Y27.41931
G01 X-25.35427 Y27.45395
G01 X-25.21335 Y27.56805
G01 X-25.03181 Y27.66508
G01 X-24.85864 Y27.71888
G01 X-24.81055 Y27.72843
G01 X-24.65450 Y27.74382
G01 X-24.60548 Y27.74382
G01 X-24.44942 Y27.72843
G01 X-24.40134 Y27.71888
G01 X-24.22816 Y27.66508
G01 X-24.04665 Y27.56805
G01 X-23.90571 Y27.45395
G01 X-23.87106 Y27.41931
G01 X-23.77157 Y27.29807
G01 X-23.74434 Y27.25731
G01 X-23.67040 Y27.11900
G01 X-23.65165 Y27.07374
G01 X-23.60611 Y26.92365
G01 X-23.59656 Y26.87560
G01 X-23.58119 Y26.71951
G01 X-23.58119 Y26.67052
G01 X-23.60017 Y26.49018
G01 X-23.65165 Y26.31629
G01 X-23.67040 Y26.27103
G01 X-23.74434 Y26.13270
G01 X-23.77157 Y26.09196
G01 X-23.87106 Y25.97072
G01 X-23.90571 Y25.93608
G01 X-24.04665 Y25.82198
G01 X-24.22816 Y25.72495
G01 X-24.40134 Y25.67115
G01 X-24.44942 Y25.66158
G01 X-24.61812 Y25.64621
G01 X-25.38785 Y24.87844
G01 X-25.48840 Y24.75807
G01 X-25.51563 Y24.71731
G01 X-25.60006 Y24.55683
G01 X-25.65386 Y24.38365
G01 X-25.66341 Y24.33560
G01 X-25.68000 Y24.15500
G01 X-25.66341 Y23.97443
G01 X-25.65386 Y23.92638
G01 X-25.60832 Y23.77629
G01 X-25.58957 Y23.73103
G01 X-25.51563 Y23.59270
G01 X-25.48840 Y23.55196
G01 X-25.38891 Y23.43072
G01 X-25.35427 Y23.39608
G01 X-25.21335 Y23.28198
G01 X-25.03181 Y23.18495
G01 X-24.85864 Y23.13115
G01 X-24.81055 Y23.12158
G01 X-24.65450 Y23.10621
G01 X-24.60548 Y23.10621
G01 X-24.44942 Y23.12158
G01 X-24.40134 Y23.13115
G01 X-24.22816 Y23.18495
G01 X-24.04665 Y23.28198
G01 X-23.90571 Y23.39608
G01 X-23.87675 Y23.42503
G01 X-22.72999 Y23.42503
G01 X-22.72397 Y23.30174
G01 X-22.70020 Y23.20677
G01 X-22.65834 Y23.11828
G01 X-22.60002 Y23.03964
G01 X-22.52748 Y22.97390
G01 X-22.44350 Y22.92356
G01 X-22.39824 Y22.90481
G01 X-22.32753 Y22.88462
G01 X-22.25450 Y22.87621
G01 X-20.60548 Y22.87621
G01 X-20.53243 Y22.88462
G01 X-20.46174 Y22.90481
G01 X-20.41646 Y22.92356
G01 X-20.33251 Y22.97390
G01 X-20.25997 Y23.03964
G01 X-20.22888 Y23.07753
G01 X-20.17996 Y23.15881
G01 X-20.16238 Y23.25884
G01 X-20.15499 Y23.37502
G01 X-20.15499 Y24.97502
G01 X-20.16238 Y25.09127
G01 X-20.17996 Y25.19119
G01 X-20.17998 Y28.15875
G01 X-20.16238 Y28.25878
G01 X-20.15499 Y28.37501
G01 X-20.15499 Y29.97501
G01 X-20.16238 Y30.09121
G01 X-20.17996 Y30.19118
G01 X-20.22888 Y30.27252
G01 X-20.25997 Y30.31039
G01 X-20.33251 Y30.37612
G01 X-20.41646 Y30.42647
G01 X-20.46174 Y30.44521
G01 X-20.53243 Y30.46540
G01 X-20.60548 Y30.47381
G01 X-22.22999 Y30.47500
G01 X-22.32753 Y30.46540
G01 X-22.39824 Y30.44521
G01 X-22.48673 Y30.40335
G01 X-22.56537 Y30.34503
G01 X-22.63111 Y30.27252
G01 X-22.68143 Y30.18854
G01 X-22.71442 Y30.09637
G01 X-22.72877 Y29.99952
G01 X-22.72999 Y29.92502
G01 X-23.84327 Y29.92502
G01 X-23.90571 Y29.99395
G01 X-24.04665 Y30.10805
G01 X-24.20598 Y30.19459
G01 X-24.25127 Y30.21336
G01 X-24.40134 Y30.25888
G01 X-24.44942 Y30.26843
G01 X-24.60548 Y30.28382
G01 X-24.65450 Y30.28382
G01 X-24.81055 Y30.26843
G01 X-24.85864 Y30.25888
G01 X-25.03181 Y30.20508
G01 X-25.19229 Y30.12067
G01 X-25.23303 Y30.09345
G01 X-25.33258 Y30.01176
G01 X-25.40672 Y29.93762
G01 X-25.48840 Y29.83807
G01 X-25.51563 Y29.79731
G01 X-25.60006 Y29.63683
G01 X-25.65386 Y29.46365
G01 X-25.66341 Y29.41560
G01 X-25.68000 Y29.23500
G01 X-25.65980 Y29.03018
G01 X-25.60832 Y28.85629
G01 X-25.58957 Y28.81103
G01 X-25.51563 Y28.67270
G01 X-25.48840 Y28.63196
G01 X-25.38891 Y28.51072
G01 X-25.35427 Y28.47608
G01 X-25.21335 Y28.36198
G01 X-25.03181 Y28.26495
G01 X-24.85864 Y28.21115
G01 X-24.81055 Y28.20158
G01 X-24.65450 Y28.18621
G01 X-24.60548 Y28.18621
G01 X-24.44942 Y28.20158
G01 X-24.40134 Y28.21115
G01 X-24.25127 Y28.25667
G01 X-24.20598 Y28.27544
G01 X-24.04574 Y28.36259
G01 X-23.96895 Y28.42502
G01 X-22.72999 Y28.42502
G01 X-22.72877 Y28.35050
G01 X-22.71442 Y28.25367
G01 X-22.69192 Y28.18367
G01 X-22.65834 Y28.11827
G01 X-22.63111 Y28.07752
G01 X-22.56537 Y28.00498
G01 X-22.48673 Y27.94666
G01 X-22.39824 Y27.90480
G01 X-22.32753 Y27.88461
G01 X-22.22999 Y27.87501
G01 X-20.62999 Y27.87501
G01 X-20.53243 Y27.88461
G01 X-20.46174 Y27.90480
G01 X-20.37325 Y27.94666
G01 X-20.33251 Y27.97389
G01 X-20.25997 Y28.03963
G01 X-20.22888 Y28.07752
G01 X-20.17998 Y28.15875
G01 X-20.16238 Y28.25878
G01 X-20.15552 Y28.35294
G01 X-20.15499 Y29.97501
G01 X-20.16238 Y30.09121
G01 X-20.17996 Y30.19118
G01 X-20.17998 Y33.42504
G01 X-36.67997 Y33.42504
G01 X-36.67997 Y32.52501
G01 X-32.98321 Y32.52501
G01 X-32.83335 Y32.64805
G01 X-32.65181 Y32.74508
G01 X-32.47864 Y32.79888
G01 X-32.43055 Y32.80843
G01 X-32.27450 Y32.82382
G01 X-32.22548 Y32.82382
G01 X-32.06942 Y32.80843
G01 X-32.02134 Y32.79888
G01 X-31.87127 Y32.75336
G01 X-31.82598 Y32.73459
G01 X-31.66665 Y32.64805
G01 X-31.52571 Y32.53395
G01 X-31.49106 Y32.49931
G01 X-31.39157 Y32.37807
G01 X-31.36434 Y32.33731
G01 X-31.29040 Y32.19900
G01 X-31.27165 Y32.15374
G01 X-31.22017 Y31.97985
G01 X-31.20119 Y31.79951
G01 X-31.20119 Y31.75052
G01 X-31.22017 Y31.57018
G01 X-31.27165 Y31.39629
G01 X-31.29040 Y31.35103
G01 X-31.36434 Y31.21270
G01 X-31.39157 Y31.17196
G01 X-31.49106 Y31.05072
G01 X-31.52571 Y31.01608
G01 X-31.66665 Y30.90198
G01 X-31.84816 Y30.80495
G01 X-32.02134 Y30.75115
G01 X-32.06942 Y30.74158
G01 X-32.22548 Y30.72621
G01 X-32.27450 Y30.72621
G01 X-32.43055 Y30.74158
G01 X-32.47864 Y30.75115
G01 X-32.62870 Y30.79667
G01 X-32.67399 Y30.81544
G01 X-32.83335 Y30.90198
G01 X-32.98321 Y31.02502
G01 X-36.67997 Y31.02502
G01 X-36.67995 Y30.19134
G01 X-36.69755 Y30.09121
G01 X-36.70497 Y29.97501
G01 X-36.70497 Y28.37501
G01 X-36.69755 Y28.25878
G01 X-36.68076 Y28.16198
G01 X-36.65833 Y28.11827
G01 X-36.60002 Y28.03963
G01 X-36.56537 Y28.00498
G01 X-36.48673 Y27.94666
G01 X-36.39824 Y27.90480
G01 X-36.35132 Y27.89058
G01 X-36.30327 Y27.88103
G01 X-36.22999 Y27.87501
G01 X-34.62999 Y27.87501
G01 X-34.55671 Y27.88103
G01 X-34.50866 Y27.89058
G01 X-34.46174 Y27.90480
G01 X-34.37325 Y27.94666
G01 X-34.29461 Y28.00498
G01 X-34.22887 Y28.07752
G01 X-34.20165 Y28.11827
G01 X-34.16804 Y28.18367
G01 X-34.14556 Y28.25367
G01 X-34.13119 Y28.35050
G01 X-34.12999 Y28.42502
G01 X-32.91102 Y28.42502
G01 X-32.83424 Y28.36259
G01 X-32.65181 Y28.26495
G01 X-32.47864 Y28.21115
G01 X-32.43055 Y28.20158
G01 X-32.27450 Y28.18621
G01 X-32.22548 Y28.18621
G01 X-32.06942 Y28.20158
G01 X-32.02134 Y28.21115
G01 X-31.84816 Y28.26495
G01 X-31.66665 Y28.36198
G01 X-31.52571 Y28.47608
G01 X-31.49106 Y28.51072
G01 X-31.39157 Y28.63196
G01 X-31.36434 Y28.67270
G01 X-31.29040 Y28.81103
G01 X-31.27165 Y28.85629
G01 X-31.22611 Y29.00638
G01 X-31.21656 Y29.05443
G01 X-31.20119 Y29.21052
G01 X-31.20119 Y29.25951
G01 X-31.22017 Y29.43985
G01 X-31.27165 Y29.61374
G01 X-31.29040 Y29.65900
G01 X-31.36434 Y29.79731
G01 X-31.39157 Y29.83807
G01 X-31.49106 Y29.95931
G01 X-31.52571 Y29.99395
G01 X-31.64694 Y30.09345
G01 X-31.68768 Y30.12067
G01 X-31.82598 Y30.19459
G01 X-31.87127 Y30.21336
G01 X-32.02134 Y30.25888
G01 X-32.06942 Y30.26843
G01 X-32.22548 Y30.28382
G01 X-32.27450 Y30.28382
G01 X-32.43055 Y30.26843
G01 X-32.47864 Y30.25888
G01 X-32.65181 Y30.20508
G01 X-32.83335 Y30.10805
G01 X-32.97427 Y29.99395
G01 X-33.03673 Y29.92502
G01 X-34.12999 Y29.92502
G01 X-34.13599 Y30.04828
G01 X-34.14556 Y30.09637
G01 X-34.16804 Y30.16634
G01 X-34.20165 Y30.23175
G01 X-34.22887 Y30.27252
G01 X-34.27642 Y30.32857
G01 X-34.33251 Y30.37612
G01 X-34.41648 Y30.42647
G01 X-34.46174 Y30.44521
G01 X-34.53246 Y30.46540
G01 X-34.62999 Y30.47500
G01 X-36.22999 Y30.47500
G01 X-36.32752 Y30.46540
G01 X-36.39824 Y30.44521
G01 X-36.48673 Y30.40335
G01 X-36.56537 Y30.34503
G01 X-36.63111 Y30.27252
G01 X-36.67995 Y30.19134
G01 X-36.69755 Y30.09121
G01 X-36.70441 Y29.99710
G01 X-36.70497 Y28.37501
G01 X-36.69755 Y28.25878
G01 X-36.67992 Y28.15865
G01 X-36.67997 Y27.44501
G01 X-32.98321 Y27.44501
G01 X-32.83335 Y27.56805
G01 X-32.67399 Y27.65459
G01 X-32.62870 Y27.67336
G01 X-32.47864 Y27.71888
G01 X-32.43055 Y27.72843
G01 X-32.27450 Y27.74382
G01 X-32.22548 Y27.74382
G01 X-32.06942 Y27.72843
G01 X-32.02134 Y27.71888
G01 X-31.84816 Y27.66508
G01 X-31.68768 Y27.58067
G01 X-31.64694 Y27.55345
G01 X-31.52571 Y27.45395
G01 X-31.49106 Y27.41931
G01 X-31.39157 Y27.29807
G01 X-31.36434 Y27.25731
G01 X-31.29040 Y27.11900
G01 X-31.27165 Y27.07374
G01 X-31.22017 Y26.89985
G01 X-31.20119 Y26.71951
G01 X-31.20119 Y26.67052
G01 X-31.22017 Y26.49018
G01 X-31.27165 Y26.31629
G01 X-31.29040 Y26.27103
G01 X-31.36434 Y26.13270
G01 X-31.39157 Y26.09196
G01 X-31.49106 Y25.97072
G01 X-31.52571 Y25.93608
G01 X-31.64694 Y25.83658
G01 X-31.68768 Y25.80935
G01 X-31.84816 Y25.72495
G01 X-32.02134 Y25.67115
G01 X-32.06942 Y25.66158
G01 X-32.22548 Y25.64621
G01 X-32.27450 Y25.64621
G01 X-32.43055 Y25.66158
G01 X-32.47864 Y25.67115
G01 X-32.62870 Y25.71667
G01 X-32.67399 Y25.73544
G01 X-32.83335 Y25.82198
G01 X-32.98321 Y25.94502
G01 X-36.67997 Y25.94502
G01 X-36.67992 Y25.19135
G01 X-36.69755 Y25.09127
G01 X-36.70497 Y24.97502
G01 X-36.70497 Y23.37502
G01 X-36.69755 Y23.25884
G01 X-36.68074 Y23.16189
G01 X-36.65833 Y23.11828
G01 X-36.63111 Y23.07753
G01 X-36.58353 Y23.02145
G01 X-36.52747 Y22.97390
G01 X-36.48673 Y22.94667
G01 X-36.39824 Y22.90481
G01 X-36.30327 Y22.88101
G01 X-36.22999 Y22.87502
G01 X-34.60548 Y22.87621
G01 X-34.53246 Y22.88462
G01 X-34.46174 Y22.90481
G01 X-34.41648 Y22.92356
G01 X-34.33251 Y22.97390
G01 X-34.25996 Y23.03964
G01 X-34.20165 Y23.11828
G01 X-34.15979 Y23.20677
G01 X-34.13599 Y23.30174
G01 X-34.12999 Y23.42503
G01 X-33.00322 Y23.42503
G01 X-32.97427 Y23.39608
G01 X-32.83335 Y23.28198
G01 X-32.65181 Y23.18495
G01 X-32.47864 Y23.13115
G01 X-32.43055 Y23.12158
G01 X-32.27450 Y23.10621
G01 X-32.22548 Y23.10621
G01 X-32.06942 Y23.12158
G01 X-32.02134 Y23.13115
G01 X-31.84816 Y23.18495
G01 X-31.66665 Y23.28198
G01 X-31.52571 Y23.39608
G01 X-31.49998 Y23.42181
G01 X-31.49995 Y22.34820
G01 X-31.49998 Y23.42181
G01 X-31.43881 Y23.59077
G01 X-31.38860 Y23.78350
G01 X-31.36002 Y23.96702
G01 X-31.35022 Y24.14520
G01 X-31.36002 Y24.34304
G01 X-31.38860 Y24.52650
G01 X-31.43881 Y24.71929
G01 X-31.49995 Y24.88820
G01 X-31.49921 Y25.67466
G01 X-31.48692 Y25.79163
G01 X-31.45646 Y25.90521
G01 X-31.40864 Y26.01266
G01 X-31.34458 Y26.11128
G01 X-31.28032 Y26.18538
G01 X-25.68000 Y31.78567
G01 X-25.68000 Y32.57500
G01 X-25.67520 Y32.62379
G01 X-25.66095 Y32.67068
G01 X-25.63786 Y32.71391
G01 X-25.60677 Y32.75178
G01 X-25.56887 Y32.78287
G01 X-25.52567 Y32.80599
G01 X-25.47875 Y32.82021
G01 X-25.42998 Y32.82501
G01 X-23.82999 Y32.82501
G01 X-23.78122 Y32.82021
G01 X-23.73431 Y32.80599
G01 X-23.69110 Y32.78287
G01 X-23.65320 Y32.75178
G01 X-23.62211 Y32.71391
G01 X-23.59903 Y32.67068
G01 X-23.58480 Y32.62379
G01 X-23.57998 Y32.57500
G01 X-23.57998 Y30.97500
G01 X-23.58480 Y30.92624
G01 X-23.59903 Y30.87935
G01 X-23.62211 Y30.83612
G01 X-23.65320 Y30.79824
G01 X-23.69110 Y30.76716
G01 X-23.73431 Y30.74404
G01 X-23.78122 Y30.72982
G01 X-23.82999 Y30.72502
G01 X-24.61932 Y30.72502
G01 X-29.99998 Y25.34438
G01 X-29.99995 Y22.38569
G01 X-30.06706 Y22.20883
G01 X-30.10221 Y22.07604
G01 X-30.12241 Y21.94960
G01 X-30.12998 Y21.81500
G01 X-30.12998 Y11.47504
G01 X-30.13752 Y11.34047
G01 X-30.15771 Y11.21403
G01 X-30.18227 Y11.11604
G01 X-30.22792 Y10.98322
G01 X-30.25809 Y10.90888
G01 X-31.00120 Y10.16316
G01 X-31.02017 Y9.97017
G01 X-31.07165 Y9.79631
G01 X-31.09040 Y9.75102
G01 X-31.16434 Y9.61271
G01 X-31.19157 Y9.57195
G01 X-31.29106 Y9.45074
G01 X-31.31671 Y9.42506
G01 X-31.48573 Y9.36390
G01 X-31.67849 Y9.31368
G01 X-31.86195 Y9.28511
G01 X-32.04016 Y9.27528
G01 X-32.23800 Y9.28511
G01 X-32.42146 Y9.31368
G01 X-32.61422 Y9.36390
G01 X-32.78316 Y9.42503
G01 X-32.80891 Y9.45074
G01 X-32.90840 Y9.57195
G01 X-32.93563 Y9.61271
G01 X-33.00957 Y9.75102
G01 X-33.02832 Y9.79631
G01 X-33.07980 Y9.97017
G01 X-33.09878 Y10.15051
G01 X-33.09878 Y10.19951
G01 X-33.07980 Y10.37985
G01 X-33.02832 Y10.55373
G01 X-33.00957 Y10.59900
G01 X-32.93563 Y10.73732
G01 X-32.90840 Y10.77807
G01 X-32.80891 Y10.89930
G01 X-32.77427 Y10.93395
G01 X-32.63335 Y11.04807
G01 X-32.45181 Y11.14510
G01 X-32.27864 Y11.19887
G01 X-32.23056 Y11.20844
G01 X-32.06185 Y11.22381
G01 X-31.49998 Y11.78568
G01 X-31.49998 Y13.26181
G01 X-31.43881 Y13.43077
G01 X-31.38860 Y13.62350
G01 X-31.36002 Y13.80702
G01 X-31.35022 Y13.98520
G01 X-31.36002 Y14.18304
G01 X-31.38860 Y14.36650
G01 X-31.43881 Y14.55929
G01 X-31.49995 Y14.72820
G01 X-31.49995 Y15.80181
G01 X-31.43881 Y15.97077
G01 X-31.38860 Y16.16350
G01 X-31.36002 Y16.34702
G01 X-31.35022 Y16.52520
G01 X-31.36002 Y16.72304
G01 X-31.38860 Y16.90650
G01 X-31.43881 Y17.09929
G01 X-31.49995 Y17.26820
G01 X-31.49998 Y18.34181
G01 X-31.49995 Y17.26820
G01 X-31.49998 Y18.34181
G01 X-31.43881 Y18.51077
G01 X-31.38860 Y18.70350
G01 X-31.36002 Y18.88702
G01 X-31.35022 Y19.06520
G01 X-31.36002 Y19.26304
G01 X-31.38860 Y19.44650
G01 X-31.43881 Y19.63929
G01 X-31.49995 Y19.80820
G01 X-31.49995 Y20.88183
G01 X-31.43881 Y21.05077
G01 X-31.38860 Y21.24350
G01 X-31.36002 Y21.42702
G01 X-31.35022 Y21.60520
G01 X-31.36002 Y21.80304
G01 X-31.38860 Y21.98650
G01 X-31.43881 Y22.17929
G01 X-31.49995 Y22.34820
G01 X-31.49998 Y23.42181
G01 X-31.43881 Y23.59077
G01 X-31.38860 Y23.78350
G01 X-31.36002 Y23.96702
G01 X-31.35022 Y24.14520
G01 X-31.36002 Y24.34304
G01 X-31.38860 Y24.52650
G01 X-31.42789 Y24.68335
G01 X-31.49995 Y24.88820
G01 X-31.52571 Y24.91395
G01 X-31.66665 Y25.02805
G01 X-31.82598 Y25.11459
G01 X-31.87127 Y25.13336
G01 X-32.02134 Y25.17888
G01 X-32.06942 Y25.18843
G01 X-32.22548 Y25.20382
G01 X-32.27450 Y25.20382
G01 X-32.43055 Y25.18843
G01 X-32.47864 Y25.17888
G01 X-32.65181 Y25.12508
G01 X-32.83335 Y25.02805
G01 X-32.96078 Y24.92503
G01 X-34.12999 Y24.92503
G01 X-34.13599 Y25.04829
G01 X-34.15979 Y25.14327
G01 X-34.20165 Y25.23176
G01 X-34.25996 Y25.31040
G01 X-34.33251 Y25.37613
G01 X-34.41648 Y25.42648
G01 X-34.46174 Y25.44522
G01 X-34.53246 Y25.46541
G01 X-34.60548 Y25.47382
G01 X-36.22999 Y25.47501
G01 X-36.30327 Y25.46899
G01 X-36.39824 Y25.44522
G01 X-36.44350 Y25.42648
G01 X-36.52747 Y25.37613
G01 X-36.60002 Y25.31040
G01 X-36.63111 Y25.27250
G01 X-36.67992 Y25.19135
G01 X-36.69755 Y25.09127
G01 X-36.70497 Y24.97502
G01 X-36.70497 Y23.37502
G01 X-36.69755 Y23.25884
G01 X-36.67992 Y23.15866
G01 X-36.67997 Y22.48569
G01 X-36.55930 Y22.36501
G01 X-32.98321 Y22.36501
G01 X-32.83335 Y22.48805
G01 X-32.67399 Y22.57459
G01 X-32.62870 Y22.59336
G01 X-32.47864 Y22.63888
G01 X-32.43055 Y22.64843
G01 X-32.27450 Y22.66382
G01 X-32.22548 Y22.66382
G01 X-32.06942 Y22.64843
G01 X-32.02134 Y22.63888
G01 X-31.87127 Y22.59336
G01 X-31.82598 Y22.57459
G01 X-31.66665 Y22.48805
G01 X-31.52571 Y22.37395
G01 X-31.49995 Y22.34820
G01 X-31.43881 Y22.17929
G01 X-31.38860 Y21.98650
G01 X-31.36002 Y21.80304
G01 X-31.35022 Y21.62483
G01 X-31.36002 Y21.42702
G01 X-31.38860 Y21.24350
G01 X-31.43881 Y21.05077
G01 X-31.49995 Y20.88183
G01 X-31.49995 Y19.80820
G01 X-31.42789 Y19.60335
G01 X-31.38329 Y19.41986
G01 X-31.35791 Y19.24168
G01 X-31.35022 Y19.08483
G01 X-31.35791 Y18.90838
G01 X-31.38860 Y18.70350
G01 X-31.43881 Y18.51077
G01 X-31.49998 Y18.34181
G01 X-31.52571 Y18.31608
G01 X-31.66665 Y18.20198
G01 X-31.82598 Y18.11544
G01 X-31.87127 Y18.09667
G01 X-32.02134 Y18.05115
G01 X-32.06942 Y18.04158
G01 X-32.22548 Y18.02621
G01 X-32.27450 Y18.02621
G01 X-32.43055 Y18.04158
G01 X-32.47864 Y18.05115
G01 X-32.65181 Y18.10495
G01 X-32.81229 Y18.18935
G01 X-32.85303 Y18.21658
G01 X-32.97427 Y18.31608
G01 X-33.00891 Y18.35072
G01 X-33.06990 Y18.42502
G01 X-34.12999 Y18.42502
G01 X-34.13119 Y18.35052
G01 X-34.14556 Y18.25367
G01 X-34.16804 Y18.18367
G01 X-34.20165 Y18.11826
G01 X-34.22887 Y18.07752
G01 X-34.29461 Y18.00498
G01 X-34.37325 Y17.94666
G01 X-34.46174 Y17.90480
G01 X-34.53246 Y17.88463
G01 X-34.62999 Y17.87500
G01 X-36.22999 Y17.87500
G01 X-36.30327 Y17.88102
G01 X-36.35132 Y17.89057
G01 X-36.39824 Y17.90480
G01 X-36.48673 Y17.94666
G01 X-36.52747 Y17.97389
G01 X-36.58353 Y18.02146
G01 X-36.63111 Y18.07752
G01 X-36.65833 Y18.11826
G01 X-36.68076 Y18.16195
G01 X-36.70202 Y18.30391
G01 X-36.70497 Y18.37500
G01 X-36.70497 Y19.97500
G01 X-36.69755 Y20.09128
G01 X-36.67995 Y20.19133
G01 X-36.67997 Y20.86502
G01 X-32.98321 Y20.86502
G01 X-32.83335 Y20.74198
G01 X-32.65181 Y20.64495
G01 X-32.47864 Y20.59115
G01 X-32.43055 Y20.58158
G01 X-32.27450 Y20.56621
G01 X-32.22548 Y20.56621
G01 X-32.06942 Y20.58158
G01 X-32.02134 Y20.59115
G01 X-31.84816 Y20.64495
G01 X-31.66665 Y20.74198
G01 X-31.52571 Y20.85608
G01 X-31.49995 Y20.88183
G01 X-31.49995 Y19.80820
G01 X-31.52571 Y19.83395
G01 X-31.66665 Y19.94805
G01 X-31.84816 Y20.04508
G01 X-32.02134 Y20.09888
G01 X-32.06942 Y20.10843
G01 X-32.22548 Y20.12382
G01 X-32.27450 Y20.12382
G01 X-32.43055 Y20.10843
G01 X-32.47864 Y20.09888
G01 X-32.62870 Y20.05336
G01 X-32.67399 Y20.03459
G01 X-32.81229 Y19.96067
G01 X-32.86332 Y19.92501
G01 X-34.12999 Y19.92501
G01 X-34.13119 Y19.99951
G01 X-34.14556 Y20.09636
G01 X-34.16804 Y20.16636
G01 X-34.20165 Y20.23174
G01 X-34.22887 Y20.27251
G01 X-34.29461 Y20.34505
G01 X-34.37325 Y20.40337
G01 X-34.46174 Y20.44523
G01 X-34.55671 Y20.46900
G01 X-34.62999 Y20.47502
G01 X-36.22999 Y20.47502
G01 X-36.30327 Y20.46900
G01 X-36.35132 Y20.45945
G01 X-36.39824 Y20.44523
G01 X-36.48673 Y20.40337
G01 X-36.52747 Y20.37614
G01 X-36.58353 Y20.32857
G01 X-36.63111 Y20.27251
G01 X-36.65833 Y20.23174
G01 X-36.68076 Y20.18808
G01 X-36.70202 Y20.04612
G01 X-36.70497 Y19.97500
G01 X-36.70497 Y18.37500
G01 X-36.69755 Y18.25877
G01 X-36.67995 Y18.15870
G01 X-36.67997 Y17.48567
G01 X-36.47931 Y17.28501
G01 X-32.98321 Y17.28501
G01 X-32.83335 Y17.40805
G01 X-32.67399 Y17.49459
G01 X-32.62870 Y17.51336
G01 X-32.47864 Y17.55888
G01 X-32.43055 Y17.56843
G01 X-32.27450 Y17.58382
G01 X-32.22548 Y17.58382
G01 X-32.06942 Y17.56843
G01 X-32.02134 Y17.55888
G01 X-31.87127 Y17.51336
G01 X-31.82598 Y17.49459
G01 X-31.66665 Y17.40805
G01 X-31.52571 Y17.29395
G01 X-31.49995 Y17.26820
G01 X-31.43881 Y17.09929
G01 X-31.38860 Y16.90650
G01 X-31.36002 Y16.72304
G01 X-31.35022 Y16.54483
G01 X-31.36002 Y16.34702
G01 X-31.38860 Y16.16350
G01 X-31.43881 Y15.97077
G01 X-31.49995 Y15.80181
G01 X-31.49995 Y14.72820
G01 X-31.42789 Y14.52335
G01 X-31.38329 Y14.33986
G01 X-31.35791 Y14.16168
G01 X-31.35022 Y14.00483
G01 X-31.35791 Y13.82838
G01 X-31.38329 Y13.65017
G01 X-31.42789 Y13.46668
G01 X-31.49998 Y13.26181
G01 X-31.52571 Y13.23608
G01 X-31.66665 Y13.12198
G01 X-31.84816 Y13.02495
G01 X-32.02134 Y12.97115
G01 X-32.06942 Y12.96158
G01 X-32.22548 Y12.94621
G01 X-32.27450 Y12.94621
G01 X-32.43055 Y12.96158
G01 X-32.47864 Y12.97115
G01 X-32.65181 Y13.02495
G01 X-32.83335 Y13.12198
G01 X-32.98321 Y13.24502
G01 X-34.14818 Y13.24502
G01 X-34.16804 Y13.18368
G01 X-34.20165 Y13.11827
G01 X-34.25996 Y13.03963
G01 X-34.29461 Y13.00499
G01 X-34.37325 Y12.94667
G01 X-34.41648 Y12.92355
G01 X-34.46174 Y12.90481
G01 X-34.55671 Y12.88101
G01 X-34.62999 Y12.87501
G01 X-36.22999 Y12.87501
G01 X-36.32752 Y12.88462
G01 X-36.39824 Y12.90481
G01 X-36.44350 Y12.92355
G01 X-36.48673 Y12.94667
G01 X-36.56537 Y13.00499
G01 X-36.60002 Y13.03963
G01 X-36.65833 Y13.11827
G01 X-36.69194 Y13.18368
G01 X-36.71442 Y13.25368
G01 X-36.72397 Y13.30173
G01 X-36.72999 Y13.37501
G01 X-36.72999 Y14.97501
G01 X-36.72397 Y15.04829
G01 X-36.71442 Y15.09635
G01 X-36.69194 Y15.16635
G01 X-36.65833 Y15.23175
G01 X-36.63111 Y15.27249
G01 X-36.58353 Y15.32858
G01 X-36.52747 Y15.37613
G01 X-36.48673 Y15.40336
G01 X-36.44350 Y15.42647
G01 X-36.35132 Y15.45944
G01 X-36.30327 Y15.46901
G01 X-36.22999 Y15.47501
G01 X-34.62999 Y15.47501
G01 X-34.55671 Y15.46901
G01 X-34.50866 Y15.45944
G01 X-34.41648 Y15.42647
G01 X-34.37325 Y15.40336
G01 X-34.29461 Y15.34504
G01 X-34.22887 Y15.27249
G01 X-34.17853 Y15.18852
G01 X-34.15979 Y15.14326
G01 X-34.13599 Y15.04829
G01 X-34.12999 Y14.97501
G01 X-34.12999 Y14.74501
G01 X-32.98321 Y14.74501
G01 X-32.83335 Y14.86805
G01 X-32.65181 Y14.96508
G01 X-32.47864 Y15.01888
G01 X-32.43055 Y15.02843
G01 X-32.27450 Y15.04382
G01 X-32.22548 Y15.04382
G01 X-32.06942 Y15.02843
G01 X-32.02134 Y15.01888
G01 X-31.84816 Y14.96508
G01 X-31.66665 Y14.86805
G01 X-31.52571 Y14.75395
G01 X-31.49995 Y14.72820
G01 X-31.49995 Y15.80181
G01 X-31.52571 Y15.77608
G01 X-31.66665 Y15.66198
G01 X-31.84816 Y15.56495
G01 X-32.02134 Y15.51115
G01 X-32.06942 Y15.50158
G01 X-32.22548 Y15.48621
G01 X-32.27450 Y15.48621
G01 X-32.43055 Y15.50158
G01 X-32.47864 Y15.51115
G01 X-32.65181 Y15.56495
G01 X-32.83335 Y15.66198
G01 X-32.98321 Y15.78502
G01 X-36.78996 Y15.78502
G01 X-36.93629 Y15.79942
G01 X-37.05389 Y15.83383
G01 X-37.09915 Y15.85261
G01 X-37.18561 Y15.89881
G01 X-37.22635 Y15.92604
G01 X-37.32031 Y16.00468
G01 X-37.96031 Y16.64468
G01 X-38.03895 Y16.73863
G01 X-38.06618 Y16.77938
G01 X-38.12287 Y16.88801
G01 X-38.16557 Y17.02870
G01 X-38.17997 Y17.17501
G01 X-38.17997 Y33.42504
G01 X-52.67997 Y33.42504
G01 X-52.67997 Y32.52501
G01 X-51.78320 Y32.52501
G01 X-51.63334 Y32.64805
G01 X-51.45180 Y32.74508
G01 X-51.27862 Y32.79888
G01 X-51.23057 Y32.80843
G01 X-51.07448 Y32.82382
G01 X-51.02549 Y32.82382
G01 X-50.86941 Y32.80843
G01 X-50.82135 Y32.79888
G01 X-50.64817 Y32.74508
G01 X-50.46664 Y32.64805
G01 X-50.32569 Y32.53395
G01 X-50.29105 Y32.49931
G01 X-50.19156 Y32.37807
G01 X-50.16433 Y32.33731
G01 X-50.09041 Y32.19900
G01 X-50.07164 Y32.15374
G01 X-50.02613 Y32.00365
G01 X-50.01658 Y31.95560
G01 X-50.00118 Y31.79951
G01 X-50.00118 Y31.75052
G01 X-50.02016 Y31.57018
G01 X-50.07164 Y31.39629
G01 X-50.09041 Y31.35103
G01 X-50.16433 Y31.21270
G01 X-50.19156 Y31.17196
G01 X-50.29105 Y31.05072
G01 X-50.32569 Y31.01608
G01 X-50.44693 Y30.91658
G01 X-50.48769 Y30.88935
G01 X-50.62600 Y30.81544
G01 X-50.67126 Y30.79667
G01 X-50.82135 Y30.75115
G01 X-50.86941 Y30.74158
G01 X-51.02549 Y30.72621
