( pcb2gcode 2.5.0 )
( Software-independent Gcode )

( This file uses 2 drill bit sizes. )
( Bit sizes: [0.8mm] [1.1mm] )

G94       (Millimeters per minute feed rate.)
G21       (Units == Millimeters.)
G91.1     (Incremental arc distance mode.)
G90       (Absolute coordinates.)
G00 S2000     (RPM spindle speed.)

G00 Z10.00000 (Retract)
T1
M5      (Spindle stop.)
G04 P1.00000
(MSG, Change tool bit to drill size 0.8mm)
M6      (Tool change.)
M0      (Temporary machine stop.)
M3      (Spindle on clockwise.)
G0 Z5.00000
G04 P1.00000

G81 R5.00000 Z-0.80000 F300.00000 X3.89000 Y10.17500
X6.43000 Y10.17500
X6.63000 Y13.99500
X6.63000 Y16.53500
X6.63000 Y19.07500
X6.63000 Y21.61500
X6.63000 Y24.15500
X6.63000 Y26.69500
X6.63000 Y29.23500
X6.63000 Y31.77500
X6.81000 Y36.17500
X9.35000 Y36.17500
X11.89000 Y36.17500
X14.43000 Y36.17500
X14.25000 Y31.77500
X14.25000 Y29.23500
X14.25000 Y26.69500
X14.25000 Y24.15500
X14.25000 Y21.61500
X14.25000 Y19.07500
X14.25000 Y16.53500
X8.97000 Y10.17500
X11.51000 Y10.17500
X14.05000 Y10.17500
X14.25000 Y13.99500
X21.89000 Y10.17500
X24.63000 Y13.99500
X24.63000 Y16.53500
X24.63000 Y19.07500
X24.63000 Y21.61500
X24.63000 Y24.15500
X24.63000 Y26.69500
X24.63000 Y29.23500
X24.63000 Y31.77500
X16.97000 Y36.17500
X24.27000 Y36.17500
X26.81000 Y36.17500
X29.35000 Y36.17500
X31.89000 Y36.17500
X34.43000 Y36.17500
X32.25000 Y31.77500
X32.25000 Y29.23500
X32.25000 Y26.69500
X32.25000 Y24.15500
X32.25000 Y21.61500
X32.25000 Y19.07500
X32.25000 Y16.53500
X32.25000 Y13.99500
X29.51000 Y10.17500
X26.97000 Y10.17500
X24.43000 Y10.17500
X28.62000 Y6.17500
X32.05000 Y10.17500
X36.24000 Y6.17500
X43.63000 Y3.91000
X43.63000 Y6.45000
X43.87000 Y10.17500
X41.33000 Y10.17500
X43.43000 Y13.99500
X43.43000 Y16.53500
X43.43000 Y19.07500
X43.43000 Y21.61500
X43.43000 Y24.15500
X43.43000 Y26.69500
X43.43000 Y29.23500
X43.43000 Y31.77500
X40.73000 Y36.17500
X43.27000 Y36.17500
X45.81000 Y36.17500
X48.35000 Y36.17500
X50.89000 Y36.17500
X53.43000 Y36.17500
X51.05000 Y31.77500
X51.05000 Y29.23500
X51.05000 Y26.69500
X51.05000 Y24.15500
X51.05000 Y21.61500
X51.05000 Y19.07500
X51.05000 Y16.53500
X51.05000 Y13.99500
X46.41000 Y10.17500
X48.95000 Y10.17500
X51.49000 Y10.17500
X51.25000 Y6.45000
X51.25000 Y3.91000
G80

G00 Z10.00000 (Retract)
T2
M5      (Spindle stop.)
G04 P1.00000
(MSG, Change tool bit to drill size 1.1mm)
M6      (Tool change.)
M0      (Temporary machine stop.)
M3      (Spindle on clockwise.)
G0 Z5.00000
G04 P1.00000

G81 R5.00000 Z-0.80000 F300.00000 X3.43000 Y6.17500
X3.43000 Y14.17500
X3.43000 Y19.17500
X3.43000 Y24.17500
X3.43000 Y29.17500
X17.37000 Y29.23500
X21.43000 Y29.17500
X17.43000 Y24.17500
X21.43000 Y24.17500
X17.43000 Y19.17500
X21.43000 Y19.17500
X17.43000 Y14.17500
X21.43000 Y14.17500
X24.43000 Y6.17500
X35.43000 Y14.17500
X40.43000 Y14.17500
X35.43000 Y19.17500
X40.43000 Y19.17500
X35.43000 Y24.17500
X40.43000 Y24.17500
X35.43000 Y29.17500
X40.43000 Y29.17500
X54.43000 Y29.17500
X54.43000 Y24.17500
X54.43000 Y19.17500
X54.43000 Y14.17500
X55.43000 Y10.17500
X54.43000 Y4.17500
X39.43000 Y4.17500
G80

G00 Z10.000 ( All done -- retract )

M5      (Spindle off.)
G04 P1.000000
M9      (Coolant off.)
M2      (Program end.)

