( pcb2gcode 2.5.0 )
( Software-independent Gcode )

G94 ( Millimeters per minute feed rate. )
G21 ( Units == Millimeters. )

G90 ( Absolute coordinates. )
G00 S3000 ( RPM spindle speed. )
G64 P0.00500 ( set maximum deviation from commanded toolpath )
G01 F600.00000 ( Feedrate. )


G00 Z10.00000 (Retract to tool change height)
T1
M5      (Spindle stop.)
G04 P1.00000 (Wait for spindle to stop)
(MSG, Change tool bit to mill diameter 0.50000mm)
M6      (Tool change.)
M0      (Temporary machine stop.)
M3 ( Spindle on clockwise. )
G04 P1.00000 (Wait for spindle to get up to speed)
G04 P0 ( dwell for no time -- G64 should not smooth over this point )
G00 Z5.00000 ( retract )

G00 X2.83999 Y9.37502 ( rapid move to begin. )
G01 F300.00000
( Mill infeed pass 1/1 )
G01 Z-0.02000
G04 P0 ( dwell for no time -- G64 should not smooth over this point )
G01 F600.00000
G01 X2.83999 Y9.37502
G01 X2.84479 Y9.32623
G01 X2.85901 Y9.27934
G01 X2.88213 Y9.23611
G01 X2.91321 Y9.19824
G01 X2.95109 Y9.16715
G01 X2.99432 Y9.14403
G01 X3.04121 Y9.12981
G01 X3.09000 Y9.12501
G01 X4.69000 Y9.12501
G01 X4.73876 Y9.12981
G01 X4.78565 Y9.14403
G01 X4.82888 Y9.16715
G01 X4.86675 Y9.19824
G01 X4.89784 Y9.23611
G01 X4.92096 Y9.27934
G01 X4.93518 Y9.32623
G01 X4.93998 Y9.37502
G01 X4.93998 Y10.97502
G01 X4.93518 Y11.02379
G01 X4.92096 Y11.07067
G01 X4.89784 Y11.11391
G01 X4.86675 Y11.15180
G01 X4.82888 Y11.18289
G01 X4.78565 Y11.20598
G01 X4.73876 Y11.22020
G01 X4.69000 Y11.22500
G01 X3.09000 Y11.22500
G01 X3.04121 Y11.22020
G01 X2.99432 Y11.20598
G01 X2.95109 Y11.18289
G01 X2.91321 Y11.15180
G01 X2.88213 Y11.11391
G01 X2.85901 Y11.07067
G01 X2.84479 Y11.02379
G01 X2.83999 Y10.97502
G01 X2.83999 Y9.37502
G04 P0 ( dwell for no time -- G64 should not smooth over this point )
G00 Z5.00000 ( retract )

G00 X2.12998 Y6.97500 ( rapid move to begin. )
G01 F300.00000
( Mill infeed pass 1/1 )
G01 Z-0.02000
G04 P0 ( dwell for no time -- G64 should not smooth over this point )
G01 F600.00000
G01 X2.12998 Y6.97500
G01 X2.13961 Y7.07256
G01 X2.15977 Y7.14325
G01 X2.20163 Y7.23174
G01 X2.22886 Y7.27251
G01 X2.29462 Y7.34505
G01 X2.37324 Y7.40337
G01 X2.43864 Y7.43695
G01 X2.53244 Y7.46540
G01 X2.62998 Y7.47503
G01 X4.22998 Y7.47503
G01 X4.32754 Y7.46540
G01 X4.39823 Y7.44521
G01 X4.44351 Y7.42646
G01 X4.52749 Y7.37614
G01 X4.58354 Y7.32857
G01 X4.63112 Y7.27251
G01 X4.68144 Y7.18854
G01 X4.70018 Y7.14325
G01 X4.72037 Y7.07256
G01 X4.72998 Y6.97500
G01 X4.72878 Y5.35052
G01 X4.72037 Y5.27747
G01 X4.69193 Y5.18367
G01 X4.65835 Y5.11826
G01 X4.63112 Y5.07752
G01 X4.56536 Y5.00498
G01 X4.48672 Y4.94666
G01 X4.42134 Y4.91308
G01 X4.35134 Y4.89058
G01 X4.25449 Y4.87622
G01 X2.62998 Y4.87500
G01 X2.55670 Y4.88102
G01 X2.46176 Y4.90480
G01 X2.37324 Y4.94666
G01 X2.33249 Y4.97389
G01 X2.25995 Y5.03965
G01 X2.20163 Y5.11826
G01 X2.16805 Y5.18367
G01 X2.13961 Y5.27747
G01 X2.12998 Y5.37500
G01 X2.12998 Y13.37501
G01 X2.13961 Y13.27748
G01 X2.16805 Y13.18368
G01 X2.20163 Y13.11827
G01 X2.22886 Y13.07753
G01 X2.27644 Y13.02147
G01 X2.33249 Y12.97390
G01 X2.37324 Y12.94667
G01 X2.43864 Y12.91306
G01 X2.53244 Y12.88462
G01 X2.62998 Y12.87501
G01 X4.22998 Y12.87501
G01 X4.32754 Y12.88462
G01 X4.42134 Y12.91306
G01 X4.48672 Y12.94667
G01 X4.52749 Y12.97390
G01 X4.60003 Y13.03963
G01 X4.65835 Y13.11827
G01 X4.69193 Y13.18368
G01 X4.72037 Y13.27748
G01 X4.72998 Y13.37501
G01 X4.72998 Y14.97501
G01 X4.72037 Y15.07255
G01 X4.69193 Y15.16635
G01 X4.65835 Y15.23175
G01 X4.60003 Y15.31039
G01 X4.52749 Y15.37613
G01 X4.44351 Y15.42647
G01 X4.39823 Y15.44521
G01 X4.32754 Y15.46541
G01 X4.22998 Y15.47501
G01 X2.60549 Y15.47382
G01 X2.53244 Y15.46541
G01 X2.43864 Y15.43696
G01 X2.37324 Y15.40336
G01 X2.33249 Y15.37613
G01 X2.27644 Y15.32858
G01 X2.22886 Y15.27249
G01 X2.20163 Y15.23175
G01 X2.16805 Y15.16635
G01 X2.13961 Y15.07255
G01 X2.13120 Y14.99952
G01 X2.12998 Y13.37501
G01 X2.12998 Y18.37500
G01 X2.13961 Y18.27747
G01 X2.16805 Y18.18367
G01 X2.20163 Y18.11826
G01 X2.22886 Y18.07752
G01 X2.27644 Y18.02146
G01 X2.33249 Y17.97389
G01 X2.37324 Y17.94666
G01 X2.43864 Y17.91308
G01 X2.53244 Y17.88463
G01 X2.62998 Y17.87500
G01 X4.22998 Y17.87500
G01 X4.32754 Y17.88463
G01 X4.42134 Y17.91308
G01 X4.48672 Y17.94666
G01 X4.56536 Y18.00498
G01 X4.63112 Y18.07752
G01 X4.65835 Y18.11826
G01 X4.70018 Y18.20678
G01 X4.72037 Y18.27747
G01 X4.72998 Y18.37500
G01 X4.72998 Y19.97500
G01 X4.72037 Y20.07256
G01 X4.69193 Y20.16636
G01 X4.65835 Y20.23174
G01 X4.60003 Y20.31038
G01 X4.52749 Y20.37614
G01 X4.48672 Y20.40337
G01 X4.39823 Y20.44523
G01 X4.32754 Y20.46540
G01 X4.22998 Y20.47502
G01 X2.60549 Y20.47381
G01 X2.53244 Y20.46540
G01 X2.43864 Y20.43695
G01 X2.37324 Y20.40337
G01 X2.33249 Y20.37614
G01 X2.27644 Y20.32857
G01 X2.22886 Y20.27251
G01 X2.20163 Y20.23174
G01 X2.16805 Y20.16636
G01 X2.13961 Y20.07256
G01 X2.13120 Y19.99951
G01 X2.12998 Y18.37500
G01 X2.12998 Y23.37502
G01 X2.13961 Y23.27746
G01 X2.16805 Y23.18368
G01 X2.20163 Y23.11828
G01 X2.22886 Y23.07753
G01 X2.27644 Y23.02145
G01 X2.33249 Y22.97390
G01 X2.37324 Y22.94667
G01 X2.43864 Y22.91307
G01 X2.53244 Y22.88462
G01 X2.62998 Y22.87502
G01 X4.22998 Y22.87502
G01 X4.32754 Y22.88462
G01 X4.42134 Y22.91307
G01 X4.48672 Y22.94667
G01 X4.52749 Y22.97390
G01 X4.60003 Y23.03964
G01 X4.65835 Y23.11828
G01 X4.69193 Y23.18368
G01 X4.72037 Y23.27746
G01 X4.72998 Y23.37502
G01 X4.72998 Y24.97502
G01 X4.72037 Y25.07255
G01 X4.69193 Y25.16635
G01 X4.65835 Y25.23176
G01 X4.60003 Y25.31040
G01 X4.52749 Y25.37613
G01 X4.44351 Y25.42648
G01 X4.39823 Y25.44522
G01 X4.32754 Y25.46541
G01 X4.22998 Y25.47501
G01 X2.60549 Y25.47382
G01 X2.53244 Y25.46541
G01 X2.43864 Y25.43694
G01 X2.37324 Y25.40336
G01 X2.33249 Y25.37613
G01 X2.27644 Y25.32856
G01 X2.22886 Y25.27250
G01 X2.20163 Y25.23176
G01 X2.16805 Y25.16635
G01 X2.13961 Y25.07255
G01 X2.13120 Y24.99953
G01 X2.12998 Y23.37502
G01 X2.12998 Y29.97501
G01 X2.13600 Y30.04828
G01 X2.14555 Y30.09637
G01 X2.17855 Y30.18854
G01 X2.22886 Y30.27252
G01 X2.27644 Y30.32857
G01 X2.33249 Y30.37612
G01 X2.37324 Y30.40335
G01 X2.43864 Y30.43696
G01 X2.53244 Y30.46540
G01 X2.60549 Y30.47381
G01 X4.22998 Y30.47500
G01 X4.30326 Y30.46901
G01 X4.35134 Y30.45943
G01 X4.42134 Y30.43696
G01 X4.48672 Y30.40335
G01 X4.52749 Y30.37612
G01 X4.58354 Y30.32857
G01 X4.63112 Y30.27252
G01 X4.65835 Y30.23175
G01 X4.69193 Y30.16634
G01 X4.72037 Y30.07257
G01 X4.72878 Y29.99952
G01 X4.72998 Y28.37501
G01 X4.72037 Y28.27747
G01 X4.70018 Y28.20676
G01 X4.68144 Y28.16150
G01 X4.65835 Y28.11827
G01 X4.60003 Y28.03963
G01 X4.52749 Y27.97389
G01 X4.48672 Y27.94666
G01 X4.39823 Y27.90480
G01 X4.32754 Y27.88461
G01 X4.22998 Y27.87501
G01 X2.62998 Y27.87501
G01 X2.53244 Y27.88461
G01 X2.43864 Y27.91308
G01 X2.37324 Y27.94666
G01 X2.33249 Y27.97389
G01 X2.25995 Y28.03963
G01 X2.20163 Y28.11827
G01 X2.16805 Y28.18367
G01 X2.13961 Y28.27747
G01 X2.12998 Y28.37501
G04 P0 ( dwell for no time -- G64 should not smooth over this point )
G00 Z5.00000 ( retract )

G00 X8.87998 Y23.38437 ( rapid move to begin. )
G01 F300.00000
( Mill infeed pass 1/1 )
G01 Z-0.02000
G04 P0 ( dwell for no time -- G64 should not smooth over this point )
G01 F600.00000
G01 X8.87998 Y23.38437
G01 X13.20118 Y19.06314
G01 X13.22015 Y18.87018
G01 X13.27164 Y18.69629
G01 X13.29041 Y18.65103
G01 X13.36432 Y18.51270
G01 X13.39155 Y18.47196
G01 X13.49104 Y18.35072
G01 X13.52572 Y18.31608
G01 X13.64692 Y18.21658
G01 X13.68769 Y18.18935
G01 X13.84817 Y18.10495
G01 X14.02135 Y18.05115
G01 X14.06940 Y18.04158
G01 X14.22549 Y18.02621
G01 X14.27448 Y18.02621
G01 X14.43057 Y18.04158
G01 X14.47862 Y18.05115
G01 X14.65180 Y18.10495
G01 X14.83333 Y18.20198
G01 X14.97428 Y18.31608
G01 X15.00892 Y18.35072
G01 X15.10842 Y18.47196
G01 X15.13564 Y18.51270
G01 X15.20958 Y18.65103
G01 X15.22833 Y18.69629
G01 X15.27981 Y18.87018
G01 X15.29998 Y19.07500
G01 X15.28342 Y19.25560
G01 X15.27385 Y19.30365
G01 X15.22833 Y19.45374
G01 X15.20958 Y19.49900
G01 X15.13564 Y19.63731
G01 X15.10842 Y19.67807
G01 X15.00892 Y19.79931
G01 X14.97428 Y19.83395
G01 X14.85304 Y19.93345
G01 X14.81230 Y19.96067
G01 X14.67397 Y20.03459
G01 X14.62871 Y20.05336
G01 X14.47862 Y20.09888
G01 X14.43057 Y20.10843
G01 X14.26186 Y20.12382
G01 X13.47326 Y20.91241
G01 X13.54736 Y20.83830
G01 X13.66663 Y20.74198
G01 X13.84817 Y20.64495
G01 X14.02135 Y20.59115
G01 X14.06940 Y20.58158
G01 X14.22549 Y20.56621
G01 X14.27448 Y20.56621
G01 X14.43057 Y20.58158
G01 X14.47862 Y20.59115
G01 X14.65180 Y20.64495
G01 X14.83333 Y20.74198
G01 X14.97428 Y20.85608
G01 X15.00892 Y20.89072
G01 X15.10842 Y21.01196
G01 X15.13564 Y21.05270
G01 X15.20958 Y21.19103
G01 X15.22833 Y21.23629
G01 X15.27981 Y21.41018
G01 X15.29998 Y21.61500
G01 X15.28342 Y21.79560
G01 X15.27385 Y21.84365
G01 X15.22005 Y22.01683
G01 X15.13564 Y22.17731
G01 X15.10842 Y22.21807
G01 X15.00892 Y22.33931
G01 X14.97428 Y22.37395
G01 X14.83333 Y22.48805
G01 X14.65180 Y22.58508
G01 X14.47862 Y22.63888
G01 X14.43057 Y22.64843
G01 X14.27448 Y22.66382
G01 X14.22549 Y22.66382
G01 X14.06940 Y22.64843
G01 X14.02135 Y22.63888
G01 X13.84817 Y22.58508
G01 X13.66663 Y22.48805
G01 X13.52572 Y22.37395
G01 X13.49104 Y22.33931
G01 X13.39155 Y22.21807
G01 X13.36432 Y22.17731
G01 X13.29041 Y22.03900
G01 X13.27164 Y21.99374
G01 X13.22015 Y21.81985
G01 X13.20118 Y21.63951
G01 X13.20118 Y21.59052
G01 X13.22015 Y21.41018
G01 X13.27164 Y21.23629
G01 X13.29041 Y21.19103
G01 X13.36432 Y21.05270
G01 X13.39155 Y21.01196
G01 X13.47326 Y20.91241
G01 X10.09997 Y24.28568
G01 X10.09997 Y35.44086
G01 X10.20842 Y35.57195
G01 X10.23563 Y35.61271
G01 X10.30954 Y35.75102
G01 X10.32834 Y35.79630
G01 X10.37982 Y35.97017
G01 X10.39999 Y36.17502
G01 X10.38341 Y36.35559
G01 X10.37386 Y36.40364
G01 X10.32006 Y36.57682
G01 X10.23563 Y36.73732
G01 X10.20842 Y36.77807
G01 X10.10893 Y36.89930
G01 X10.07424 Y36.93395
G01 X9.93334 Y37.04807
G01 X9.77398 Y37.13461
G01 X9.72870 Y37.15335
G01 X9.57858 Y37.19887
G01 X9.53058 Y37.20844
G01 X9.37449 Y37.22381
G01 X9.32550 Y37.22381
G01 X9.16941 Y37.20844
G01 X9.12136 Y37.19887
G01 X8.94818 Y37.14510
G01 X8.76659 Y37.04807
G01 X8.62570 Y36.93395
G01 X8.59105 Y36.89930
G01 X8.49156 Y36.77807
G01 X8.46431 Y36.73732
G01 X8.39039 Y36.59902
G01 X8.37165 Y36.55373
G01 X8.32613 Y36.40364
G01 X8.31656 Y36.35559
G01 X8.30119 Y36.19953
G01 X8.30119 Y36.15051
G01 X8.31656 Y35.99442
G01 X8.32613 Y35.94637
G01 X8.37165 Y35.79630
G01 X8.39039 Y35.75102
G01 X8.46431 Y35.61271
G01 X8.49156 Y35.57195
G01 X8.57333 Y35.47233
G01 X7.85938 Y36.18622
G01 X7.84341 Y36.35559
G01 X7.83386 Y36.40364
G01 X7.78834 Y36.55373
G01 X7.76957 Y36.59902
G01 X7.69565 Y36.73732
G01 X7.66843 Y36.77807
G01 X7.56893 Y36.89930
G01 X7.53426 Y36.93395
G01 X7.39334 Y37.04807
G01 X7.23398 Y37.13461
G01 X7.18870 Y37.15335
G01 X7.03863 Y37.19887
G01 X6.99058 Y37.20844
G01 X6.83449 Y37.22381
G01 X6.78550 Y37.22381
G01 X6.62941 Y37.20844
G01 X6.58136 Y37.19887
G01 X6.40818 Y37.14510
G01 X6.24768 Y37.06067
G01 X6.20693 Y37.03344
G01 X6.08570 Y36.93395
G01 X6.05105 Y36.89930
G01 X5.95156 Y36.77807
G01 X5.92433 Y36.73732
G01 X5.83990 Y36.57682
G01 X5.78613 Y36.40364
G01 X5.77656 Y36.35559
G01 X5.76119 Y36.19953
G01 X5.76119 Y36.15051
G01 X5.77656 Y35.99442
G01 X5.78613 Y35.94637
G01 X5.83165 Y35.79630
G01 X5.85039 Y35.75102
G01 X5.92433 Y35.61271
G01 X5.95156 Y35.57195
G01 X6.05105 Y35.45074
G01 X6.08570 Y35.41607
G01 X6.20693 Y35.31657
G01 X6.24768 Y35.28935
G01 X6.40818 Y35.20494
G01 X6.58136 Y35.15114
G01 X6.62941 Y35.14159
G01 X6.79812 Y35.12623
G01 X7.37998 Y34.54436
G01 X7.37996 Y32.82501
G01 X5.83000 Y32.82501
G01 X5.78121 Y32.82021
G01 X5.73432 Y32.80599
G01 X5.69109 Y32.78287
G01 X5.65321 Y32.75178
G01 X5.62212 Y32.71391
G01 X5.59901 Y32.67068
G01 X5.58479 Y32.62379
G01 X5.57999 Y32.57500
G01 X5.57999 Y30.97500
G01 X5.58479 Y30.92624
G01 X5.59901 Y30.87935
G01 X5.62212 Y30.83612
G01 X5.65321 Y30.79824
G01 X5.69109 Y30.76716
G01 X5.73432 Y30.74404
G01 X5.78121 Y30.72982
G01 X5.83000 Y30.72502
G01 X7.37996 Y30.72502
G01 X7.37998 Y29.96822
G01 X7.38501 Y29.95611
G01 X7.37922 Y29.96995
G01 X7.35428 Y29.99395
G01 X7.23302 Y30.09345
G01 X7.19230 Y30.12067
G01 X7.03180 Y30.20508
G01 X6.85862 Y30.25888
G01 X6.81057 Y30.26843
G01 X6.65448 Y30.28382
G01 X6.60549 Y30.28382
G01 X6.44940 Y30.26843
G01 X6.40135 Y30.25888
G01 X6.22817 Y30.20508
G01 X6.06769 Y30.12067
G01 X6.02692 Y30.09345
G01 X5.90572 Y29.99395
G01 X5.87104 Y29.95931
G01 X5.77155 Y29.83807
G01 X5.74432 Y29.79731
G01 X5.65992 Y29.63683
G01 X5.60612 Y29.46365
G01 X5.59657 Y29.41560
G01 X5.58118 Y29.25951
G01 X5.58118 Y29.21052
G01 X5.59657 Y29.05443
G01 X5.60612 Y29.00638
G01 X5.65164 Y28.85629
G01 X5.67041 Y28.81103
G01 X5.74432 Y28.67270
G01 X5.77155 Y28.63196
G01 X5.87104 Y28.51072
G01 X5.90572 Y28.47608
G01 X6.02692 Y28.37658
G01 X6.06769 Y28.34935
G01 X6.22817 Y28.26495
G01 X6.40135 Y28.21115
G01 X6.44940 Y28.20158
G01 X6.60549 Y28.18621
G01 X6.65448 Y28.18621
G01 X6.81057 Y28.20158
G01 X6.85862 Y28.21115
G01 X7.03180 Y28.26495
G01 X7.19230 Y28.34935
G01 X7.23302 Y28.37658
G01 X7.35428 Y28.47608
G01 X7.37922 Y28.50005
G01 X7.38501 Y28.51395
G01 X7.37998 Y28.50183
G01 X7.37998 Y27.42822
G01 X7.38501 Y27.41611
G01 X7.37922 Y27.42995
G01 X7.35428 Y27.45395
G01 X7.23302 Y27.55345
G01 X7.19230 Y27.58067
G01 X7.03180 Y27.66508
G01 X6.85862 Y27.71888
G01 X6.81057 Y27.72843
G01 X6.65448 Y27.74382
G01 X6.60549 Y27.74382
G01 X6.44940 Y27.72843
G01 X6.40135 Y27.71888
G01 X6.22817 Y27.66508
G01 X6.06769 Y27.58067
G01 X6.02692 Y27.55345
G01 X5.90572 Y27.45395
G01 X5.87104 Y27.41931
G01 X5.77155 Y27.29807
G01 X5.74432 Y27.25731
G01 X5.65992 Y27.09683
G01 X5.60612 Y26.92365
G01 X5.59657 Y26.87560
G01 X5.58118 Y26.71951
G01 X5.58118 Y26.67052
G01 X5.59657 Y26.51443
G01 X5.60612 Y26.46638
G01 X5.65164 Y26.31629
G01 X5.67041 Y26.27103
G01 X5.74432 Y26.13270
G01 X5.77155 Y26.09196
G01 X5.87104 Y25.97072
G01 X5.90572 Y25.93608
G01 X6.02692 Y25.83658
G01 X6.06769 Y25.80935
G01 X6.22817 Y25.72495
G01 X6.40135 Y25.67115
G01 X6.44940 Y25.66158
G01 X6.60549 Y25.64621
G01 X6.65448 Y25.64621
G01 X6.81057 Y25.66158
G01 X6.85862 Y25.67115
G01 X7.03180 Y25.72495
G01 X7.19230 Y25.80935
G01 X7.23302 Y25.83658
G01 X7.35428 Y25.93608
G01 X7.37922 Y25.96005
G01 X7.38501 Y25.97395
G01 X7.37998 Y25.96183
G01 X7.37998 Y24.88822
G01 X7.38501 Y24.87611
G01 X7.37922 Y24.88995
G01 X7.35428 Y24.91395
G01 X7.23302 Y25.01345
G01 X7.19230 Y25.04067
G01 X7.03180 Y25.12508
G01 X6.85862 Y25.17888
G01 X6.81057 Y25.18843
G01 X6.65448 Y25.20382
G01 X6.60549 Y25.20382
G01 X6.44940 Y25.18843
G01 X6.40135 Y25.17888
G01 X6.22817 Y25.12508
G01 X6.06769 Y25.04067
G01 X6.02692 Y25.01345
G01 X5.90572 Y24.91395
G01 X5.87104 Y24.87931
G01 X5.77155 Y24.75807
G01 X5.74432 Y24.71731
G01 X5.67041 Y24.57900
G01 X5.65164 Y24.53374
G01 X5.60612 Y24.38365
G01 X5.59657 Y24.33560
G01 X5.58118 Y24.17951
G01 X5.58118 Y24.13052
G01 X5.59657 Y23.97443
G01 X5.60612 Y23.92638
G01 X5.65164 Y23.77629
G01 X5.67041 Y23.73103
G01 X5.74432 Y23.59270
G01 X5.77155 Y23.55196
G01 X5.87104 Y23.43072
G01 X5.90572 Y23.39608
G01 X6.02692 Y23.29658
G01 X6.06769 Y23.26935
G01 X6.22817 Y23.18495
G01 X6.40135 Y23.13115
G01 X6.44940 Y23.12158
G01 X6.60549 Y23.10621
G01 X6.65448 Y23.10621
G01 X6.81057 Y23.12158
G01 X6.85862 Y23.13115
G01 X7.00866 Y23.17667
G01 X7.05397 Y23.19544
G01 X7.21331 Y23.28198
G01 X7.35428 Y23.39608
G01 X7.37922 Y23.42005
G01 X7.38501 Y23.43395
G01 X7.37998 Y23.42183
G01 X7.37998 Y22.34822
G01 X7.38501 Y22.33611
G01 X7.37998 Y22.34822
G01 X7.37998 Y23.42183
G01 X7.44112 Y23.59077
G01 X7.49134 Y23.78353
G01 X7.51991 Y23.96702
G01 X7.52974 Y24.16483
G01 X7.51991 Y24.34306
G01 X7.49134 Y24.52650
G01 X7.44112 Y24.71929
G01 X7.37998 Y24.88822
G01 X7.37998 Y25.96183
G01 X7.44112 Y26.13077
G01 X7.49134 Y26.32353
G01 X7.51991 Y26.50702
G01 X7.52974 Y26.70483
G01 X7.51991 Y26.88306
G01 X7.49134 Y27.06650
G01 X7.44112 Y27.25929
G01 X7.37998 Y27.42822
G01 X7.37998 Y28.50183
G01 X7.44112 Y28.67077
G01 X7.49134 Y28.86353
G01 X7.51991 Y29.04702
G01 X7.52974 Y29.24483
G01 X7.51991 Y29.42306
G01 X7.49134 Y29.60650
G01 X7.44112 Y29.79929
G01 X7.37998 Y29.96822
G01 X7.37996 Y30.72502
G01 X7.47373 Y30.82504
G01 X7.50495 Y30.87503
G01 X7.52367 Y30.92502
G01 X7.52997 Y30.97500
G01 X7.52997 Y32.57500
G01 X7.52367 Y32.62501
G01 X7.50495 Y32.67500
G01 X7.47373 Y32.72499
G01 X7.37996 Y32.82501
G01 X7.37998 Y34.54436
G01 X6.79812 Y35.12623
G01 X6.62941 Y35.14159
G01 X6.58136 Y35.15114
G01 X6.40818 Y35.20494
G01 X6.24768 Y35.28935
G01 X6.20693 Y35.31657
G01 X6.08570 Y35.41607
G01 X6.05105 Y35.45074
G01 X5.95156 Y35.57195
G01 X5.92433 Y35.61271
G01 X5.83990 Y35.77319
G01 X5.78613 Y35.94637
G01 X5.77656 Y35.99442
G01 X5.76119 Y36.15051
G01 X5.76119 Y36.19953
G01 X5.77656 Y36.35559
G01 X5.78613 Y36.40364
G01 X5.83990 Y36.57682
G01 X5.92433 Y36.73732
G01 X5.95156 Y36.77807
G01 X6.05105 Y36.89930
G01 X6.08570 Y36.93395
G01 X6.20693 Y37.03344
G01 X6.24768 Y37.06067
G01 X6.40818 Y37.14510
G01 X6.58136 Y37.19887
G01 X6.62941 Y37.20844
G01 X6.78550 Y37.22381
G01 X6.83449 Y37.22381
G01 X6.99058 Y37.20844
G01 X7.03863 Y37.19887
G01 X7.21181 Y37.14510
G01 X7.39334 Y37.04807
G01 X7.53426 Y36.93395
G01 X7.56893 Y36.89930
G01 X7.66843 Y36.77807
G01 X7.69565 Y36.73732
G01 X7.76957 Y36.59902
G01 X7.78834 Y36.55373
G01 X7.83386 Y36.40364
G01 X7.84341 Y36.35559
G01 X7.85938 Y36.18622
G01 X8.60182 Y35.44119
G01 X8.64330 Y35.33969
G01 X8.68829 Y35.20903
G01 X8.71285 Y35.11104
G01 X8.73263 Y34.98663
G01 X8.73997 Y34.85501
G01 X8.73997 Y23.97504
G01 X8.74729 Y23.84345
G01 X8.76708 Y23.71906
G01 X8.80157 Y23.58840
G01 X8.87998 Y23.38437
G01 X8.87998 Y20.42567
G01 X13.52655 Y15.77717
G01 X13.66663 Y15.66198
G01 X13.82599 Y15.57544
G01 X13.87126 Y15.55667
G01 X14.02135 Y15.51115
G01 X14.06940 Y15.50158
G01 X14.22549 Y15.48621
G01 X14.27448 Y15.48621
G01 X14.43057 Y15.50158
G01 X14.47862 Y15.51115
G01 X14.65180 Y15.56495
G01 X14.83333 Y15.66198
G01 X14.97428 Y15.77608
G01 X15.00892 Y15.81072
G01 X15.10842 Y15.93196
G01 X15.13564 Y15.97270
G01 X15.20958 Y16.11103
G01 X15.22833 Y16.15629
G01 X15.27981 Y16.33018
G01 X15.29879 Y16.51052
G01 X15.29879 Y16.55951
G01 X15.28342 Y16.71560
G01 X15.27385 Y16.76365
G01 X15.22005 Y16.93683
G01 X15.13564 Y17.09731
G01 X15.10842 Y17.13807
G01 X15.00892 Y17.25931
G01 X14.97428 Y17.29395
G01 X14.85304 Y17.39345
G01 X14.81230 Y17.42067
G01 X14.65180 Y17.50508
G01 X14.47862 Y17.55888
G01 X14.43057 Y17.56843
G01 X14.27448 Y17.58382
G01 X14.22549 Y17.58382
G01 X14.06940 Y17.56843
G01 X14.02135 Y17.55888
G01 X13.84817 Y17.50508
G01 X13.68769 Y17.42067
G01 X13.64692 Y17.39345
G01 X13.52572 Y17.29395
G01 X13.49104 Y17.25931
G01 X13.39155 Y17.13807
G01 X13.36432 Y17.09731
G01 X13.29041 Y16.95900
G01 X13.27164 Y16.91374
G01 X13.22015 Y16.73985
G01 X13.20118 Y16.55951
G01 X13.20118 Y16.51052
G01 X13.22015 Y16.33018
G01 X13.27164 Y16.15629
G01 X13.29041 Y16.11103
G01 X13.36432 Y15.97270
G01 X13.39155 Y15.93196
G01 X13.49211 Y15.81161
G01 X14.26186 Y15.04382
G01 X14.43057 Y15.02843
G01 X14.47862 Y15.01888
G01 X14.62871 Y14.97336
G01 X14.67397 Y14.95459
G01 X14.81230 Y14.88067
G01 X14.85304 Y14.85345
G01 X14.97428 Y14.75395
G01 X15.00892 Y14.71931
G01 X15.10842 Y14.59807
G01 X15.13564 Y14.55731
G01 X15.20958 Y14.41900
G01 X15.22833 Y14.37374
G01 X15.27385 Y14.22365
G01 X15.28342 Y14.17560
G01 X15.29998 Y13.99500
G01 X15.27981 Y13.79018
G01 X15.22833 Y13.61629
G01 X15.20958 Y13.57103
G01 X15.13564 Y13.43270
G01 X15.10842 Y13.39196
G01 X15.00892 Y13.27072
G01 X14.97428 Y13.23608
G01 X14.83333 Y13.12198
G01 X14.65180 Y13.02495
G01 X14.47862 Y12.97115
G01 X14.43057 Y12.96158
G01 X14.27448 Y12.94621
G01 X14.22549 Y12.94621
G01 X14.06940 Y12.96158
G01 X14.02135 Y12.97115
G01 X13.84817 Y13.02495
G01 X13.66663 Y13.12198
G01 X13.52572 Y13.23608
G01 X13.49104 Y13.27072
G01 X13.39155 Y13.39196
G01 X13.36432 Y13.43270
G01 X13.29041 Y13.57103
G01 X13.27164 Y13.61629
G01 X13.22015 Y13.79018
G01 X13.20118 Y13.98314
G01 X7.58318 Y19.60286
G01 X7.52100 Y19.67863
G01 X7.49377 Y19.71937
G01 X7.43708 Y19.82801
G01 X7.39438 Y19.96870
G01 X7.38118 Y20.09052
G01 X7.37998 Y20.88183
G01 X7.44112 Y21.05077
G01 X7.49134 Y21.24353
G01 X7.51991 Y21.42702
G01 X7.52974 Y21.62483
G01 X7.51991 Y21.80306
G01 X7.49134 Y21.98650
G01 X7.44112 Y22.17929
G01 X7.38501 Y22.33611
G01 X7.37244 Y22.35747
G01 X7.21331 Y22.48805
G01 X7.03180 Y22.58508
G01 X6.85862 Y22.63888
G01 X6.81057 Y22.64843
G01 X6.65448 Y22.66382
G01 X6.60549 Y22.66382
G01 X6.44940 Y22.64843
G01 X6.40135 Y22.63888
G01 X6.22817 Y22.58508
G01 X6.06769 Y22.50067
G01 X6.02692 Y22.47345
G01 X5.90572 Y22.37395
G01 X5.87104 Y22.33931
G01 X5.77155 Y22.21807
G01 X5.74432 Y22.17731
G01 X5.65992 Y22.01683
G01 X5.60612 Y21.84365
G01 X5.59657 Y21.79560
G01 X5.58118 Y21.63951
G01 X5.58118 Y21.59052
G01 X5.59657 Y21.43443
G01 X5.60612 Y21.38638
G01 X5.65992 Y21.21320
G01 X5.74432 Y21.05270
G01 X5.77155 Y21.01196
G01 X5.87104 Y20.89072
G01 X5.90572 Y20.85608
G01 X6.02692 Y20.75658
G01 X6.06769 Y20.72935
G01 X6.22817 Y20.64495
G01 X6.40135 Y20.59115
G01 X6.44940 Y20.58158
G01 X6.60549 Y20.56621
G01 X6.65448 Y20.56621
G01 X6.81057 Y20.58158
G01 X6.85862 Y20.59115
G01 X7.03180 Y20.64495
G01 X7.21331 Y20.74198
G01 X7.35428 Y20.85608
G01 X7.37922 Y20.88005
G01 X7.38501 Y20.89395
G04 P0 ( dwell for no time -- G64 should not smooth over this point )
G00 Z5.00000 ( retract )

G00 X5.58118 Y19.05052 ( rapid move to begin. )
G01 F300.00000
( Mill infeed pass 1/1 )
G01 Z-0.02000
G04 P0 ( dwell for no time -- G64 should not smooth over this point )
G01 F600.00000
G01 X5.58118 Y19.05052
G01 X5.59657 Y18.89443
G01 X5.60612 Y18.84638
G01 X5.65164 Y18.69629
G01 X5.67041 Y18.65103
G01 X5.74432 Y18.51270
G01 X5.77155 Y18.47196
G01 X5.87104 Y18.35072
G01 X5.90572 Y18.31608
G01 X6.02692 Y18.21658
G01 X6.06769 Y18.18935
G01 X6.22817 Y18.10495
G01 X6.40135 Y18.05115
G01 X6.44940 Y18.04158
G01 X6.60549 Y18.02621
G01 X6.65448 Y18.02621
G01 X6.81057 Y18.04158
G01 X6.85862 Y18.05115
G01 X7.03180 Y18.10495
G01 X7.21331 Y18.20198
G01 X7.37244 Y18.33256
G01 X7.48842 Y18.47196
G01 X7.51562 Y18.51270
G01 X7.58953 Y18.65103
G01 X7.60833 Y18.69629
G01 X7.65385 Y18.84638
G01 X7.66342 Y18.89443
G01 X7.67998 Y19.07500
G01 X7.66342 Y19.25560
G01 X7.65385 Y19.30365
G01 X7.60833 Y19.45374
G01 X7.58953 Y19.49900
G01 X7.51562 Y19.63731
G01 X7.48842 Y19.67807
G01 X7.37244 Y19.81747
G01 X7.21331 Y19.94805
G01 X7.05397 Y20.03459
G01 X7.00866 Y20.05336
G01 X6.85862 Y20.09888
G01 X6.81057 Y20.10843
G01 X6.65448 Y20.12382
G01 X6.60549 Y20.12382
G01 X6.44940 Y20.10843
G01 X6.40135 Y20.09888
G01 X6.22817 Y20.04508
G01 X6.06769 Y19.96067
G01 X6.02692 Y19.93345
G01 X5.90572 Y19.83395
G01 X5.87104 Y19.79931
G01 X5.77155 Y19.67807
G01 X5.74432 Y19.63731
G01 X5.65992 Y19.47683
G01 X5.60612 Y19.30365
G01 X5.59657 Y19.25560
G01 X5.58118 Y19.09951
G01 X5.58118 Y16.51052
G01 X5.58118 Y16.55951
G01 X5.59657 Y16.71560
G01 X5.60612 Y16.76365
G01 X5.65992 Y16.93683
G01 X5.74432 Y17.09731
G01 X5.77155 Y17.13807
G01 X5.87104 Y17.25931
G01 X5.90572 Y17.29395
G01 X6.02692 Y17.39345
G01 X6.06769 Y17.42067
G01 X6.22817 Y17.50508
G01 X6.40135 Y17.55888
G01 X6.44940 Y17.56843
G01 X6.60549 Y17.58382
G01 X6.65448 Y17.58382
G01 X6.81057 Y17.56843
G01 X6.85862 Y17.55888
G01 X7.03180 Y17.50508
G01 X7.21331 Y17.40805
G01 X7.37244 Y17.27747
G01 X7.48842 Y17.13807
G01 X7.51562 Y17.09731
G01 X7.58953 Y16.95900
G01 X7.60833 Y16.91374
G01 X7.65385 Y16.76365
G01 X7.66342 Y16.71560
G01 X7.67998 Y16.53500
G01 X7.66342 Y16.35443
G01 X7.65385 Y16.30638
G01 X7.60833 Y16.15629
G01 X7.58953 Y16.11103
G01 X7.51562 Y15.97270
G01 X7.48842 Y15.93196
G01 X7.37244 Y15.79256
G01 X7.21331 Y15.66198
G01 X7.03180 Y15.56495
G01 X6.85862 Y15.51115
G01 X6.81057 Y15.50158
G01 X6.65448 Y15.48621
G01 X6.60549 Y15.48621
G01 X6.44940 Y15.50158
G01 X6.40135 Y15.51115
G01 X6.22817 Y15.56495
G01 X6.06769 Y15.64935
G01 X6.02692 Y15.67658
G01 X5.90572 Y15.77608
G01 X5.87104 Y15.81072
G01 X5.77155 Y15.93196
G01 X5.74432 Y15.97270
G01 X5.65992 Y16.13320
G01 X5.60612 Y16.30638
G01 X5.59657 Y16.35443
G01 X5.58118 Y16.51052
G01 X5.58118 Y13.97052
G01 X5.58118 Y14.01951
G01 X5.59657 Y14.17560
G01 X5.60612 Y14.22365
G01 X5.65992 Y14.39683
G01 X5.74432 Y14.55731
G01 X5.77155 Y14.59807
G01 X5.87104 Y14.71931
G01 X5.90572 Y14.75395
G01 X6.02692 Y14.85345
G01 X6.06769 Y14.88067
G01 X6.22817 Y14.96508
G01 X6.40135 Y15.01888
G01 X6.44940 Y15.02843
G01 X6.60549 Y15.04382
G01 X6.65448 Y15.04382
G01 X6.81057 Y15.02843
G01 X6.85862 Y15.01888
G01 X7.03180 Y14.96508
G01 X7.21331 Y14.86805
G01 X7.37244 Y14.73747
G01 X7.48842 Y14.59807
G01 X7.51562 Y14.55731
G01 X7.58953 Y14.41900
G01 X7.60833 Y14.37374
G01 X7.65385 Y14.22365
G01 X7.66342 Y14.17560
G01 X7.67998 Y13.99500
G01 X7.66342 Y13.81443
G01 X7.65385 Y13.76638
G01 X7.60833 Y13.61629
G01 X7.58953 Y13.57103
G01 X7.51562 Y13.43270
G01 X7.48842 Y13.39196
G01 X7.37244 Y13.25256
G01 X7.21331 Y13.12198
G01 X7.03180 Y13.02495
G01 X6.85862 Y12.97115
G01 X6.81057 Y12.96158
G01 X6.65448 Y12.94621
G01 X6.60549 Y12.94621
G01 X6.44940 Y12.96158
G01 X6.40135 Y12.97115
G01 X6.22817 Y13.02495
G01 X6.06769 Y13.10935
G01 X6.02692 Y13.13658
G01 X5.90572 Y13.23608
G01 X5.87104 Y13.27072
G01 X5.77155 Y13.39196
G01 X5.74432 Y13.43270
G01 X5.65992 Y13.59320
G01 X5.60612 Y13.76638
G01 X5.59657 Y13.81443
G01 X5.58118 Y13.97052
G01 X5.38118 Y10.15051
G01 X5.39657 Y9.99443
G01 X5.40612 Y9.94637
G01 X5.45992 Y9.77319
G01 X5.54432 Y9.61271
G01 X5.57155 Y9.57195
G01 X5.67105 Y9.45074
G01 X5.70572 Y9.41607
G01 X5.82692 Y9.31658
G01 X5.86769 Y9.28935
G01 X6.00599 Y9.21543
G01 X6.05126 Y9.19666
G01 X6.20135 Y9.15115
G01 X6.24940 Y9.14160
G01 X6.40549 Y9.12623
G01 X6.45448 Y9.12623
G01 X6.61057 Y9.14160
G01 X6.65862 Y9.15115
G01 X6.83180 Y9.20494
G01 X6.99230 Y9.28935
G01 X7.03304 Y9.31658
G01 X7.17244 Y9.43255
G01 X7.28836 Y9.57195
G01 X7.31564 Y9.61271
G01 X7.38956 Y9.75102
G01 X7.40828 Y9.79631
G01 X7.45380 Y9.94637
G01 X7.46342 Y9.99443
G01 X7.47879 Y10.15051
G01 X7.47879 Y10.19951
G01 X7.46342 Y10.35559
G01 X7.45380 Y10.40365
G01 X7.40828 Y10.55373
G01 X7.38956 Y10.59900
G01 X7.31564 Y10.73732
G01 X7.28836 Y10.77807
G01 X7.18892 Y10.89930
G01 X7.15425 Y10.93395
G01 X7.03304 Y11.03344
G01 X6.99230 Y11.06067
G01 X6.83180 Y11.14510
G01 X6.65862 Y11.19887
G01 X6.61057 Y11.20844
G01 X6.45448 Y11.22381
G01 X6.40549 Y11.22381
G01 X6.24940 Y11.20844
G01 X6.20135 Y11.19887
G01 X6.02817 Y11.14510
G01 X5.86769 Y11.06067
G01 X5.82692 Y11.03344
G01 X5.70572 Y10.93395
G01 X5.67105 Y10.89930
G01 X5.57155 Y10.77807
G01 X5.54432 Y10.73732
G01 X5.47041 Y10.59900
G01 X5.45164 Y10.55373
G01 X5.40612 Y10.40365
G01 X5.39657 Y10.35559
G01 X5.38664 Y10.25495
G01 X5.38118 Y10.19951
G01 X5.38118 Y10.15051
G04 P0 ( dwell for no time -- G64 should not smooth over this point )
G00 Z5.00000 ( retract )

G00 X7.92118 Y10.15051 ( rapid move to begin. )
G01 F300.00000
( Mill infeed pass 1/1 )
G01 Z-0.02000
G04 P0 ( dwell for no time -- G64 should not smooth over this point )
G01 F600.00000
G01 X7.92118 Y10.15051
G01 X7.94015 Y9.97017
G01 X7.99164 Y9.79631
G01 X8.01041 Y9.75102
G01 X8.08432 Y9.61271
G01 X8.11155 Y9.57195
G01 X8.21105 Y9.45074
G01 X8.24572 Y9.41607
G01 X8.38664 Y9.30197
G01 X8.56817 Y9.20494
G01 X8.74135 Y9.15115
G01 X8.78935 Y9.14160
G01 X8.94549 Y9.12623
G01 X8.99448 Y9.12623
G01 X9.15057 Y9.14160
G01 X9.19862 Y9.15115
G01 X9.37180 Y9.20494
G01 X9.55333 Y9.30197
G01 X9.69428 Y9.41607
G01 X9.72892 Y9.45074
G01 X9.82842 Y9.57195
G01 X9.85564 Y9.61271
G01 X9.92958 Y9.75102
G01 X9.94833 Y9.79631
G01 X9.99981 Y9.97017
G01 X10.01879 Y10.15051
G01 X10.01879 Y10.19951
G01 X9.99981 Y10.37985
G01 X9.94833 Y10.55373
G01 X9.92958 Y10.59900
G01 X9.85564 Y10.73732
G01 X9.82842 Y10.77807
G01 X9.72892 Y10.89930
G01 X9.69428 Y10.93395
G01 X9.55333 Y11.04807
G01 X9.37180 Y11.14510
G01 X9.19862 Y11.19887
G01 X9.15057 Y11.20844
G01 X8.99448 Y11.22381
G01 X8.94549 Y11.22381
G01 X8.78935 Y11.20844
G01 X8.74135 Y11.19887
G01 X8.56817 Y11.14510
G01 X8.38664 Y11.04807
G01 X8.24572 Y10.93395
G01 X8.21105 Y10.89930
G01 X8.11155 Y10.77807
G01 X8.08432 Y10.73732
G01 X8.01041 Y10.59900
G01 X7.99164 Y10.55373
G01 X7.94015 Y10.37985
G01 X7.92118 Y10.19951
G01 X7.92118 Y10.15051
G04 P0 ( dwell for no time -- G64 should not smooth over this point )
G00 Z5.00000 ( retract )

G00 X10.46118 Y10.15051 ( rapid move to begin. )
G01 F300.00000
( Mill infeed pass 1/1 )
G01 Z-0.02000
G04 P0 ( dwell for no time -- G64 should not smooth over this point )
G01 F600.00000
G01 X10.46118 Y10.15051
G01 X10.48015 Y9.97017
G01 X10.53164 Y9.79631
G01 X10.55041 Y9.75102
G01 X10.62427 Y9.61271
G01 X10.65155 Y9.57195
G01 X10.75105 Y9.45074
G01 X10.78567 Y9.41607
G01 X10.92664 Y9.30197
G01 X11.10814 Y9.20494
G01 X11.28132 Y9.15115
G01 X11.32940 Y9.14160
G01 X11.48549 Y9.12623
G01 X11.53448 Y9.12623
G01 X11.69057 Y9.14160
G01 X11.73862 Y9.15115
G01 X11.91180 Y9.20494
G01 X12.09333 Y9.30197
G01 X12.23428 Y9.41607
G01 X12.26892 Y9.45074
G01 X12.36842 Y9.57195
G01 X12.39564 Y9.61271
G01 X12.46958 Y9.75102
G01 X12.48833 Y9.79631
G01 X12.53981 Y9.97017
G01 X12.55879 Y10.15051
G01 X12.55879 Y10.19951
G01 X12.53981 Y10.37985
G01 X12.48833 Y10.55373
G01 X12.46958 Y10.59900
G01 X12.39564 Y10.73732
G01 X12.36842 Y10.77807
G01 X12.26892 Y10.89930
G01 X12.23428 Y10.93395
G01 X12.09333 Y11.04807
G01 X11.91180 Y11.14510
G01 X11.73862 Y11.19887
G01 X11.69057 Y11.20844
G01 X11.53448 Y11.22381
G01 X11.48549 Y11.22381
G01 X11.32940 Y11.20844
G01 X11.28132 Y11.19887
G01 X11.10814 Y11.14510
G01 X10.92664 Y11.04807
G01 X10.78567 Y10.93395
G01 X10.75105 Y10.89930
G01 X10.65155 Y10.77807
G01 X10.62427 Y10.73732
G01 X10.55041 Y10.59900
G01 X10.53164 Y10.55373
G01 X10.48015 Y10.37985
G01 X10.46118 Y10.19951
G01 X10.46118 Y10.15051
G04 P0 ( dwell for no time -- G64 should not smooth over this point )
G00 Z5.00000 ( retract )

G00 X13.00118 Y10.15051 ( rapid move to begin. )
G01 F300.00000
( Mill infeed pass 1/1 )
G01 Z-0.02000
G04 P0 ( dwell for no time -- G64 should not smooth over this point )
G01 F600.00000
G01 X13.00118 Y10.15051
G01 X13.02015 Y9.97017
G01 X13.07164 Y9.79631
G01 X13.09041 Y9.75102
G01 X13.16432 Y9.61271
G01 X13.19155 Y9.57195
G01 X13.29105 Y9.45074
G01 X13.32572 Y9.41607
G01 X13.46664 Y9.30197
G01 X13.64817 Y9.20494
G01 X13.82135 Y9.15115
G01 X13.86940 Y9.14160
G01 X14.02549 Y9.12623
G01 X14.07448 Y9.12623
G01 X14.23057 Y9.14160
G01 X14.27862 Y9.15115
G01 X14.45180 Y9.20494
G01 X14.63333 Y9.30197
G01 X14.77428 Y9.41607
G01 X14.80892 Y9.45074
G01 X14.90842 Y9.57195
G01 X14.93564 Y9.61271
G01 X15.00958 Y9.75102
G01 X15.02833 Y9.79631
G01 X15.07981 Y9.97017
G01 X15.09998 Y10.17502
G01 X15.08342 Y10.35559
G01 X15.07385 Y10.40365
G01 X15.02005 Y10.57682
G01 X14.93564 Y10.73732
G01 X14.90842 Y10.77807
G01 X14.80892 Y10.89930
G01 X14.77428 Y10.93395
G01 X14.63333 Y11.04807
G01 X14.45180 Y11.14510
G01 X14.27862 Y11.19887
G01 X14.23057 Y11.20844
G01 X14.07448 Y11.22381
G01 X14.02549 Y11.22381
G01 X13.86940 Y11.20844
G01 X13.82135 Y11.19887
G01 X13.64817 Y11.14510
G01 X13.46664 Y11.04807
G01 X13.32572 Y10.93395
G01 X13.29105 Y10.89930
G01 X13.19155 Y10.77807
G01 X13.16432 Y10.73732
G01 X13.09041 Y10.59900
G01 X13.07164 Y10.55373
G01 X13.02015 Y10.37985
G01 X13.00118 Y10.19951
G01 X13.00118 Y10.15051
G04 P0 ( dwell for no time -- G64 should not smooth over this point )
G00 Z5.00000 ( retract )

G00 X16.12998 Y14.97501 ( rapid move to begin. )
G01 F300.00000
( Mill infeed pass 1/1 )
G01 Z-0.02000
G04 P0 ( dwell for no time -- G64 should not smooth over this point )
G01 F600.00000
G01 X16.12998 Y14.97501
G01 X16.13600 Y15.04829
G01 X16.14555 Y15.09635
G01 X16.16805 Y15.16635
G01 X16.20163 Y15.23175
G01 X16.25995 Y15.31039
G01 X16.33249 Y15.37613
G01 X16.37323 Y15.40336
G01 X16.46175 Y15.44521
G01 X16.53244 Y15.46541
G01 X16.62998 Y15.47501
G01 X18.23000 Y15.47501
G01 X18.32753 Y15.46541
G01 X18.39822 Y15.44521
G01 X18.44351 Y15.42647
G01 X18.52748 Y15.37613
G01 X18.60003 Y15.31039
G01 X18.65834 Y15.23175
G01 X18.68143 Y15.18852
G01 X18.71443 Y15.09635
G01 X18.72398 Y15.04829
G01 X18.73000 Y14.97501
G01 X18.72878 Y13.35050
G01 X18.71443 Y13.25368
G01 X18.70020 Y13.20676
G01 X18.65834 Y13.11827
G01 X18.63112 Y13.07753
G01 X18.58354 Y13.02147
G01 X18.52748 Y12.97390
G01 X18.44351 Y12.92355
G01 X18.39822 Y12.90481
G01 X18.32753 Y12.88462
G01 X18.25448 Y12.87621
G01 X16.62998 Y12.87501
G01 X16.55672 Y12.88101
G01 X16.50864 Y12.89058
G01 X16.41646 Y12.92355
G01 X16.33249 Y12.97390
G01 X16.25995 Y13.03963
G01 X16.20163 Y13.11827
G01 X16.16805 Y13.18368
G01 X16.14555 Y13.25368
G01 X16.13600 Y13.30173
G01 X16.12998 Y13.37501
G01 X16.12998 Y19.97500
G01 X16.12998 Y18.37500
G01 X16.13600 Y18.30172
G01 X16.15977 Y18.20678
G01 X16.20163 Y18.11826
G01 X16.22886 Y18.07752
G01 X16.27643 Y18.02146
G01 X16.33249 Y17.97389
G01 X16.37323 Y17.94666
G01 X16.46175 Y17.90480
G01 X16.50864 Y17.89057
G01 X16.55672 Y17.88102
G01 X16.62998 Y17.87500
G01 X18.23000 Y17.87500
G01 X18.32753 Y17.88463
G01 X18.39822 Y17.90480
G01 X18.48672 Y17.94666
G01 X18.52748 Y17.97389
G01 X18.60003 Y18.03965
G01 X18.65834 Y18.11826
G01 X18.69192 Y18.18367
G01 X18.71443 Y18.25367
G01 X18.72878 Y18.35052
G01 X18.73000 Y19.97500
G01 X18.72398 Y20.04828
G01 X18.71443 Y20.09636
G01 X18.69192 Y20.16636
G01 X18.65834 Y20.23174
G01 X18.63112 Y20.27251
G01 X18.56536 Y20.34505
G01 X18.48672 Y20.40337
G01 X18.39822 Y20.44523
G01 X18.35133 Y20.45945
G01 X18.30325 Y20.46900
G01 X18.23000 Y20.47502
G01 X16.62998 Y20.47502
G01 X16.53244 Y20.46540
G01 X16.46175 Y20.44523
G01 X16.37323 Y20.40337
G01 X16.29462 Y20.34505
G01 X16.22886 Y20.27251
G01 X16.20163 Y20.23174
G01 X16.15977 Y20.14325
G01 X16.13600 Y20.04828
G01 X16.12998 Y19.97500
G01 X16.12998 Y23.37502
G01 X16.13600 Y23.30174
G01 X16.14555 Y23.25366
G01 X16.16805 Y23.18368
G01 X16.20163 Y23.11828
G01 X16.22886 Y23.07753
G01 X16.27643 Y23.02145
G01 X16.33249 Y22.97390
G01 X16.41646 Y22.92356
G01 X16.46175 Y22.90481
G01 X16.53244 Y22.88462
G01 X16.62998 Y22.87502
G01 X18.23000 Y22.87502
G01 X18.32753 Y22.88462
G01 X18.39822 Y22.90481
G01 X18.44351 Y22.92356
G01 X18.52748 Y22.97390
G01 X18.58354 Y23.02145
G01 X18.63112 Y23.07753
G01 X18.68143 Y23.16148
G01 X18.71443 Y23.25366
G01 X18.72398 Y23.30174
G01 X18.73000 Y23.37502
G01 X18.73000 Y24.97502
G01 X18.72398 Y25.04829
G01 X18.71443 Y25.09635
G01 X18.69192 Y25.16635
G01 X18.65834 Y25.23176
G01 X18.60003 Y25.31040
G01 X18.52748 Y25.37613
G01 X18.44351 Y25.42648
G01 X18.39822 Y25.44522
G01 X18.32753 Y25.46541
G01 X18.23000 Y25.47501
G01 X16.60549 Y25.47382
G01 X16.53244 Y25.46541
G01 X16.46175 Y25.44522
G01 X16.41646 Y25.42648
G01 X16.33249 Y25.37613
G01 X16.27643 Y25.32856
G01 X16.22886 Y25.27250
G01 X16.20163 Y25.23176
G01 X16.16805 Y25.16635
G01 X16.14555 Y25.09635
G01 X16.13120 Y24.99953
G01 X16.12998 Y23.37502
G01 X16.06998 Y28.43500
G01 X16.07600 Y28.36172
G01 X16.08555 Y28.31367
G01 X16.10806 Y28.24367
G01 X16.14164 Y28.17826
G01 X16.16887 Y28.13752
G01 X16.21644 Y28.08146
G01 X16.27250 Y28.03389
G01 X16.31324 Y28.00666
G01 X16.40176 Y27.96480
G01 X16.47245 Y27.94463
G01 X16.56998 Y27.93500
G01 X18.16998 Y27.93500
G01 X18.26754 Y27.94463
G01 X18.33823 Y27.96480
G01 X18.42672 Y28.00666
G01 X18.46749 Y28.03389
G01 X18.52355 Y28.08146
G01 X18.57110 Y28.13752
G01 X18.62144 Y28.22149
G01 X18.64018 Y28.26678
G01 X18.66398 Y28.36172
G01 X18.66998 Y28.43500
G01 X18.66998 Y30.03500
G01 X18.66398 Y30.10828
G01 X18.65441 Y30.15636
G01 X18.63193 Y30.22636
G01 X18.59832 Y30.29174
G01 X18.57110 Y30.33251
G01 X18.52355 Y30.38857
G01 X18.46749 Y30.43614
G01 X18.38352 Y30.48646
G01 X18.33823 Y30.50521
G01 X18.26754 Y30.52540
G01 X18.16998 Y30.53502
G01 X16.54550 Y30.53381
G01 X16.44865 Y30.51945
G01 X16.35647 Y30.48646
G01 X16.27250 Y30.43614
G01 X16.21644 Y30.38857
G01 X16.16887 Y30.33251
G01 X16.14164 Y30.29174
G01 X16.10806 Y30.22636
G01 X16.08555 Y30.15636
G01 X16.07120 Y30.05951
G01 X16.06998 Y28.43500
G01 X15.92000 Y35.37502
G01 X15.92480 Y35.32625
G01 X15.93902 Y35.27934
G01 X15.96211 Y35.23613
G01 X15.99320 Y35.19824
G01 X16.03110 Y35.16715
G01 X16.07433 Y35.14403
G01 X16.12121 Y35.12981
G01 X16.16998 Y35.12501
G01 X17.76998 Y35.12501
G01 X17.81875 Y35.12981
G01 X17.86566 Y35.14403
G01 X17.90889 Y35.16715
G01 X17.94676 Y35.19824
G01 X17.97785 Y35.23613
G01 X18.00097 Y35.27934
G01 X18.01519 Y35.32625
G01 X18.01999 Y35.37502
G01 X18.01999 Y36.97502
G01 X18.01519 Y37.02378
G01 X18.00097 Y37.07067
G01 X17.97785 Y37.11390
G01 X17.94676 Y37.15180
G01 X17.90889 Y37.18289
G01 X17.86566 Y37.20598
G01 X17.81875 Y37.22020
G01 X17.76998 Y37.22500
G01 X16.16998 Y37.22500
G01 X16.12121 Y37.22020
G01 X16.07433 Y37.20598
G01 X16.03110 Y37.18289
G01 X15.99320 Y37.15180
G01 X15.96211 Y37.11390
G01 X15.93902 Y37.07067
G01 X15.92480 Y37.02378
G01 X15.92000 Y36.97502
G01 X15.92000 Y35.37502
G01 X13.49996 Y32.50822
G01 X13.43882 Y32.33929
G01 X13.38861 Y32.14650
G01 X13.36003 Y31.96304
G01 X13.35023 Y31.78483
G01 X13.36003 Y31.58702
G01 X13.38861 Y31.40350
G01 X13.43882 Y31.21077
G01 X13.49823 Y31.04498
G01 X13.54741 Y30.99827
G01 X13.64692 Y30.91658
G01 X13.68769 Y30.88935
G01 X13.84817 Y30.80495
G01 X14.02135 Y30.75115
G01 X14.06940 Y30.74158
G01 X14.22549 Y30.72621
G01 X14.27448 Y30.72621
G01 X14.43057 Y30.74158
G01 X14.47862 Y30.75115
G01 X14.62871 Y30.79667
G01 X14.67397 Y30.81544
G01 X14.83333 Y30.90198
G01 X14.97428 Y31.01608
G01 X15.00892 Y31.05072
G01 X15.10842 Y31.17196
G01 X15.13564 Y31.21270
G01 X15.20958 Y31.35103
G01 X15.22833 Y31.39629
G01 X15.27981 Y31.57018
G01 X15.29998 Y31.77500
G01 X15.28342 Y31.95560
G01 X15.27385 Y32.00365
G01 X15.22833 Y32.15374
G01 X15.20958 Y32.19900
G01 X15.13564 Y32.33731
G01 X15.10842 Y32.37807
G01 X15.00892 Y32.49931
G01 X14.97428 Y32.53395
G01 X14.85304 Y32.63345
G01 X14.81230 Y32.66067
G01 X14.65180 Y32.74508
G01 X14.47862 Y32.79888
G01 X14.43057 Y32.80843
G01 X14.27448 Y32.82382
G01 X14.22549 Y32.82382
G01 X14.06940 Y32.80843
G01 X14.02135 Y32.79888
G01 X13.84817 Y32.74508
G01 X13.68769 Y32.66067
G01 X13.64692 Y32.63345
G01 X13.52572 Y32.53395
G01 X13.49996 Y32.50822
G01 X13.49999 Y34.18437
G01 X14.44182 Y35.12623
G01 X14.61058 Y35.14159
G01 X14.65863 Y35.15114
G01 X14.80870 Y35.19669
G01 X14.85398 Y35.21543
G01 X14.99229 Y35.28935
G01 X15.03305 Y35.31657
G01 X15.15426 Y35.41607
G01 X15.18893 Y35.45074
G01 X15.28842 Y35.57195
G01 X15.31565 Y35.61271
G01 X15.38957 Y35.75102
G01 X15.40834 Y35.79630
G01 X15.45982 Y35.97017
G01 X15.47877 Y36.15051
G01 X15.47877 Y36.19953
G01 X15.46341 Y36.35559
G01 X15.45386 Y36.40364
G01 X15.40834 Y36.55373
G01 X15.38957 Y36.59902
G01 X15.31565 Y36.73732
G01 X15.28842 Y36.77807
G01 X15.18893 Y36.89930
G01 X15.15426 Y36.93395
G01 X15.03305 Y37.03344
G01 X14.99229 Y37.06067
G01 X14.85398 Y37.13461
G01 X14.80870 Y37.15335
G01 X14.65863 Y37.19887
G01 X14.61058 Y37.20844
G01 X14.45449 Y37.22381
G01 X14.40550 Y37.22381
G01 X14.24941 Y37.20844
G01 X14.20136 Y37.19887
G01 X14.05127 Y37.15335
G01 X14.00598 Y37.13461
G01 X13.84664 Y37.04807
G01 X13.70570 Y36.93395
G01 X13.67105 Y36.89930
G01 X13.57156 Y36.77807
G01 X13.54433 Y36.73732
G01 X13.47039 Y36.59902
G01 X13.45165 Y36.55373
G01 X13.40016 Y36.37987
G01 X13.38119 Y36.18691
G01 X12.61340 Y35.41718
G01 X12.47334 Y35.30197
G01 X12.29181 Y35.20494
G01 X12.11863 Y35.15114
G01 X12.07058 Y35.14159
G01 X11.90182 Y35.12623
G01 X11.83992 Y35.06438
G01 X11.83992 Y27.62568
G01 X13.54733 Y25.91832
G01 X13.66663 Y25.82198
G01 X13.82599 Y25.73544
G01 X13.87126 Y25.71667
G01 X14.02135 Y25.67115
G01 X14.06940 Y25.66158
G01 X14.22549 Y25.64621
G01 X14.27448 Y25.64621
G01 X14.43057 Y25.66158
G01 X14.47862 Y25.67115
G01 X14.65180 Y25.72495
G01 X14.81230 Y25.80935
G01 X14.85304 Y25.83658
G01 X14.97428 Y25.93608
G01 X15.00892 Y25.97072
G01 X15.10842 Y26.09196
G01 X15.13564 Y26.13270
G01 X15.20958 Y26.27103
G01 X15.22833 Y26.31629
G01 X15.27981 Y26.49018
G01 X15.29879 Y26.67052
G01 X15.29879 Y26.71951
G01 X15.28342 Y26.87560
G01 X15.27385 Y26.92365
G01 X15.22005 Y27.09683
G01 X15.13564 Y27.25731
G01 X15.10842 Y27.29807
G01 X15.00892 Y27.41931
G01 X14.97428 Y27.45395
G01 X14.85304 Y27.55345
G01 X14.81230 Y27.58067
G01 X14.67397 Y27.65459
G01 X14.62871 Y27.67336
G01 X14.47862 Y27.71888
G01 X14.43057 Y27.72843
G01 X14.27448 Y27.74382
G01 X14.22549 Y27.74382
G01 X14.06940 Y27.72843
G01 X14.02135 Y27.71888
G01 X13.84817 Y27.66508
G01 X13.66663 Y27.56805
G01 X13.52572 Y27.45395
G01 X13.49104 Y27.41931
G01 X13.39155 Y27.29807
G01 X13.36432 Y27.25731
G01 X13.29041 Y27.11900
G01 X13.27164 Y27.07374
G01 X13.22015 Y26.89985
G01 X13.20118 Y26.71951
G01 X13.20118 Y26.67052
G01 X13.21657 Y26.51443
G01 X13.22612 Y26.46638
G01 X13.27164 Y26.31629
G01 X13.29041 Y26.27103
G01 X13.36432 Y26.13270
G01 X13.39155 Y26.09196
G01 X13.47326 Y25.99241
G01 X14.26120 Y25.20445
G01 X14.43057 Y25.18843
G01 X14.47862 Y25.17888
G01 X14.65180 Y25.12508
G01 X14.83333 Y25.02805
G01 X14.97428 Y24.91395
G01 X15.00892 Y24.87931
G01 X15.10842 Y24.75807
G01 X15.13564 Y24.71731
G01 X15.20958 Y24.57900
G01 X15.22833 Y24.53374
G01 X15.27385 Y24.38365
G01 X15.28342 Y24.33560
G01 X15.29998 Y24.15500
G01 X15.28342 Y23.97443
G01 X15.27385 Y23.92638
G01 X15.22833 Y23.77629
G01 X15.20958 Y23.73103
G01 X15.13564 Y23.59270
G01 X15.10842 Y23.55196
G01 X15.00892 Y23.43072
G01 X14.97428 Y23.39608
G01 X14.83333 Y23.28198
G01 X14.65180 Y23.18495
G01 X14.47862 Y23.13115
G01 X14.43057 Y23.12158
G01 X14.27448 Y23.10621
G01 X14.22549 Y23.10621
G01 X14.06940 Y23.12158
G01 X14.02135 Y23.13115
G01 X13.87126 Y23.17667
G01 X13.82599 Y23.19544
G01 X13.66663 Y23.28198
G01 X13.52572 Y23.39608
G01 X13.49104 Y23.43072
G01 X13.39155 Y23.55196
G01 X13.36432 Y23.59270
G01 X13.29041 Y23.73103
G01 X13.27164 Y23.77629
G01 X13.22015 Y23.95018
G01 X13.20118 Y24.14314
G01 X10.55963 Y26.78469
G01 X10.48097 Y26.87864
G01 X10.45376 Y26.91939
G01 X10.40751 Y27.00585
G01 X10.38879 Y27.05111
G01 X10.35437 Y27.16871
G01 X10.33997 Y27.31502
G01 X10.33997 Y35.37502
G01 X10.35079 Y35.49709
G01 X10.36034 Y35.54515
G01 X10.39702 Y35.66204
G01 X10.45376 Y35.77068
G01 X10.48097 Y35.81142
G01 X10.55963 Y35.90537
G01 X10.84119 Y36.18691
G01 X10.86016 Y36.37987
G01 X10.91165 Y36.55373
G01 X10.93039 Y36.59902
G01 X11.00433 Y36.73732
G01 X11.03156 Y36.77807
G01 X11.13105 Y36.89930
G01 X11.16570 Y36.93395
G01 X11.28693 Y37.03344
G01 X11.32765 Y37.06067
G01 X11.46595 Y37.13461
G01 X11.51127 Y37.15335
G01 X11.66136 Y37.19887
G01 X11.70941 Y37.20844
G01 X11.86550 Y37.22381
G01 X11.91449 Y37.22381
G01 X12.07058 Y37.20844
G01 X12.11863 Y37.19887
G01 X12.29181 Y37.14510
G01 X12.47334 Y37.04807
G01 X12.61426 Y36.93395
G01 X12.64893 Y36.89930
G01 X12.74843 Y36.77807
G01 X12.77565 Y36.73732
G01 X12.84957 Y36.59902
G01 X12.86834 Y36.55373
G01 X12.91982 Y36.37987
G01 X12.93877 Y36.19953
G01 X12.93877 Y36.15051
G01 X12.93080 Y36.06946
G01 X12.92341 Y35.99442
G01 X12.91386 Y35.94637
G01 X12.86834 Y35.79630
G01 X12.84957 Y35.75102
G01 X12.77565 Y35.61271
G01 X12.74843 Y35.57195
G01 X12.64784 Y35.45163
G01 X12.21965 Y35.02534
G01 X12.14101 Y34.93141
G01 X12.11378 Y34.89067
G01 X12.08259 Y34.83235
G01 X12.04881 Y34.75894
G01 X12.02036 Y34.66514
G01 X12.01081 Y34.61708
G01 X11.99999 Y34.49501
G01 X11.99999 Y30.73502
G01 X12.01081 Y30.61298
G01 X12.02036 Y30.56492
G01 X12.04881 Y30.47112
G01 X12.06758 Y30.42586
G01 X12.11378 Y30.33939
G01 X12.14101 Y30.29865
G01 X12.21965 Y30.20472
G01 X13.20118 Y29.22317
G01 X13.22015 Y29.03018
G01 X13.27164 Y28.85629
G01 X13.29041 Y28.81103
G01 X13.36432 Y28.67270
G01 X13.39155 Y28.63196
G01 X13.49104 Y28.51072
G01 X13.52572 Y28.47608
G01 X13.66663 Y28.36198
G01 X13.82599 Y28.27544
G01 X13.87126 Y28.25667
G01 X14.02135 Y28.21115
G01 X14.06940 Y28.20158
G01 X14.22549 Y28.18621
G01 X14.27448 Y28.18621
G01 X14.43057 Y28.20158
G01 X14.47862 Y28.21115
G01 X14.65180 Y28.26495
G01 X14.83333 Y28.36198
G01 X14.97428 Y28.47608
G01 X15.00892 Y28.51072
G01 X15.10842 Y28.63196
G01 X15.13564 Y28.67270
G01 X15.20958 Y28.81103
G01 X15.22833 Y28.85629
G01 X15.27981 Y29.03018
G01 X15.29998 Y29.23500
G01 X15.28342 Y29.41560
G01 X15.27385 Y29.46365
G01 X15.22005 Y29.63683
G01 X15.13564 Y29.79731
G01 X15.10842 Y29.83807
G01 X15.00892 Y29.95931
G01 X14.97428 Y29.99395
G01 X14.85304 Y30.09345
G01 X14.81230 Y30.12067
G01 X14.67397 Y30.19459
G01 X14.62871 Y30.21336
G01 X14.47862 Y30.25888
G01 X14.43057 Y30.26843
G01 X14.26186 Y30.28382
G01 X13.54741 Y30.99827
G04 P0 ( dwell for no time -- G64 should not smooth over this point )
G00 Z5.00000 ( retract )

G00 X20.13000 Y28.37501 ( rapid move to begin. )
G01 F300.00000
( Mill infeed pass 1/1 )
G01 Z-0.02000
G04 P0 ( dwell for no time -- G64 should not smooth over this point )
G01 F600.00000
G01 X20.13000 Y28.37501
G01 X20.13599 Y28.30173
G01 X20.14557 Y28.25367
G01 X20.16804 Y28.18367
G01 X20.20165 Y28.11827
G01 X20.25997 Y28.03963
G01 X20.29461 Y28.00498
G01 X20.37325 Y27.94666
G01 X20.46174 Y27.90480
G01 X20.53243 Y27.88461
G01 X20.62999 Y27.87501
G01 X22.22999 Y27.87501
G01 X22.32753 Y27.88461
G01 X22.39824 Y27.90480
G01 X22.48673 Y27.94666
G01 X22.52748 Y27.97389
G01 X22.60002 Y28.03963
G01 X22.65834 Y28.11827
G01 X22.68143 Y28.16150
G01 X22.71442 Y28.25367
G01 X22.72397 Y28.30173
G01 X22.72999 Y28.37501
G01 X22.72877 Y29.99952
G01 X22.71442 Y30.09637
G01 X22.70020 Y30.14326
G01 X22.65834 Y30.23175
G01 X22.63111 Y30.27252
G01 X22.56537 Y30.34503
G01 X22.48673 Y30.40335
G01 X22.44350 Y30.42647
G01 X22.39824 Y30.44521
G01 X22.32753 Y30.46540
G01 X22.25450 Y30.47381
G01 X20.62999 Y30.47500
G01 X20.55672 Y30.46901
G01 X20.50863 Y30.45943
G01 X20.41646 Y30.42647
G01 X20.33251 Y30.37612
G01 X20.25997 Y30.31039
G01 X20.20165 Y30.23175
G01 X20.16804 Y30.16634
G01 X20.14557 Y30.09637
G01 X20.13599 Y30.04828
G01 X20.13000 Y29.97501
G01 X20.13000 Y23.37502
G01 X20.13000 Y24.97502
G01 X20.13599 Y25.04829
G01 X20.14557 Y25.09635
G01 X20.16804 Y25.16635
G01 X20.20165 Y25.23176
G01 X20.22888 Y25.27250
G01 X20.27643 Y25.32856
G01 X20.33251 Y25.37613
G01 X20.37325 Y25.40336
G01 X20.41646 Y25.42648
G01 X20.50863 Y25.45944
G01 X20.55672 Y25.46899
G01 X20.62999 Y25.47501
G01 X22.22999 Y25.47501
G01 X22.32753 Y25.46541
G01 X22.39824 Y25.44522
G01 X22.48673 Y25.40336
G01 X22.56537 Y25.34504
G01 X22.60002 Y25.31040
G01 X22.65834 Y25.23176
G01 X22.69192 Y25.16635
G01 X22.71442 Y25.09635
G01 X22.72397 Y25.04829
G01 X22.72999 Y24.97502
G01 X22.72999 Y23.37502
G01 X22.72397 Y23.30174
G01 X22.70020 Y23.20677
G01 X22.65834 Y23.11828
G01 X22.63111 Y23.07753
G01 X22.58353 Y23.02145
G01 X22.52748 Y22.97390
G01 X22.48673 Y22.94667
G01 X22.44350 Y22.92356
G01 X22.35133 Y22.89059
G01 X22.30327 Y22.88101
G01 X22.22999 Y22.87502
G01 X20.62999 Y22.87502
G01 X20.53243 Y22.88462
G01 X20.46174 Y22.90481
G01 X20.37325 Y22.94667
G01 X20.29461 Y23.00499
G01 X20.25997 Y23.03964
G01 X20.20165 Y23.11828
G01 X20.16804 Y23.18368
G01 X20.14557 Y23.25366
G01 X20.13599 Y23.30174
G01 X20.13000 Y23.37502
G01 X20.13000 Y18.37500
G01 X20.13000 Y19.97500
G01 X20.13599 Y20.04828
G01 X20.14557 Y20.09636
G01 X20.16804 Y20.16636
G01 X20.20165 Y20.23174
G01 X20.22888 Y20.27251
G01 X20.29461 Y20.34505
G01 X20.37325 Y20.40337
G01 X20.46174 Y20.44523
G01 X20.50863 Y20.45945
G01 X20.55672 Y20.46900
G01 X20.62999 Y20.47502
G01 X22.22999 Y20.47502
G01 X22.32753 Y20.46540
G01 X22.39824 Y20.44523
G01 X22.48673 Y20.40337
G01 X22.56537 Y20.34505
G01 X22.63111 Y20.27251
G01 X22.65834 Y20.23174
G01 X22.70020 Y20.14325
G01 X22.72397 Y20.04828
G01 X22.72999 Y19.97500
G01 X22.72999 Y18.37500
G01 X22.72397 Y18.30172
G01 X22.70020 Y18.20678
G01 X22.65834 Y18.11826
G01 X22.63111 Y18.07752
G01 X22.58353 Y18.02146
G01 X22.52748 Y17.97389
G01 X22.48673 Y17.94666
G01 X22.39824 Y17.90480
G01 X22.35133 Y17.89057
G01 X22.30327 Y17.88102
G01 X22.22999 Y17.87500
G01 X20.62999 Y17.87500
G01 X20.53243 Y17.88463
G01 X20.46174 Y17.90480
G01 X20.37325 Y17.94666
G01 X20.29461 Y18.00498
G01 X20.22888 Y18.07752
G01 X20.17853 Y18.16149
G01 X20.15979 Y18.20678
G01 X20.13599 Y18.30172
G01 X20.13000 Y18.37500
G01 X20.13000 Y13.37501
G01 X20.13599 Y13.30173
G01 X20.15979 Y13.20676
G01 X20.17853 Y13.16150
G01 X20.22888 Y13.07753
G01 X20.29461 Y13.00499
G01 X20.33251 Y12.97390
G01 X20.41646 Y12.92355
G01 X20.46174 Y12.90481
G01 X20.53243 Y12.88462
G01 X20.60548 Y12.87621
G01 X22.22999 Y12.87501
G01 X22.30327 Y12.88101
G01 X22.39824 Y12.90481
G01 X22.48673 Y12.94667
G01 X22.56537 Y13.00499
G01 X22.63111 Y13.07753
G01 X22.65834 Y13.11827
G01 X22.70020 Y13.20676
G01 X22.71442 Y13.25368
G01 X22.72877 Y13.35050
G01 X22.72999 Y14.97501
G01 X22.72397 Y15.04829
G01 X22.71442 Y15.09635
G01 X22.68143 Y15.18852
G01 X22.65834 Y15.23175
G01 X22.60002 Y15.31039
G01 X22.52748 Y15.37613
G01 X22.44350 Y15.42647
G01 X22.39824 Y15.44521
G01 X22.32753 Y15.46541
G01 X22.22999 Y15.47501
G01 X20.62999 Y15.47501
G01 X20.53243 Y15.46541
G01 X20.46174 Y15.44521
G01 X20.37325 Y15.40336
G01 X20.29461 Y15.34504
G01 X20.25997 Y15.31039
G01 X20.20165 Y15.23175
G01 X20.16804 Y15.16635
G01 X20.14557 Y15.09635
G01 X20.13599 Y15.04829
G01 X20.13000 Y14.97501
G04 P0 ( dwell for no time -- G64 should not smooth over this point )
G00 Z5.00000 ( retract )

G00 X23.58119 Y19.05052 ( rapid move to begin. )
G01 F300.00000
( Mill infeed pass 1/1 )
G01 Z-0.02000
G04 P0 ( dwell for no time -- G64 should not smooth over this point )
G01 F600.00000
G01 X23.58119 Y19.05052
G01 X23.60017 Y18.87018
G01 X23.65165 Y18.69629
G01 X23.67040 Y18.65103
G01 X23.74434 Y18.51270
G01 X23.77157 Y18.47196
G01 X23.87106 Y18.35072
G01 X23.90571 Y18.31608
G01 X24.02694 Y18.21658
G01 X24.06768 Y18.18935
G01 X24.22816 Y18.10495
G01 X24.40134 Y18.05115
G01 X24.44942 Y18.04158
G01 X24.60548 Y18.02621
G01 X24.65450 Y18.02621
G01 X24.81055 Y18.04158
G01 X24.85864 Y18.05115
G01 X25.03181 Y18.10495
G01 X25.19229 Y18.18935
G01 X25.23303 Y18.21658
G01 X25.35427 Y18.31608
G01 X25.38891 Y18.35072
G01 X25.48840 Y18.47196
G01 X25.51563 Y18.51270
G01 X25.58957 Y18.65103
G01 X25.60832 Y18.69629
G01 X25.65980 Y18.87018
G01 X25.68000 Y19.07500
G01 X25.66341 Y19.25560
G01 X25.65386 Y19.30365
G01 X25.60006 Y19.47683
G01 X25.51563 Y19.63731
G01 X25.48840 Y19.67807
G01 X25.38891 Y19.79931
G01 X25.35427 Y19.83395
G01 X25.21335 Y19.94805
G01 X25.03181 Y20.04508
G01 X24.85864 Y20.09888
G01 X24.81055 Y20.10843
G01 X24.65450 Y20.12382
G01 X24.60548 Y20.12382
G01 X24.44942 Y20.10843
G01 X24.40134 Y20.09888
G01 X24.25127 Y20.05336
G01 X24.20598 Y20.03459
G01 X24.04665 Y19.94805
G01 X23.90571 Y19.83395
G01 X23.87106 Y19.79931
G01 X23.77157 Y19.67807
G01 X23.74434 Y19.63731
G01 X23.67040 Y19.49900
G01 X23.65165 Y19.45374
G01 X23.60017 Y19.27985
G01 X23.58119 Y19.09951
G01 X23.58119 Y16.51052
G01 X23.58119 Y16.55951
G01 X23.60017 Y16.73985
G01 X23.65165 Y16.91374
G01 X23.67040 Y16.95900
G01 X23.74434 Y17.09731
G01 X23.77157 Y17.13807
G01 X23.87106 Y17.25931
G01 X23.90571 Y17.29395
G01 X24.04665 Y17.40805
G01 X24.22816 Y17.50508
G01 X24.40134 Y17.55888
G01 X24.44942 Y17.56843
G01 X24.60548 Y17.58382
G01 X24.65450 Y17.58382
G01 X24.81055 Y17.56843
G01 X24.85864 Y17.55888
G01 X25.03181 Y17.50508
G01 X25.21335 Y17.40805
G01 X25.35427 Y17.29395
G01 X25.38891 Y17.25931
G01 X25.48840 Y17.13807
G01 X25.51563 Y17.09731
G01 X25.60006 Y16.93683
G01 X25.65386 Y16.76365
G01 X25.66341 Y16.71560
G01 X25.68000 Y16.53500
G01 X25.65980 Y16.33018
G01 X25.60832 Y16.15629
G01 X25.58957 Y16.11103
G01 X25.51563 Y15.97270
G01 X25.48840 Y15.93196
G01 X25.38891 Y15.81072
G01 X25.35427 Y15.77608
G01 X25.21335 Y15.66198
G01 X25.03181 Y15.56495
G01 X24.85864 Y15.51115
G01 X24.81055 Y15.50158
G01 X24.65450 Y15.48621
G01 X24.60548 Y15.48621
G01 X24.44942 Y15.50158
G01 X24.40134 Y15.51115
G01 X24.22816 Y15.56495
G01 X24.04665 Y15.66198
G01 X23.90571 Y15.77608
G01 X23.87106 Y15.81072
G01 X23.77157 Y15.93196
G01 X23.74434 Y15.97270
G01 X23.67040 Y16.11103
G01 X23.65165 Y16.15629
G01 X23.60017 Y16.33018
G01 X23.58119 Y16.51052
G01 X23.58119 Y13.97052
G01 X23.58119 Y14.01951
G01 X23.60017 Y14.19985
G01 X23.65165 Y14.37374
G01 X23.67040 Y14.41900
G01 X23.74434 Y14.55731
G01 X23.77157 Y14.59807
G01 X23.87106 Y14.71931
G01 X23.90571 Y14.75395
G01 X24.04665 Y14.86805
G01 X24.22816 Y14.96508
G01 X24.40134 Y15.01888
G01 X24.44942 Y15.02843
G01 X24.60548 Y15.04382
G01 X24.65450 Y15.04382
G01 X24.81055 Y15.02843
G01 X24.85864 Y15.01888
G01 X25.03181 Y14.96508
G01 X25.21335 Y14.86805
G01 X25.35427 Y14.75395
G01 X25.38891 Y14.71931
G01 X25.48840 Y14.59807
G01 X25.51563 Y14.55731
G01 X25.60006 Y14.39683
G01 X25.65386 Y14.22365
G01 X25.66341 Y14.17560
G01 X25.68000 Y13.99500
G01 X25.65980 Y13.79018
G01 X25.60832 Y13.61629
G01 X25.58957 Y13.57103
G01 X25.51563 Y13.43270
G01 X25.48840 Y13.39196
G01 X25.38891 Y13.27072
G01 X25.35427 Y13.23608
G01 X25.21335 Y13.12198
G01 X25.03181 Y13.02495
G01 X24.85864 Y12.97115
G01 X24.81055 Y12.96158
G01 X24.65450 Y12.94621
G01 X24.60548 Y12.94621
G01 X24.44942 Y12.96158
G01 X24.40134 Y12.97115
G01 X24.22816 Y13.02495
G01 X24.04665 Y13.12198
G01 X23.90571 Y13.23608
G01 X23.87106 Y13.27072
G01 X23.77157 Y13.39196
G01 X23.74434 Y13.43270
G01 X23.67040 Y13.57103
G01 X23.65165 Y13.61629
G01 X23.60017 Y13.79018
G01 X23.58119 Y13.97052
G01 X23.38120 Y10.15051
G01 X23.40017 Y9.97017
G01 X23.45165 Y9.79631
G01 X23.47040 Y9.75102
G01 X23.54434 Y9.61271
G01 X23.57157 Y9.57195
G01 X23.67106 Y9.45074
G01 X23.70571 Y9.41607
G01 X23.84665 Y9.30197
G01 X24.00598 Y9.21543
G01 X24.05127 Y9.19666
G01 X24.20134 Y9.15115
G01 X24.24942 Y9.14160
G01 X24.40548 Y9.12623
G01 X24.45450 Y9.12623
G01 X24.61056 Y9.14160
G01 X24.65864 Y9.15115
G01 X24.83181 Y9.20494
G01 X25.01335 Y9.30197
G01 X25.15427 Y9.41607
G01 X25.18891 Y9.45074
G01 X25.28840 Y9.57195
G01 X25.31563 Y9.61271
G01 X25.38957 Y9.75102
G01 X25.40832 Y9.79631
G01 X25.45386 Y9.94637
G01 X25.46341 Y9.99443
G01 X25.47878 Y10.15051
G01 X25.47878 Y10.19951
G01 X25.46341 Y10.35559
G01 X25.45386 Y10.40365
G01 X25.40006 Y10.57682
G01 X25.31563 Y10.73732
G01 X25.28840 Y10.77807
G01 X25.18891 Y10.89930
G01 X25.15427 Y10.93395
G01 X25.01335 Y11.04807
G01 X24.85399 Y11.13461
G01 X24.80870 Y11.15335
G01 X24.65864 Y11.19887
G01 X24.61056 Y11.20844
G01 X24.45450 Y11.22381
G01 X24.40548 Y11.22381
G01 X24.24942 Y11.20844
G01 X24.20134 Y11.19887
G01 X24.05127 Y11.15335
G01 X24.00598 Y11.13461
G01 X23.84665 Y11.04807
G01 X23.70571 Y10.93395
G01 X23.67106 Y10.89930
G01 X23.57157 Y10.77807
G01 X23.54434 Y10.73732
G01 X23.47040 Y10.59900
G01 X23.45165 Y10.55373
G01 X23.40017 Y10.37985
G01 X23.38120 Y10.19951
G01 X23.38120 Y10.15051
G04 P0 ( dwell for no time -- G64 should not smooth over this point )
G00 Z5.00000 ( retract )

G00 X20.83998 Y9.37502 ( rapid move to begin. )
G01 F300.00000
( Mill infeed pass 1/1 )
G01 Z-0.02000
G04 P0 ( dwell for no time -- G64 should not smooth over this point )
G01 F600.00000
G01 X20.83998 Y9.37502
G01 X20.83998 Y10.97502
G01 X20.84480 Y11.02379
G01 X20.85903 Y11.07067
G01 X20.88211 Y11.11391
G01 X20.91320 Y11.15180
G01 X20.95110 Y11.18289
G01 X20.99431 Y11.20598
G01 X21.04122 Y11.22020
G01 X21.08999 Y11.22500
G01 X22.68999 Y11.22500
G01 X22.73875 Y11.22020
G01 X22.78567 Y11.20598
G01 X22.82887 Y11.18289
G01 X22.86677 Y11.15180
G01 X22.89786 Y11.11391
G01 X22.92095 Y11.07067
G01 X22.93517 Y11.02379
G01 X22.94000 Y10.97502
G01 X22.94000 Y9.37502
G01 X22.93517 Y9.32623
G01 X22.92095 Y9.27934
G01 X22.89786 Y9.23611
G01 X22.86677 Y9.19824
G01 X22.82887 Y9.16715
G01 X22.78567 Y9.14403
G01 X22.73875 Y9.12981
G01 X22.68999 Y9.12501
G01 X21.08999 Y9.12501
G01 X21.04122 Y9.12981
G01 X20.99431 Y9.14403
G01 X20.95110 Y9.16715
G01 X20.91320 Y9.19824
G01 X20.88211 Y9.23611
G01 X20.85903 Y9.27934
G01 X20.84480 Y9.32623
G01 X20.83998 Y9.37502
G04 P0 ( dwell for no time -- G64 should not smooth over this point )
G00 Z5.00000 ( retract )

G00 X23.12999 Y5.37500 ( rapid move to begin. )
G01 F300.00000
( Mill infeed pass 1/1 )
G01 Z-0.02000
G04 P0 ( dwell for no time -- G64 should not smooth over this point )
G01 F600.00000
G01 X23.12999 Y5.37500
G01 X23.12999 Y6.97500
G01 X23.13598 Y7.04828
G01 X23.14556 Y7.09636
G01 X23.16804 Y7.16636
G01 X23.20164 Y7.23174
G01 X23.25996 Y7.31038
G01 X23.33250 Y7.37614
G01 X23.37324 Y7.40337
G01 X23.46174 Y7.44521
G01 X23.53245 Y7.46540
G01 X23.60548 Y7.47381
G01 X25.22998 Y7.47503
G01 X25.32752 Y7.46540
G01 X25.39823 Y7.44521
G01 X25.44350 Y7.42646
G01 X25.48673 Y7.40337
G01 X25.56537 Y7.34505
G01 X25.63110 Y7.27251
G01 X25.65833 Y7.23174
G01 X25.69193 Y7.16636
G01 X25.71441 Y7.09636
G01 X25.72879 Y6.99951
G01 X25.72998 Y5.37500
G01 X25.72399 Y5.30172
G01 X25.71441 Y5.25367
G01 X25.68144 Y5.16149
G01 X25.63110 Y5.07752
G01 X25.58355 Y5.02146
G01 X25.52747 Y4.97389
G01 X25.48673 Y4.94666
G01 X25.39823 Y4.90480
G01 X25.32752 Y4.88463
G01 X25.22998 Y4.87500
G01 X23.62999 Y4.87500
G01 X23.53245 Y4.88463
G01 X23.46174 Y4.90480
G01 X23.37324 Y4.94666
G01 X23.29461 Y5.00498
G01 X23.22887 Y5.07752
G01 X23.17853 Y5.16149
G01 X23.15978 Y5.20678
G01 X23.13598 Y5.30172
G01 X23.12999 Y5.37500
G04 P0 ( dwell for no time -- G64 should not smooth over this point )
G00 Z5.00000 ( retract )

G00 X27.57118 Y6.15052 ( rapid move to begin. )
G01 F300.00000
( Mill infeed pass 1/1 )
G01 Z-0.02000
G04 P0 ( dwell for no time -- G64 should not smooth over this point )
G01 F600.00000
G01 X27.57118 Y6.15052
G01 X27.57118 Y6.19951
G01 X27.59015 Y6.37985
G01 X27.64164 Y6.55374
G01 X27.66041 Y6.59900
G01 X27.73432 Y6.73731
G01 X27.76155 Y6.77807
G01 X27.86104 Y6.89931
G01 X27.89571 Y6.93395
G01 X28.03663 Y7.04805
G01 X28.21817 Y7.14508
G01 X28.39135 Y7.19888
G01 X28.43940 Y7.20843
G01 X28.59549 Y7.22382
G01 X28.64448 Y7.22382
G01 X28.80056 Y7.20843
G01 X28.84862 Y7.19888
G01 X29.02180 Y7.14508
G01 X29.20333 Y7.04805
G01 X29.34428 Y6.93395
G01 X29.37892 Y6.89931
G01 X29.47841 Y6.77807
G01 X29.50564 Y6.73731
G01 X29.57958 Y6.59900
G01 X29.59833 Y6.55374
G01 X29.64981 Y6.37985
G01 X29.66879 Y6.19951
G01 X29.66879 Y6.15052
G01 X29.64981 Y5.97018
G01 X29.59833 Y5.79629
G01 X29.57958 Y5.75103
G01 X29.50564 Y5.61270
G01 X29.47841 Y5.57196
G01 X29.37892 Y5.45072
G01 X29.34428 Y5.41608
G01 X29.20333 Y5.30198
G01 X29.02180 Y5.20495
G01 X28.84862 Y5.15115
G01 X28.80056 Y5.14158
G01 X28.64448 Y5.12621
G01 X28.59549 Y5.12621
G01 X28.43940 Y5.14158
G01 X28.39135 Y5.15115
G01 X28.21817 Y5.20495
G01 X28.03663 Y5.30198
G01 X27.89571 Y5.41608
G01 X27.86104 Y5.45072
G01 X27.76155 Y5.57196
G01 X27.73432 Y5.61270
G01 X27.66041 Y5.75103
G01 X27.64164 Y5.79629
G01 X27.59015 Y5.97018
G01 X27.57118 Y6.15052
G04 P0 ( dwell for no time -- G64 should not smooth over this point )
G00 Z5.00000 ( retract )

G00 X25.92120 Y10.15051 ( rapid move to begin. )
G01 F300.00000
( Mill infeed pass 1/1 )
G01 Z-0.02000
G04 P0 ( dwell for no time -- G64 should not smooth over this point )
G01 F600.00000
G01 X25.92120 Y10.15051
G01 X25.94017 Y9.97017
G01 X25.99165 Y9.79631
G01 X26.01040 Y9.75102
G01 X26.08434 Y9.61271
G01 X26.11157 Y9.57195
G01 X26.21106 Y9.45074
G01 X26.24571 Y9.41607
G01 X26.38665 Y9.30197
G01 X26.56816 Y9.20494
G01 X26.74134 Y9.15115
G01 X26.78942 Y9.14160
G01 X26.94548 Y9.12623
G01 X26.99450 Y9.12623
G01 X27.15056 Y9.14160
G01 X27.19864 Y9.15115
G01 X27.37181 Y9.20494
G01 X27.55335 Y9.30197
G01 X27.69427 Y9.41607
G01 X27.72891 Y9.45074
G01 X27.82840 Y9.57195
G01 X27.85563 Y9.61271
G01 X27.92957 Y9.75102
G01 X27.94832 Y9.79631
G01 X27.99980 Y9.97017
G01 X28.02000 Y10.17502
G01 X28.00341 Y10.35559
G01 X27.99386 Y10.40365
G01 X27.94006 Y10.57682
G01 X27.85563 Y10.73732
G01 X27.82840 Y10.77807
G01 X27.72891 Y10.89930
G01 X27.69427 Y10.93395
G01 X27.55335 Y11.04807
G01 X27.37181 Y11.14510
G01 X27.19864 Y11.19887
G01 X27.15056 Y11.20844
G01 X26.99450 Y11.22381
G01 X26.94548 Y11.22381
G01 X26.78942 Y11.20844
G01 X26.74134 Y11.19887
G01 X26.56816 Y11.14510
G01 X26.38665 Y11.04807
G01 X26.24571 Y10.93395
G01 X26.21106 Y10.89930
G01 X26.11157 Y10.77807
G01 X26.08434 Y10.73732
G01 X26.01040 Y10.59900
G01 X25.99165 Y10.55373
G01 X25.94017 Y10.37985
G01 X25.92120 Y10.19951
G01 X25.92120 Y10.15051
G04 P0 ( dwell for no time -- G64 should not smooth over this point )
G00 Z5.00000 ( retract )

G00 X28.46120 Y10.15051 ( rapid move to begin. )
G01 F300.00000
( Mill infeed pass 1/1 )
G01 Z-0.02000
G04 P0 ( dwell for no time -- G64 should not smooth over this point )
G01 F600.00000
G01 X28.46120 Y10.15051
G01 X28.48017 Y9.97017
G01 X28.53165 Y9.79631
G01 X28.55040 Y9.75102
G01 X28.62434 Y9.61271
G01 X28.65157 Y9.57195
G01 X28.75106 Y9.45074
G01 X28.78571 Y9.41607
G01 X28.92665 Y9.30197
G01 X29.10816 Y9.20494
G01 X29.28134 Y9.15115
G01 X29.32942 Y9.14160
G01 X29.48548 Y9.12623
G01 X29.53450 Y9.12623
G01 X29.69056 Y9.14160
G01 X29.73864 Y9.15115
G01 X29.91181 Y9.20494
G01 X30.09335 Y9.30197
G01 X30.23427 Y9.41607
G01 X30.26891 Y9.45074
G01 X30.36840 Y9.57195
G01 X30.39563 Y9.61271
G01 X30.46957 Y9.75102
G01 X30.48832 Y9.79631
G01 X30.53980 Y9.97017
G01 X30.55878 Y10.15051
G01 X30.55878 Y10.19951
G01 X30.53980 Y10.37985
G01 X30.48832 Y10.55373
G01 X30.46957 Y10.59900
G01 X30.39563 Y10.73732
G01 X30.36840 Y10.77807
G01 X30.26891 Y10.89930
G01 X30.23427 Y10.93395
G01 X30.09335 Y11.04807
G01 X29.91181 Y11.14510
G01 X29.73864 Y11.19887
G01 X29.69056 Y11.20844
G01 X29.53450 Y11.22381
G01 X29.48548 Y11.22381
G01 X29.32942 Y11.20844
G01 X29.28134 Y11.19887
G01 X29.10816 Y11.14510
G01 X28.92665 Y11.04807
G01 X28.78571 Y10.93395
G01 X28.75106 Y10.89930
G01 X28.65157 Y10.77807
G01 X28.62434 Y10.73732
G01 X28.55040 Y10.59900
G01 X28.53165 Y10.55373
G01 X28.48017 Y10.37985
G01 X28.46120 Y10.19951
G01 X28.46120 Y10.15051
G04 P0 ( dwell for no time -- G64 should not smooth over this point )
G00 Z5.00000 ( retract )

G00 X31.00120 Y10.15051 ( rapid move to begin. )
G01 F300.00000
( Mill infeed pass 1/1 )
G01 Z-0.02000
G04 P0 ( dwell for no time -- G64 should not smooth over this point )
G01 F600.00000
G01 X31.00120 Y10.15051
G01 X31.02017 Y9.97017
G01 X31.07165 Y9.79631
G01 X31.09040 Y9.75102
G01 X31.16434 Y9.61271
G01 X31.19157 Y9.57195
G01 X31.29106 Y9.45074
G01 X31.32571 Y9.41607
G01 X31.46665 Y9.30197
G01 X31.64816 Y9.20494
G01 X31.82134 Y9.15115
G01 X31.86942 Y9.14160
G01 X32.02548 Y9.12623
G01 X32.07450 Y9.12623
G01 X32.23056 Y9.14160
G01 X32.27864 Y9.15115
G01 X32.45181 Y9.20494
G01 X32.63335 Y9.30197
G01 X32.77427 Y9.41607
G01 X32.80891 Y9.45074
G01 X32.90840 Y9.57195
G01 X32.93563 Y9.61271
G01 X33.00957 Y9.75102
G01 X33.02832 Y9.79631
G01 X33.07980 Y9.97017
G01 X33.09878 Y10.15051
G01 X33.09878 Y10.19951
G01 X33.07980 Y10.37985
G01 X33.02832 Y10.55373
G01 X33.00957 Y10.59900
G01 X32.93563 Y10.73732
G01 X32.90840 Y10.77807
G01 X32.80891 Y10.89930
G01 X32.77427 Y10.93395
G01 X32.63335 Y11.04807
G01 X32.45181 Y11.14510
G01 X32.27864 Y11.19887
G01 X32.23056 Y11.20844
G01 X32.07450 Y11.22381
G01 X32.02548 Y11.22381
G01 X31.86942 Y11.20844
G01 X31.82134 Y11.19887
G01 X31.64816 Y11.14510
G01 X31.46665 Y11.04807
G01 X31.32571 Y10.93395
G01 X31.29106 Y10.89930
G01 X31.19157 Y10.77807
G01 X31.16434 Y10.73732
G01 X31.09040 Y10.59900
G01 X31.07165 Y10.55373
G01 X31.02017 Y10.37985
G01 X31.00120 Y10.19951
G01 X31.00120 Y10.15051
G04 P0 ( dwell for no time -- G64 should not smooth over this point )
G00 Z5.00000 ( retract )

G00 X38.12998 Y3.37501 ( rapid move to begin. )
G01 F300.00000
( Mill infeed pass 1/1 )
G01 Z-0.02000
G04 P0 ( dwell for no time -- G64 should not smooth over this point )
G01 F600.00000
G01 X38.12998 Y3.37501
G01 X38.13600 Y3.30173
G01 X38.14555 Y3.25367
G01 X38.16806 Y3.18367
G01 X38.20164 Y3.11826
G01 X38.25996 Y3.03963
G01 X38.29460 Y3.00498
G01 X38.37324 Y2.94666
G01 X38.46173 Y2.90480
G01 X38.53245 Y2.88461
G01 X38.62998 Y2.87501
G01 X40.22998 Y2.87501
G01 X40.32754 Y2.88461
G01 X40.39823 Y2.90480
G01 X40.48672 Y2.94666
G01 X40.52747 Y2.97389
G01 X40.60001 Y3.03963
G01 X40.65833 Y3.11826
G01 X40.68144 Y3.16150
G01 X40.71441 Y3.25367
G01 X40.72399 Y3.30173
G01 X40.72998 Y3.37501
G01 X40.72879 Y4.99952
G01 X40.71441 Y5.09637
G01 X40.69193 Y5.16634
G01 X40.65833 Y5.23175
G01 X40.63110 Y5.27251
G01 X40.56536 Y5.34503
G01 X40.52747 Y5.37612
G01 X40.44352 Y5.42646
G01 X40.39823 Y5.44521
G01 X40.32754 Y5.46540
G01 X40.22998 Y5.47500
G01 X38.60547 Y5.47381
G01 X38.53245 Y5.46540
G01 X38.46173 Y5.44521
G01 X38.41647 Y5.42646
G01 X38.33250 Y5.37612
G01 X38.25996 Y5.31039
G01 X38.20164 Y5.23175
G01 X38.15978 Y5.14325
G01 X38.13600 Y5.04828
G01 X38.12998 Y4.97500
G01 X38.12998 Y3.37501
G04 P0 ( dwell for no time -- G64 should not smooth over this point )
G00 Z5.00000 ( retract )

G00 X35.19118 Y6.15052 ( rapid move to begin. )
G01 F300.00000
( Mill infeed pass 1/1 )
G01 Z-0.02000
G04 P0 ( dwell for no time -- G64 should not smooth over this point )
G01 F600.00000
G01 X35.19118 Y6.15052
G01 X35.19118 Y6.19951
G01 X35.21015 Y6.37985
G01 X35.26164 Y6.55374
G01 X35.28041 Y6.59900
G01 X35.35432 Y6.73731
G01 X35.38155 Y6.77807
G01 X35.48104 Y6.89931
G01 X35.51572 Y6.93395
G01 X35.65663 Y7.04805
G01 X35.83817 Y7.14508
G01 X36.01135 Y7.19888
G01 X36.05940 Y7.20843
G01 X36.21549 Y7.22382
G01 X36.26448 Y7.22382
G01 X36.42056 Y7.20843
G01 X36.46862 Y7.19888
G01 X36.64180 Y7.14508
G01 X36.82333 Y7.04805
G01 X36.96428 Y6.93395
G01 X36.99892 Y6.89931
G01 X37.09841 Y6.77807
G01 X37.12564 Y6.73731
G01 X37.21007 Y6.57683
G01 X37.26384 Y6.40365
G01 X37.27342 Y6.35560
G01 X37.28998 Y6.17500
G01 X37.26981 Y5.97018
G01 X37.21833 Y5.79629
G01 X37.19958 Y5.75103
G01 X37.12564 Y5.61270
G01 X37.09841 Y5.57196
G01 X36.99892 Y5.45072
G01 X36.96428 Y5.41608
G01 X36.84304 Y5.31658
G01 X36.80230 Y5.28936
G01 X36.64180 Y5.20495
G01 X36.46862 Y5.15115
G01 X36.42056 Y5.14158
G01 X36.26448 Y5.12621
G01 X36.21549 Y5.12621
G01 X36.05940 Y5.14158
G01 X36.01135 Y5.15115
G01 X35.83817 Y5.20495
G01 X35.67769 Y5.28936
G01 X35.63692 Y5.31658
G01 X35.51572 Y5.41608
G01 X35.48104 Y5.45072
G01 X35.38155 Y5.57196
G01 X35.35432 Y5.61270
G01 X35.28041 Y5.75103
G01 X35.26164 Y5.79629
G01 X35.21015 Y5.97018
G01 X35.19118 Y6.15052
G01 X34.12999 Y13.37501
G01 X34.12999 Y14.97501
G01 X34.13599 Y15.04829
G01 X34.15979 Y15.14326
G01 X34.17853 Y15.18852
G01 X34.22887 Y15.27249
G01 X34.27642 Y15.32858
G01 X34.33251 Y15.37613
G01 X34.41648 Y15.42647
G01 X34.46174 Y15.44521
G01 X34.53246 Y15.46541
G01 X34.62999 Y15.47501
G01 X36.22999 Y15.47501
G01 X36.32752 Y15.46541
G01 X36.39824 Y15.44521
G01 X36.44350 Y15.42647
G01 X36.52747 Y15.37613
G01 X36.58353 Y15.32858
G01 X36.63111 Y15.27249
G01 X36.65833 Y15.23175
G01 X36.69194 Y15.16635
G01 X36.71442 Y15.09635
G01 X36.72879 Y14.99952
G01 X36.72999 Y13.37501
G01 X36.72397 Y13.30173
G01 X36.71442 Y13.25368
G01 X36.69194 Y13.18368
G01 X36.65833 Y13.11827
G01 X36.60002 Y13.03963
G01 X36.52747 Y12.97390
G01 X36.44350 Y12.92355
G01 X36.39824 Y12.90481
G01 X36.32752 Y12.88462
G01 X36.25450 Y12.87621
G01 X34.62999 Y12.87501
G01 X34.53246 Y12.88462
G01 X34.46174 Y12.90481
G01 X34.41648 Y12.92355
G01 X34.37325 Y12.94667
G01 X34.29461 Y13.00499
G01 X34.22887 Y13.07753
G01 X34.17853 Y13.16150
G01 X34.15979 Y13.20676
G01 X34.13599 Y13.30173
G01 X34.12999 Y13.37501
G01 X34.12999 Y19.97500
G01 X34.13119 Y18.35052
G01 X34.14556 Y18.25367
G01 X34.16804 Y18.18367
G01 X34.20165 Y18.11826
G01 X34.22887 Y18.07752
G01 X34.27642 Y18.02146
G01 X34.33251 Y17.97389
G01 X34.41648 Y17.92357
G01 X34.50866 Y17.89057
G01 X34.60548 Y17.87622
G01 X36.22999 Y17.87500
G01 X36.32752 Y17.88463
G01 X36.39824 Y17.90480
G01 X36.48673 Y17.94666
G01 X36.52747 Y17.97389
G01 X36.60002 Y18.03965
G01 X36.65833 Y18.11826
G01 X36.69194 Y18.18367
G01 X36.71442 Y18.25367
G01 X36.72397 Y18.30172
G01 X36.72999 Y18.37500
G01 X36.72879 Y19.99951
G01 X36.71442 Y20.09636
G01 X36.69194 Y20.16636
G01 X36.65833 Y20.23174
G01 X36.60002 Y20.31038
G01 X36.56537 Y20.34505
G01 X36.48673 Y20.40337
G01 X36.39824 Y20.44523
G01 X36.32752 Y20.46540
G01 X36.22999 Y20.47502
G01 X34.62999 Y20.47502
G01 X34.53246 Y20.46540
G01 X34.46174 Y20.44523
G01 X34.37325 Y20.40337
G01 X34.33251 Y20.37614
G01 X34.27642 Y20.32857
G01 X34.22887 Y20.27251
G01 X34.20165 Y20.23174
G01 X34.16804 Y20.16636
G01 X34.14556 Y20.09636
G01 X34.13599 Y20.04828
G01 X34.12999 Y19.97500
G01 X34.12999 Y24.97502
G01 X34.12999 Y23.37502
G01 X34.13599 Y23.30174
G01 X34.14556 Y23.25366
G01 X34.16804 Y23.18368
G01 X34.20165 Y23.11828
G01 X34.22887 Y23.07753
G01 X34.27642 Y23.02145
G01 X34.33251 Y22.97390
G01 X34.41648 Y22.92356
G01 X34.46174 Y22.90481
G01 X34.53246 Y22.88462
G01 X34.62999 Y22.87502
G01 X36.25450 Y22.87621
G01 X36.32752 Y22.88462
G01 X36.39824 Y22.90481
G01 X36.44350 Y22.92356
G01 X36.52747 Y22.97390
G01 X36.58353 Y23.02145
G01 X36.63111 Y23.07753
G01 X36.65833 Y23.11828
G01 X36.69194 Y23.18368
G01 X36.71442 Y23.25366
G01 X36.72879 Y23.35051
G01 X36.72999 Y24.97502
G01 X36.72397 Y25.04829
G01 X36.71442 Y25.09635
G01 X36.69194 Y25.16635
G01 X36.65833 Y25.23176
G01 X36.63111 Y25.27250
G01 X36.58353 Y25.32856
G01 X36.52747 Y25.37613
G01 X36.44350 Y25.42648
G01 X36.39824 Y25.44522
G01 X36.32752 Y25.46541
G01 X36.22999 Y25.47501
G01 X34.62999 Y25.47501
G01 X34.53246 Y25.46541
G01 X34.46174 Y25.44522
G01 X34.37325 Y25.40336
G01 X34.29461 Y25.34504
G01 X34.25996 Y25.31040
G01 X34.20165 Y25.23176
G01 X34.16804 Y25.16635
G01 X34.14556 Y25.09635
G01 X34.13599 Y25.04829
G01 X34.12999 Y24.97502
G01 X34.13119 Y29.99952
G01 X34.14556 Y30.09637
G01 X34.16804 Y30.16634
G01 X34.20165 Y30.23175
G01 X34.22887 Y30.27252
G01 X34.27642 Y30.32857
G01 X34.33251 Y30.37612
G01 X34.41648 Y30.42647
G01 X34.46174 Y30.44521
G01 X34.53246 Y30.46540
G01 X34.62999 Y30.47500
G01 X36.22999 Y30.47500
G01 X36.32752 Y30.46540
G01 X36.39824 Y30.44521
G01 X36.48673 Y30.40335
G01 X36.56537 Y30.34503
G01 X36.60002 Y30.31039
G01 X36.65833 Y30.23175
G01 X36.69194 Y30.16634
G01 X36.71442 Y30.09637
G01 X36.72879 Y29.99952
G01 X36.72999 Y28.37501
G01 X36.72397 Y28.30173
G01 X36.71442 Y28.25367
G01 X36.69194 Y28.18367
G01 X36.65833 Y28.11827
G01 X36.60002 Y28.03963
G01 X36.52747 Y27.97389
G01 X36.48673 Y27.94666
G01 X36.39824 Y27.90480
G01 X36.32752 Y27.88461
G01 X36.25450 Y27.87623
G01 X34.62999 Y27.87501
G01 X34.53246 Y27.88461
G01 X34.46174 Y27.90480
G01 X34.41648 Y27.92357
G01 X34.37325 Y27.94666
G01 X34.29461 Y28.00498
G01 X34.22887 Y28.07752
G01 X34.20165 Y28.11827
G01 X34.16804 Y28.18367
G01 X34.14556 Y28.25367
G01 X34.13599 Y28.30173
G01 X33.37998 Y35.37502
G01 X33.38478 Y35.32625
G01 X33.39901 Y35.27934
G01 X33.42212 Y35.23613
G01 X33.45321 Y35.19824
G01 X33.49111 Y35.16715
G01 X33.53431 Y35.14403
G01 X33.58123 Y35.12981
G01 X33.62999 Y35.12501
G01 X35.22999 Y35.12501
G01 X35.27876 Y35.12981
G01 X35.32565 Y35.14403
G01 X35.36888 Y35.16715
G01 X35.40677 Y35.19824
G01 X35.43786 Y35.23613
G01 X35.46095 Y35.27934
G01 X35.47518 Y35.32625
G01 X35.47998 Y35.37502
G01 X35.47998 Y36.97502
G01 X35.47518 Y37.02378
G01 X35.46095 Y37.07067
G01 X35.43786 Y37.11390
G01 X35.40677 Y37.15180
G01 X35.36888 Y37.18289
G01 X35.32565 Y37.20598
G01 X35.27876 Y37.22020
G01 X35.22999 Y37.22500
G01 X33.62999 Y37.22500
G01 X33.58123 Y37.22020
G01 X33.53431 Y37.20598
G01 X33.49111 Y37.18289
G01 X33.45321 Y37.15180
G01 X33.42212 Y37.11390
G01 X33.39901 Y37.07067
G01 X33.38478 Y37.02378
G01 X33.37998 Y36.97502
G01 X33.37998 Y35.37502
G04 P0 ( dwell for no time -- G64 should not smooth over this point )
G00 Z5.00000 ( retract )

G00 X30.09993 Y35.40479 ( rapid move to begin. )
G01 F300.00000
( Mill infeed pass 1/1 )
G01 Z-0.02000
G04 P0 ( dwell for no time -- G64 should not smooth over this point )
G01 F600.00000
G01 X30.09993 Y35.40479
G01 X30.07382 Y35.29135
G01 X30.05926 Y35.19333
G01 X30.04997 Y35.03504
G01 X30.04997 Y30.73502
G01 X30.05929 Y30.57676
G01 X30.07382 Y30.47874
G01 X30.09995 Y30.36523
G01 X30.14100 Y30.29865
G01 X30.21964 Y30.20472
G01 X31.20119 Y29.22314
G01 X31.22017 Y29.03018
G01 X31.27165 Y28.85629
G01 X31.29040 Y28.81103
G01 X31.36434 Y28.67270
G01 X31.39157 Y28.63196
G01 X31.49106 Y28.51072
G01 X31.52571 Y28.47608
G01 X31.66665 Y28.36198
G01 X31.84816 Y28.26495
G01 X32.02134 Y28.21115
G01 X32.06942 Y28.20158
G01 X32.22548 Y28.18621
G01 X32.27450 Y28.18621
G01 X32.43055 Y28.20158
G01 X32.47864 Y28.21115
G01 X32.62870 Y28.25667
G01 X32.67399 Y28.27544
G01 X32.81229 Y28.34935
G01 X32.85303 Y28.37658
G01 X32.97427 Y28.47608
G01 X33.00891 Y28.51072
G01 X33.10840 Y28.63196
G01 X33.13563 Y28.67270
G01 X33.20957 Y28.81103
G01 X33.22832 Y28.85629
G01 X33.27980 Y29.03018
G01 X33.29878 Y29.21052
G01 X33.29878 Y29.25951
G01 X33.27980 Y29.43985
G01 X33.22832 Y29.61374
G01 X33.20957 Y29.65900
G01 X33.13563 Y29.79731
G01 X33.10840 Y29.83807
G01 X33.00891 Y29.95931
G01 X32.97427 Y29.99395
G01 X32.83335 Y30.10805
G01 X32.67399 Y30.19459
G01 X32.62870 Y30.21336
G01 X32.47864 Y30.25888
G01 X32.43055 Y30.26843
G01 X32.26185 Y30.28382
G01 X31.49822 Y31.04498
G01 X31.43881 Y31.21077
G01 X31.38860 Y31.40350
G01 X31.35791 Y31.60838
G01 X31.35022 Y31.76520
G01 X31.35791 Y31.94168
G01 X31.38329 Y32.11986
G01 X31.42789 Y32.30335
G01 X31.49995 Y32.50820
G01 X31.52571 Y32.53395
G01 X31.66665 Y32.64805
G01 X31.84816 Y32.74508
G01 X32.02134 Y32.79888
G01 X32.06942 Y32.80843
G01 X32.22548 Y32.82382
G01 X32.27450 Y32.82382
G01 X32.43055 Y32.80843
G01 X32.47864 Y32.79888
G01 X32.62870 Y32.75336
G01 X32.67399 Y32.73459
G01 X32.81229 Y32.66067
G01 X32.85303 Y32.63345
G01 X32.97427 Y32.53395
G01 X33.00891 Y32.49931
G01 X33.10840 Y32.37807
G01 X33.13563 Y32.33731
G01 X33.20957 Y32.19900
G01 X33.22832 Y32.15374
G01 X33.27980 Y31.97985
G01 X33.29878 Y31.79951
G01 X33.29878 Y31.75052
G01 X33.28341 Y31.59443
G01 X33.27386 Y31.54638
G01 X33.22832 Y31.39629
G01 X33.20957 Y31.35103
G01 X33.13563 Y31.21270
G01 X33.10840 Y31.17196
G01 X33.00891 Y31.05072
G01 X32.97427 Y31.01608
G01 X32.85303 Y30.91658
G01 X32.81229 Y30.88935
G01 X32.67399 Y30.81544
G01 X32.62870 Y30.79667
G01 X32.47864 Y30.75115
G01 X32.43055 Y30.74158
G01 X32.27450 Y30.72621
G01 X32.22548 Y30.72621
G01 X32.06942 Y30.74158
G01 X32.02134 Y30.75115
G01 X31.84816 Y30.80495
G01 X31.66665 Y30.90198
G01 X31.54740 Y30.99827
G01 X31.49822 Y31.04498
G01 X31.43881 Y31.21077
G01 X31.38860 Y31.40350
G01 X31.35791 Y31.60838
G01 X31.35022 Y31.76520
G01 X31.35791 Y31.94168
G01 X31.38329 Y32.11986
G01 X31.42789 Y32.30335
G01 X31.49995 Y32.50820
G01 X31.49998 Y34.72437
G01 X31.90183 Y35.12623
G01 X32.07056 Y35.14159
G01 X32.11864 Y35.15114
G01 X32.26871 Y35.19669
G01 X32.31399 Y35.21543
G01 X32.47333 Y35.30197
G01 X32.61427 Y35.41607
G01 X32.64892 Y35.45074
G01 X32.74841 Y35.57195
G01 X32.77564 Y35.61271
G01 X32.84958 Y35.75102
G01 X32.86832 Y35.79630
G01 X32.91384 Y35.94637
G01 X32.92342 Y35.99442
G01 X32.93998 Y36.17502
G01 X32.92342 Y36.35559
G01 X32.91384 Y36.40364
G01 X32.86832 Y36.55373
G01 X32.84958 Y36.59902
G01 X32.77564 Y36.73732
G01 X32.74841 Y36.77807
G01 X32.64892 Y36.89930
G01 X32.61427 Y36.93395
G01 X32.47333 Y37.04807
G01 X32.29179 Y37.14510
G01 X32.11864 Y37.19887
G01 X32.07056 Y37.20844
G01 X31.91450 Y37.22381
G01 X31.86548 Y37.22381
G01 X31.70942 Y37.20844
G01 X31.66134 Y37.19887
G01 X31.48816 Y37.14510
G01 X31.32769 Y37.06067
G01 X31.28695 Y37.03344
G01 X31.16571 Y36.93395
G01 X31.13104 Y36.89930
G01 X31.03155 Y36.77807
G01 X31.00432 Y36.73732
G01 X30.93041 Y36.59902
G01 X30.91166 Y36.55373
G01 X30.86017 Y36.37987
G01 X30.84120 Y36.18691
G01 X30.21964 Y35.56537
G01 X30.14100 Y35.47141
G01 X30.09993 Y35.40479
G01 X30.09998 Y35.44086
G01 X30.20841 Y35.57195
G01 X30.23564 Y35.61271
G01 X30.30958 Y35.75102
G01 X30.32832 Y35.79630
G01 X30.37384 Y35.94637
G01 X30.38342 Y35.99442
G01 X30.39998 Y36.17502
G01 X30.38342 Y36.35559
G01 X30.37384 Y36.40364
G01 X30.32007 Y36.57682
G01 X30.23564 Y36.73732
G01 X30.20841 Y36.77807
G01 X30.10892 Y36.89930
G01 X30.07427 Y36.93395
G01 X29.93333 Y37.04807
G01 X29.77399 Y37.13461
G01 X29.72871 Y37.15335
G01 X29.57864 Y37.19887
G01 X29.53056 Y37.20844
G01 X29.37450 Y37.22381
G01 X29.32548 Y37.22381
G01 X29.16942 Y37.20844
G01 X29.12134 Y37.19887
G01 X28.94816 Y37.14510
G01 X28.78769 Y37.06067
G01 X28.74695 Y37.03344
G01 X28.62571 Y36.93395
G01 X28.59104 Y36.89930
G01 X28.49155 Y36.77807
G01 X28.46432 Y36.73732
G01 X28.39041 Y36.59902
G01 X28.37166 Y36.55373
G01 X28.32017 Y36.37987
G01 X28.30120 Y36.19953
G01 X28.30120 Y36.15051
G01 X28.32017 Y35.97017
G01 X28.37166 Y35.79630
G01 X28.39041 Y35.75102
G01 X28.46432 Y35.61271
G01 X28.49155 Y35.57195
G01 X28.59998 Y35.44180
G01 X28.59998 Y27.05502
G01 X28.61080 Y26.93297
G01 X28.62035 Y26.88492
G01 X28.64880 Y26.79112
G01 X28.66757 Y26.74585
G01 X28.71377 Y26.65939
G01 X28.74100 Y26.61865
G01 X28.81964 Y26.52469
G01 X31.20119 Y24.14314
G01 X31.22017 Y23.95018
G01 X31.27165 Y23.77629
G01 X31.29040 Y23.73103
G01 X31.36434 Y23.59270
G01 X31.39157 Y23.55196
G01 X31.49106 Y23.43072
G01 X31.52571 Y23.39608
G01 X31.66665 Y23.28198
G01 X31.82598 Y23.19544
G01 X31.87127 Y23.17667
G01 X32.02134 Y23.13115
G01 X32.06942 Y23.12158
G01 X32.22548 Y23.10621
G01 X32.27450 Y23.10621
G01 X32.43055 Y23.12158
G01 X32.47864 Y23.13115
G01 X32.62870 Y23.17667
G01 X32.67399 Y23.19544
G01 X32.83335 Y23.28198
G01 X32.97427 Y23.39608
G01 X33.00891 Y23.43072
G01 X33.10840 Y23.55196
G01 X33.13563 Y23.59270
G01 X33.20957 Y23.73103
G01 X33.22832 Y23.77629
G01 X33.27980 Y23.95018
G01 X33.29878 Y24.13052
G01 X33.29878 Y24.17951
G01 X33.27980 Y24.35985
G01 X33.22832 Y24.53374
G01 X33.20957 Y24.57900
G01 X33.13563 Y24.71731
G01 X33.10840 Y24.75807
G01 X33.00891 Y24.87931
G01 X32.97427 Y24.91395
G01 X32.83335 Y25.02805
G01 X32.65181 Y25.12508
G01 X32.47864 Y25.17888
G01 X32.43055 Y25.18843
G01 X32.26185 Y25.20382
G01 X31.47330 Y25.99234
G01 X31.54732 Y25.91832
G01 X31.64694 Y25.83658
G01 X31.68768 Y25.80935
G01 X31.84816 Y25.72495
G01 X32.02134 Y25.67115
G01 X32.06942 Y25.66158
G01 X32.22548 Y25.64621
G01 X32.27450 Y25.64621
G01 X32.43055 Y25.66158
G01 X32.47864 Y25.67115
G01 X32.65181 Y25.72495
G01 X32.83335 Y25.82198
G01 X32.97427 Y25.93608
G01 X33.00891 Y25.97072
G01 X33.10840 Y26.09196
G01 X33.13563 Y26.13270
G01 X33.20957 Y26.27103
G01 X33.22832 Y26.31629
G01 X33.27980 Y26.49018
G01 X33.29878 Y26.67052
G01 X33.29878 Y26.71951
G01 X33.27980 Y26.89985
G01 X33.22832 Y27.07374
G01 X33.20957 Y27.11900
G01 X33.13563 Y27.25731
G01 X33.10840 Y27.29807
G01 X33.00891 Y27.41931
G01 X32.97427 Y27.45395
G01 X32.83335 Y27.56805
G01 X32.67399 Y27.65459
G01 X32.62870 Y27.67336
G01 X32.47864 Y27.71888
G01 X32.43055 Y27.72843
G01 X32.27450 Y27.74382
G01 X32.22548 Y27.74382
G01 X32.06942 Y27.72843
G01 X32.02134 Y27.71888
G01 X31.84816 Y27.66508
G01 X31.66665 Y27.56805
G01 X31.52571 Y27.45395
G01 X31.49106 Y27.41931
G01 X31.39157 Y27.29807
G01 X31.36434 Y27.25731
G01 X31.29040 Y27.11900
G01 X31.27165 Y27.07374
G01 X31.22611 Y26.92365
G01 X31.21656 Y26.87560
G01 X31.20119 Y26.71951
G01 X31.20119 Y26.67052
G01 X31.21656 Y26.51443
G01 X31.22611 Y26.46638
G01 X31.27165 Y26.31629
G01 X31.29040 Y26.27103
G01 X31.36434 Y26.13270
G01 X31.39157 Y26.09196
G01 X31.47330 Y25.99234
G01 X30.09998 Y27.36569
G01 X30.09995 Y30.36523
G04 P0 ( dwell for no time -- G64 should not smooth over this point )
G00 Z5.00000 ( retract )

G00 X26.87997 Y23.54682 ( rapid move to begin. )
G01 F300.00000
( Mill infeed pass 1/1 )
G01 Z-0.02000
G04 P0 ( dwell for no time -- G64 should not smooth over this point )
G01 F600.00000
G01 X26.87997 Y23.54682
G01 X26.90880 Y23.45112
G01 X26.92757 Y23.40585
G01 X26.97377 Y23.31939
G01 X27.00100 Y23.27865
G01 X27.07964 Y23.18470
G01 X31.20119 Y19.06314
G01 X31.22017 Y18.87018
G01 X31.27165 Y18.69629
G01 X31.29040 Y18.65103
G01 X31.36434 Y18.51270
G01 X31.39157 Y18.47196
G01 X31.49106 Y18.35072
G01 X31.52571 Y18.31608
G01 X31.66665 Y18.20198
G01 X31.84816 Y18.10495
G01 X32.02134 Y18.05115
G01 X32.06942 Y18.04158
G01 X32.22548 Y18.02621
G01 X32.27450 Y18.02621
G01 X32.43055 Y18.04158
G01 X32.47864 Y18.05115
G01 X32.65181 Y18.10495
G01 X32.83335 Y18.20198
G01 X32.97427 Y18.31608
G01 X33.00891 Y18.35072
G01 X33.10840 Y18.47196
G01 X33.13563 Y18.51270
G01 X33.20957 Y18.65103
G01 X33.22832 Y18.69629
G01 X33.27386 Y18.84638
G01 X33.28341 Y18.89443
G01 X33.29878 Y19.05052
G01 X33.29878 Y19.09951
G01 X33.27980 Y19.27985
G01 X33.22832 Y19.45374
G01 X33.20957 Y19.49900
G01 X33.13563 Y19.63731
G01 X33.10840 Y19.67807
G01 X33.00891 Y19.79931
G01 X32.97427 Y19.83395
G01 X32.85303 Y19.93345
G01 X32.81229 Y19.96067
G01 X32.65181 Y20.04508
G01 X32.47864 Y20.09888
G01 X32.43055 Y20.10843
G01 X32.26185 Y20.12382
G01 X31.47333 Y20.91231
G01 X31.54730 Y20.83835
G01 X31.64694 Y20.75658
G01 X31.68768 Y20.72935
G01 X31.84816 Y20.64495
G01 X32.02134 Y20.59115
G01 X32.06942 Y20.58158
G01 X32.22548 Y20.56621
G01 X32.27450 Y20.56621
G01 X32.43055 Y20.58158
G01 X32.47864 Y20.59115
G01 X32.65181 Y20.64495
G01 X32.81229 Y20.72935
G01 X32.85303 Y20.75658
G01 X32.97427 Y20.85608
G01 X33.00891 Y20.89072
G01 X33.10840 Y21.01196
G01 X33.13563 Y21.05270
G01 X33.20957 Y21.19103
G01 X33.22832 Y21.23629
G01 X33.27980 Y21.41018
G01 X33.29878 Y21.59052
G01 X33.29878 Y21.63951
G01 X33.27980 Y21.81985
G01 X33.22832 Y21.99374
G01 X33.20957 Y22.03900
G01 X33.13563 Y22.17731
G01 X33.10840 Y22.21807
G01 X33.00891 Y22.33931
G01 X32.97427 Y22.37395
G01 X32.83335 Y22.48805
G01 X32.65181 Y22.58508
G01 X32.47864 Y22.63888
G01 X32.43055 Y22.64843
G01 X32.27450 Y22.66382
G01 X32.22548 Y22.66382
G01 X32.06942 Y22.64843
G01 X32.02134 Y22.63888
G01 X31.84816 Y22.58508
G01 X31.68768 Y22.50067
G01 X31.64694 Y22.47345
G01 X31.52571 Y22.37395
G01 X31.49106 Y22.33931
G01 X31.39157 Y22.21807
G01 X31.36434 Y22.17731
G01 X31.29040 Y22.03900
G01 X31.27165 Y21.99374
G01 X31.22611 Y21.84365
G01 X31.21656 Y21.79560
G01 X31.20119 Y21.63951
G01 X31.20119 Y21.59052
G01 X31.21656 Y21.43443
G01 X31.22611 Y21.38638
G01 X31.27165 Y21.23629
G01 X31.29040 Y21.19103
G01 X31.36434 Y21.05270
G01 X31.39157 Y21.01196
G01 X31.47333 Y20.91231
G01 X28.35998 Y24.02569
G01 X28.35998 Y35.37502
G01 X28.34916 Y35.49709
G01 X28.33961 Y35.54515
G01 X28.30288 Y35.66204
G01 X28.24618 Y35.77068
G01 X28.21896 Y35.81142
G01 X28.14032 Y35.90537
G01 X27.85878 Y36.18688
G01 X27.83981 Y36.37987
G01 X27.78832 Y36.55373
G01 X27.76958 Y36.59902
G01 X27.69564 Y36.73732
G01 X27.66841 Y36.77807
G01 X27.56892 Y36.89930
G01 X27.53427 Y36.93395
G01 X27.39333 Y37.04807
G01 X27.21179 Y37.14510
G01 X27.03864 Y37.19887
G01 X26.99056 Y37.20844
G01 X26.83450 Y37.22381
G01 X26.78548 Y37.22381
G01 X26.62942 Y37.20844
G01 X26.58134 Y37.19887
G01 X26.40816 Y37.14510
G01 X26.22663 Y37.04807
G01 X26.08571 Y36.93395
G01 X26.05104 Y36.89930
G01 X25.95155 Y36.77807
G01 X25.92432 Y36.73732
G01 X25.85041 Y36.59902
G01 X25.83166 Y36.55373
G01 X25.78017 Y36.37987
G01 X25.76120 Y36.19953
G01 X25.76120 Y36.15051
G01 X25.78017 Y35.97017
G01 X25.83166 Y35.79630
G01 X25.85041 Y35.75102
G01 X25.92432 Y35.61271
G01 X25.95155 Y35.57195
G01 X26.03321 Y35.47248
G01 X26.08657 Y35.41716
G01 X26.22663 Y35.30197
G01 X26.40816 Y35.20494
G01 X26.58134 Y35.15114
G01 X26.62942 Y35.14159
G01 X26.79879 Y35.12557
G01 X26.85998 Y35.06438
G01 X26.85998 Y34.48305
G01 X26.86996 Y34.31503
G01 X26.86996 Y23.71505
G01 X26.87997 Y23.54682
G01 X26.87997 Y20.42567
G01 X31.54727 Y15.75837
G01 X31.47333 Y15.83231
G01 X31.39157 Y15.93196
G01 X31.36434 Y15.97270
G01 X31.29040 Y16.11103
G01 X31.27165 Y16.15629
G01 X31.22017 Y16.33018
G01 X31.20119 Y16.51052
G01 X31.20119 Y16.55951
G01 X31.22017 Y16.73985
G01 X31.27165 Y16.91374
G01 X31.29040 Y16.95900
G01 X31.36434 Y17.09731
G01 X31.39157 Y17.13807
G01 X31.49106 Y17.25931
G01 X31.52571 Y17.29395
G01 X31.66665 Y17.40805
G01 X31.84816 Y17.50508
G01 X32.02134 Y17.55888
G01 X32.06942 Y17.56843
G01 X32.22548 Y17.58382
G01 X32.27450 Y17.58382
G01 X32.43055 Y17.56843
G01 X32.47864 Y17.55888
G01 X32.62870 Y17.51336
G01 X32.67399 Y17.49459
G01 X32.81229 Y17.42067
G01 X32.85303 Y17.39345
G01 X32.97427 Y17.29395
G01 X33.00891 Y17.25931
G01 X33.10840 Y17.13807
G01 X33.13563 Y17.09731
G01 X33.20957 Y16.95900
G01 X33.22832 Y16.91374
G01 X33.27980 Y16.73985
G01 X33.29878 Y16.55951
G01 X33.29878 Y16.51052
G01 X33.28341 Y16.35443
G01 X33.27386 Y16.30638
G01 X33.22832 Y16.15629
G01 X33.20957 Y16.11103
G01 X33.13563 Y15.97270
G01 X33.10840 Y15.93196
G01 X33.00891 Y15.81072
G01 X32.97427 Y15.77608
G01 X32.83335 Y15.66198
G01 X32.65181 Y15.56495
G01 X32.47864 Y15.51115
G01 X32.43055 Y15.50158
G01 X32.27450 Y15.48621
G01 X32.22548 Y15.48621
G01 X32.06942 Y15.50158
G01 X32.02134 Y15.51115
G01 X31.84816 Y15.56495
G01 X31.66665 Y15.66198
G01 X31.54727 Y15.75837
G01 X32.26185 Y15.04382
G01 X32.43055 Y15.02843
G01 X32.47864 Y15.01888
G01 X32.62870 Y14.97336
G01 X32.67399 Y14.95459
G01 X32.81229 Y14.88067
G01 X32.85303 Y14.85345
G01 X32.97427 Y14.75395
G01 X33.00891 Y14.71931
G01 X33.10840 Y14.59807
G01 X33.13563 Y14.55731
G01 X33.20957 Y14.41900
G01 X33.22832 Y14.37374
G01 X33.27386 Y14.22365
G01 X33.28341 Y14.17560
G01 X33.29878 Y14.01951
G01 X33.29878 Y13.97052
G01 X33.28341 Y13.81443
G01 X33.27386 Y13.76638
G01 X33.22832 Y13.61629
G01 X33.20957 Y13.57103
G01 X33.13563 Y13.43270
G01 X33.10840 Y13.39196
G01 X33.00891 Y13.27072
G01 X32.97427 Y13.23608
G01 X32.85303 Y13.13658
G01 X32.81229 Y13.10935
G01 X32.65181 Y13.02495
G01 X32.47864 Y12.97115
G01 X32.43055 Y12.96158
G01 X32.27450 Y12.94621
G01 X32.22548 Y12.94621
G01 X32.06942 Y12.96158
G01 X32.02134 Y12.97115
G01 X31.87127 Y13.01667
G01 X31.82598 Y13.03544
G01 X31.66665 Y13.12198
G01 X31.52571 Y13.23608
G01 X31.49106 Y13.27072
G01 X31.39157 Y13.39196
G01 X31.36434 Y13.43270
G01 X31.29040 Y13.57103
G01 X31.27165 Y13.61629
G01 X31.22017 Y13.79018
G01 X31.20119 Y13.98314
G01 X25.59963 Y19.58468
G01 X25.52099 Y19.67863
G01 X25.49376 Y19.71937
G01 X25.43707 Y19.82801
G01 X25.39437 Y19.96870
G01 X25.38117 Y20.09052
G01 X25.37992 Y20.88173
G01 X25.44111 Y21.05077
G01 X25.49133 Y21.24353
G01 X25.51990 Y21.42702
G01 X25.52973 Y21.62483
G01 X25.51990 Y21.80304
G01 X25.49133 Y21.98650
G01 X25.44111 Y22.17929
G01 X25.37995 Y22.34827
G01 X25.37992 Y23.42173
G01 X25.44111 Y23.59077
G01 X25.49133 Y23.78353
G01 X25.51990 Y23.96702
G01 X25.52973 Y24.16483
G01 X25.51990 Y24.34304
G01 X25.49133 Y24.52650
G01 X25.44111 Y24.71929
G01 X25.37995 Y24.88827
G01 X25.37992 Y25.96173
G01 X25.44111 Y26.13077
G01 X25.49133 Y26.32353
G01 X25.51990 Y26.50702
G01 X25.52973 Y26.70483
G01 X25.51990 Y26.88304
G01 X25.49133 Y27.06650
G01 X25.44111 Y27.25929
G01 X25.37995 Y27.42827
G01 X25.37992 Y28.50173
G01 X25.44111 Y28.67077
G01 X25.49133 Y28.86353
G01 X25.51990 Y29.04702
G01 X25.52973 Y29.24483
G01 X25.51990 Y29.42304
G01 X25.49133 Y29.60650
G01 X25.44111 Y29.79929
G01 X25.37995 Y29.96827
G01 X25.37995 Y30.72502
G01 X25.47372 Y30.82504
G01 X25.50497 Y30.87503
G01 X25.52371 Y30.92502
G01 X25.52996 Y30.97500
G01 X25.52996 Y32.57500
G01 X25.52371 Y32.62501
G01 X25.50497 Y32.67500
G01 X25.47372 Y32.72499
G01 X25.37995 Y32.82501
G01 X25.37997 Y34.00436
G01 X24.25813 Y35.12623
G01 X24.08942 Y35.14159
G01 X24.04134 Y35.15114
G01 X23.86816 Y35.20494
G01 X23.68663 Y35.30197
G01 X23.54571 Y35.41607
G01 X23.51104 Y35.45074
G01 X23.41155 Y35.57195
G01 X23.38432 Y35.61271
G01 X23.31041 Y35.75102
G01 X23.29166 Y35.79630
G01 X23.24017 Y35.97017
G01 X23.22120 Y36.15051
G01 X23.22120 Y36.19953
G01 X23.23657 Y36.35559
G01 X23.24612 Y36.40364
G01 X23.29166 Y36.55373
G01 X23.31041 Y36.59902
G01 X23.38432 Y36.73732
G01 X23.41155 Y36.77807
G01 X23.51104 Y36.89930
G01 X23.54571 Y36.93395
G01 X23.68663 Y37.04807
G01 X23.86816 Y37.14510
G01 X24.04134 Y37.19887
G01 X24.08942 Y37.20844
G01 X24.24548 Y37.22381
G01 X24.29450 Y37.22381
G01 X24.45056 Y37.20844
G01 X24.49864 Y37.19887
G01 X24.64871 Y37.15335
G01 X24.69399 Y37.13461
G01 X24.85333 Y37.04807
G01 X24.99427 Y36.93395
G01 X25.02892 Y36.89930
G01 X25.12841 Y36.77807
G01 X25.15564 Y36.73732
G01 X25.22958 Y36.59902
G01 X25.24832 Y36.55373
G01 X25.29981 Y36.37987
G01 X25.31878 Y36.18688
G01 X26.67677 Y34.82717
G01 X26.73895 Y34.75140
G01 X26.76618 Y34.71066
G01 X26.81238 Y34.62420
G01 X26.83115 Y34.57893
G01 X26.85960 Y34.48513
G01 X26.86455 Y34.43667
G01 X26.85960 Y34.48513
G01 X26.83115 Y34.57893
G01 X26.81238 Y34.62420
G01 X26.76618 Y34.71066
G01 X26.73895 Y34.75140
G01 X26.67677 Y34.82717
G01 X25.31878 Y36.18688
G01 X25.30342 Y36.35559
G01 X25.29384 Y36.40364
G01 X25.24832 Y36.55373
G01 X25.22958 Y36.59902
G01 X25.15564 Y36.73732
G01 X25.12841 Y36.77807
G01 X25.02892 Y36.89930
G01 X24.99427 Y36.93395
G01 X24.85333 Y37.04807
G01 X24.67179 Y37.14510
G01 X24.49864 Y37.19887
G01 X24.45056 Y37.20844
G01 X24.29450 Y37.22381
G01 X24.24548 Y37.22381
G01 X24.08942 Y37.20844
G01 X24.04134 Y37.19887
G01 X23.86816 Y37.14510
G01 X23.68663 Y37.04807
G01 X23.54571 Y36.93395
G01 X23.51104 Y36.89930
G01 X23.41155 Y36.77807
G01 X23.38432 Y36.73732
G01 X23.31041 Y36.59902
G01 X23.29166 Y36.55373
G01 X23.24017 Y36.37987
G01 X23.22120 Y36.19953
G01 X23.22120 Y36.15051
G01 X23.23657 Y35.99442
G01 X23.24612 Y35.94637
G01 X23.29166 Y35.79630
G01 X23.31041 Y35.75102
G01 X23.38432 Y35.61271
G01 X23.41155 Y35.57195
G01 X23.51104 Y35.45074
G01 X23.54571 Y35.41607
G01 X23.66695 Y35.31657
G01 X23.70769 Y35.28935
G01 X23.84599 Y35.21543
G01 X23.89128 Y35.19669
G01 X24.04134 Y35.15114
G01 X24.08942 Y35.14159
G01 X24.25813 Y35.12623
G01 X25.37997 Y34.00436
G01 X25.37995 Y32.82501
G01 X23.82999 Y32.82501
G01 X23.78122 Y32.82021
G01 X23.73431 Y32.80599
G01 X23.69110 Y32.78287
G01 X23.65320 Y32.75178
G01 X23.62211 Y32.71391
G01 X23.59903 Y32.67068
G01 X23.58480 Y32.62379
G01 X23.57998 Y32.57500
G01 X23.57998 Y30.97500
G01 X23.58480 Y30.92624
G01 X23.59903 Y30.87935
G01 X23.62211 Y30.83612
G01 X23.65320 Y30.79824
G01 X23.69110 Y30.76716
G01 X23.73431 Y30.74404
G01 X23.78122 Y30.72982
G01 X23.82999 Y30.72502
G01 X25.37995 Y30.72502
G01 X25.37995 Y29.96827
G01 X25.35427 Y29.99395
G01 X25.23303 Y30.09345
G01 X25.19229 Y30.12067
G01 X25.03181 Y30.20508
G01 X24.85864 Y30.25888
G01 X24.81055 Y30.26843
G01 X24.65450 Y30.28382
G01 X24.60548 Y30.28382
G01 X24.44942 Y30.26843
G01 X24.40134 Y30.25888
G01 X24.22816 Y30.20508
G01 X24.06768 Y30.12067
G01 X24.02694 Y30.09345
G01 X23.90571 Y29.99395
G01 X23.87106 Y29.95931
G01 X23.77157 Y29.83807
G01 X23.74434 Y29.79731
G01 X23.67040 Y29.65900
G01 X23.65165 Y29.61374
G01 X23.60017 Y29.43985
G01 X23.58119 Y29.25951
G01 X23.58119 Y29.21052
G01 X23.59656 Y29.05443
G01 X23.60611 Y29.00638
G01 X23.65165 Y28.85629
G01 X23.67040 Y28.81103
G01 X23.74434 Y28.67270
G01 X23.77157 Y28.63196
G01 X23.87106 Y28.51072
G01 X23.90571 Y28.47608
G01 X24.04665 Y28.36198
G01 X24.22816 Y28.26495
G01 X24.40134 Y28.21115
G01 X24.44942 Y28.20158
G01 X24.60548 Y28.18621
G01 X24.65450 Y28.18621
G01 X24.81055 Y28.20158
G01 X24.85864 Y28.21115
G01 X25.03181 Y28.26495
G01 X25.19229 Y28.34935
G01 X25.23303 Y28.37658
G01 X25.35427 Y28.47608
G01 X25.37992 Y28.50173
G01 X25.37995 Y27.42827
G01 X25.35427 Y27.45395
G01 X25.23303 Y27.55345
G01 X25.19229 Y27.58067
G01 X25.03181 Y27.66508
G01 X24.85864 Y27.71888
G01 X24.81055 Y27.72843
G01 X24.65450 Y27.74382
G01 X24.60548 Y27.74382
G01 X24.44942 Y27.72843
G01 X24.40134 Y27.71888
G01 X24.22816 Y27.66508
G01 X24.04665 Y27.56805
G01 X23.90571 Y27.45395
G01 X23.87106 Y27.41931
G01 X23.77157 Y27.29807
G01 X23.74434 Y27.25731
G01 X23.67040 Y27.11900
G01 X23.65165 Y27.07374
G01 X23.60611 Y26.92365
G01 X23.59656 Y26.87560
G01 X23.58119 Y26.71951
G01 X23.58119 Y26.67052
G01 X23.60017 Y26.49018
G01 X23.65165 Y26.31629
G01 X23.67040 Y26.27103
G01 X23.74434 Y26.13270
G01 X23.77157 Y26.09196
G01 X23.87106 Y25.97072
G01 X23.90571 Y25.93608
G01 X24.02694 Y25.83658
G01 X24.06768 Y25.80935
G01 X24.22816 Y25.72495
G01 X24.40134 Y25.67115
G01 X24.44942 Y25.66158
G01 X24.60548 Y25.64621
G01 X24.65450 Y25.64621
G01 X24.81055 Y25.66158
G01 X24.85864 Y25.67115
G01 X25.03181 Y25.72495
G01 X25.19229 Y25.80935
G01 X25.23303 Y25.83658
G01 X25.35427 Y25.93608
G01 X25.37992 Y25.96173
G01 X25.37995 Y24.88827
G01 X25.35427 Y24.91395
G01 X25.21335 Y25.02805
G01 X25.05399 Y25.11459
G01 X25.00870 Y25.13336
G01 X24.85864 Y25.17888
G01 X24.81055 Y25.18843
G01 X24.65450 Y25.20382
G01 X24.60548 Y25.20382
G01 X24.44942 Y25.18843
G01 X24.40134 Y25.17888
G01 X24.25127 Y25.13336
G01 X24.20598 Y25.11459
G01 X24.04665 Y25.02805
G01 X23.90571 Y24.91395
G01 X23.87106 Y24.87931
G01 X23.77157 Y24.75807
G01 X23.74434 Y24.71731
G01 X23.67040 Y24.57900
G01 X23.65165 Y24.53374
G01 X23.60611 Y24.38365
G01 X23.59656 Y24.33560
G01 X23.58119 Y24.17951
G01 X23.58119 Y24.13052
G01 X23.60017 Y23.95018
G01 X23.65165 Y23.77629
G01 X23.67040 Y23.73103
G01 X23.74434 Y23.59270
G01 X23.77157 Y23.55196
G01 X23.87106 Y23.43072
G01 X23.90571 Y23.39608
G01 X24.02694 Y23.29658
G01 X24.06768 Y23.26935
G01 X24.22816 Y23.18495
G01 X24.40134 Y23.13115
G01 X24.44942 Y23.12158
G01 X24.60548 Y23.10621
G01 X24.65450 Y23.10621
G01 X24.81055 Y23.12158
G01 X24.85864 Y23.13115
G01 X25.03181 Y23.18495
G01 X25.19229 Y23.26935
G01 X25.23303 Y23.29658
G01 X25.35427 Y23.39608
G01 X25.37992 Y23.42173
G01 X25.37995 Y22.34827
G01 X25.35427 Y22.37395
G01 X25.21335 Y22.48805
G01 X25.05399 Y22.57459
G01 X25.00870 Y22.59336
G01 X24.85864 Y22.63888
G01 X24.81055 Y22.64843
G01 X24.65450 Y22.66382
G01 X24.60548 Y22.66382
G01 X24.44942 Y22.64843
G01 X24.40134 Y22.63888
G01 X24.25127 Y22.59336
G01 X24.20598 Y22.57459
G01 X24.04665 Y22.48805
G01 X23.90571 Y22.37395
G01 X23.87106 Y22.33931
G01 X23.77157 Y22.21807
G01 X23.74434 Y22.17731
G01 X23.67040 Y22.03900
G01 X23.65165 Y21.99374
G01 X23.60611 Y21.84365
G01 X23.59656 Y21.79560
G01 X23.58119 Y21.63951
G01 X23.58119 Y21.59052
G01 X23.59656 Y21.43443
G01 X23.60611 Y21.38638
G01 X23.65165 Y21.23629
G01 X23.67040 Y21.19103
G01 X23.74434 Y21.05270
G01 X23.77157 Y21.01196
G01 X23.87106 Y20.89072
G01 X23.90571 Y20.85608
G01 X24.04665 Y20.74198
G01 X24.20598 Y20.65544
G01 X24.25127 Y20.63667
G01 X24.40134 Y20.59115
G01 X24.44942 Y20.58158
G01 X24.60548 Y20.56621
G01 X24.65450 Y20.56621
G01 X24.81055 Y20.58158
G01 X24.85864 Y20.59115
G01 X25.03181 Y20.64495
G01 X25.19229 Y20.72935
G01 X25.23303 Y20.75658
G01 X25.35427 Y20.85608
G01 X25.37992 Y20.88173
G04 P0 ( dwell for no time -- G64 should not smooth over this point )
G00 Z5.00000 ( retract )

G00 X39.12998 Y14.97501 ( rapid move to begin. )
G01 F300.00000
( Mill infeed pass 1/1 )
G01 Z-0.02000
G04 P0 ( dwell for no time -- G64 should not smooth over this point )
G01 F600.00000
G01 X39.12998 Y14.97501
G01 X39.13600 Y15.04829
G01 X39.14555 Y15.09635
G01 X39.16806 Y15.16635
G01 X39.20164 Y15.23175
G01 X39.25995 Y15.31039
G01 X39.29460 Y15.34504
G01 X39.37324 Y15.40336
G01 X39.46176 Y15.44521
G01 X39.53245 Y15.46541
G01 X39.62998 Y15.47501
G01 X41.22998 Y15.47501
G01 X41.32754 Y15.46541
G01 X41.39823 Y15.44521
G01 X41.44352 Y15.42647
G01 X41.52749 Y15.37613
G01 X41.60001 Y15.31039
G01 X41.65832 Y15.23175
G01 X41.68144 Y15.18852
G01 X41.71441 Y15.09635
G01 X41.72398 Y15.04829
G01 X41.72998 Y14.97501
G01 X41.72878 Y13.35050
G01 X41.71441 Y13.25368
G01 X41.69193 Y13.18368
G01 X41.65832 Y13.11827
G01 X41.63110 Y13.07753
G01 X41.58355 Y13.02147
G01 X41.52749 Y12.97390
G01 X41.44352 Y12.92355
G01 X41.39823 Y12.90481
G01 X41.32754 Y12.88462
G01 X41.25449 Y12.87621
G01 X39.62998 Y12.87501
G01 X39.55670 Y12.88101
G01 X39.46176 Y12.90481
G01 X39.41647 Y12.92355
G01 X39.33250 Y12.97390
G01 X39.25995 Y13.03963
G01 X39.20164 Y13.11827
G01 X39.16806 Y13.18368
G01 X39.14555 Y13.25368
G01 X39.13600 Y13.30173
G01 X39.12998 Y13.37501
G01 X39.12998 Y18.37500
G01 X39.13600 Y18.30172
G01 X39.14555 Y18.25367
G01 X39.16806 Y18.18367
G01 X39.20164 Y18.11826
G01 X39.22886 Y18.07752
G01 X39.27644 Y18.02146
G01 X39.33250 Y17.97389
G01 X39.37324 Y17.94666
G01 X39.46176 Y17.90480
G01 X39.53245 Y17.88463
G01 X39.62998 Y17.87500
G01 X41.22998 Y17.87500
G01 X41.32754 Y17.88463
G01 X41.39823 Y17.90480
G01 X41.48672 Y17.94666
G01 X41.56536 Y18.00498
G01 X41.63110 Y18.07752
G01 X41.68144 Y18.16149
G01 X41.70018 Y18.20678
G01 X41.72398 Y18.30172
G01 X41.72998 Y18.37500
G01 X41.72998 Y19.97500
G01 X41.72398 Y20.04828
G01 X41.71441 Y20.09636
G01 X41.69193 Y20.16636
G01 X41.65832 Y20.23174
G01 X41.63110 Y20.27251
G01 X41.58355 Y20.32857
G01 X41.52749 Y20.37614
G01 X41.48672 Y20.40337
G01 X41.39823 Y20.44523
G01 X41.32754 Y20.46540
G01 X41.22998 Y20.47502
G01 X39.60550 Y20.47381
G01 X39.50865 Y20.45945
G01 X39.41647 Y20.42646
G01 X39.33250 Y20.37614
G01 X39.27644 Y20.32857
G01 X39.22886 Y20.27251
G01 X39.20164 Y20.23174
G01 X39.16806 Y20.16636
G01 X39.14555 Y20.09636
G01 X39.13120 Y19.99951
G01 X39.12998 Y18.37500
G01 X39.12998 Y23.37502
G01 X39.13600 Y23.30174
G01 X39.14555 Y23.25366
G01 X39.16806 Y23.18368
G01 X39.20164 Y23.11828
G01 X39.22886 Y23.07753
G01 X39.27644 Y23.02145
G01 X39.33250 Y22.97390
G01 X39.41647 Y22.92356
G01 X39.46176 Y22.90481
G01 X39.53245 Y22.88462
G01 X39.62998 Y22.87502
G01 X41.22998 Y22.87502
G01 X41.32754 Y22.88462
G01 X41.39823 Y22.90481
G01 X41.48672 Y22.94667
G01 X41.52749 Y22.97390
G01 X41.60001 Y23.03964
G01 X41.65832 Y23.11828
G01 X41.69193 Y23.18368
G01 X41.71441 Y23.25366
G01 X41.72398 Y23.30174
G01 X41.72998 Y23.37502
G01 X41.72998 Y24.97502
G01 X41.72398 Y25.04829
G01 X41.71441 Y25.09635
G01 X41.69193 Y25.16635
G01 X41.65832 Y25.23176
G01 X41.60001 Y25.31040
G01 X41.52749 Y25.37613
G01 X41.44352 Y25.42648
G01 X41.39823 Y25.44522
G01 X41.32754 Y25.46541
G01 X41.22998 Y25.47501
G01 X39.60550 Y25.47382
G01 X39.53245 Y25.46541
G01 X39.46176 Y25.44522
G01 X39.41647 Y25.42648
G01 X39.33250 Y25.37613
G01 X39.27644 Y25.32856
G01 X39.22886 Y25.27250
G01 X39.20164 Y25.23176
G01 X39.16806 Y25.16635
G01 X39.14555 Y25.09635
G01 X39.13120 Y24.99953
G01 X39.12998 Y23.37502
G01 X39.12998 Y29.97501
G01 X39.13600 Y30.04828
G01 X39.14555 Y30.09637
G01 X39.17855 Y30.18854
G01 X39.22886 Y30.27252
G01 X39.27644 Y30.32857
G01 X39.33250 Y30.37612
G01 X39.41647 Y30.42647
G01 X39.46176 Y30.44521
G01 X39.53245 Y30.46540
G01 X39.60550 Y30.47381
G01 X41.22998 Y30.47500
G01 X41.30326 Y30.46901
G01 X41.39823 Y30.44521
G01 X41.48672 Y30.40335
G01 X41.52749 Y30.37612
G01 X41.58355 Y30.32857
G01 X41.63110 Y30.27252
G01 X41.65832 Y30.23175
G01 X41.69193 Y30.16634
G01 X41.71441 Y30.09637
G01 X41.72878 Y29.99952
G01 X41.72998 Y28.37501
G01 X41.72398 Y28.30173
G01 X41.71441 Y28.25367
G01 X41.68144 Y28.16150
G01 X41.65832 Y28.11827
G01 X41.60001 Y28.03963
G01 X41.52749 Y27.97389
G01 X41.48672 Y27.94666
G01 X41.39823 Y27.90480
G01 X41.32754 Y27.88461
G01 X41.22998 Y27.87501
G01 X39.62998 Y27.87501
G01 X39.53245 Y27.88461
G01 X39.46176 Y27.90480
G01 X39.37324 Y27.94666
G01 X39.29460 Y28.00498
G01 X39.25995 Y28.03963
G01 X39.20164 Y28.11827
G01 X39.16806 Y28.18367
G01 X39.14555 Y28.25367
G01 X39.13600 Y28.30173
G01 X39.12998 Y28.37501
G04 P0 ( dwell for no time -- G64 should not smooth over this point )
G00 Z5.00000 ( retract )

G00 X42.37999 Y30.97500 ( rapid move to begin. )
G01 F300.00000
( Mill infeed pass 1/1 )
G01 Z-0.02000
G04 P0 ( dwell for no time -- G64 should not smooth over this point )
G01 F600.00000
G01 X42.37999 Y30.97500
G01 X42.37999 Y32.57500
G01 X42.38479 Y32.62379
G01 X42.39901 Y32.67068
G01 X42.42213 Y32.71391
G01 X42.45322 Y32.75178
G01 X42.49109 Y32.78287
G01 X42.53432 Y32.80599
G01 X42.58121 Y32.82021
G01 X42.62998 Y32.82501
G01 X44.23000 Y32.82501
G01 X44.27877 Y32.82021
G01 X44.32565 Y32.80599
G01 X44.36888 Y32.78287
G01 X44.40676 Y32.75178
G01 X44.43785 Y32.71391
G01 X44.46096 Y32.67068
G01 X44.47518 Y32.62379
G01 X44.47998 Y32.57500
G01 X44.47998 Y30.97500
G01 X44.47518 Y30.92624
G01 X44.46096 Y30.87935
G01 X44.43785 Y30.83612
G01 X44.40676 Y30.79824
G01 X44.36888 Y30.76716
G01 X44.32565 Y30.74404
G01 X44.27877 Y30.72982
G01 X44.23000 Y30.72502
G01 X42.62998 Y30.72502
G01 X42.58121 Y30.72982
G01 X42.53432 Y30.74404
G01 X42.49109 Y30.76716
G01 X42.45322 Y30.79824
G01 X42.42213 Y30.83612
G01 X42.39901 Y30.87935
G01 X42.38479 Y30.92624
G01 X42.37999 Y30.97500
G01 X42.38118 Y29.21052
G01 X42.38118 Y29.25951
G01 X42.40016 Y29.43985
G01 X42.45164 Y29.61374
G01 X42.47041 Y29.65900
G01 X42.54433 Y29.79731
G01 X42.57156 Y29.83807
G01 X42.67105 Y29.95931
G01 X42.70569 Y29.99395
G01 X42.84664 Y30.10805
G01 X43.02817 Y30.20508
G01 X43.20135 Y30.25888
G01 X43.24941 Y30.26843
G01 X43.40549 Y30.28382
G01 X43.45448 Y30.28382
G01 X43.61057 Y30.26843
G01 X43.65862 Y30.25888
G01 X43.83180 Y30.20508
G01 X44.01334 Y30.10805
G01 X44.15428 Y29.99395
G01 X44.18893 Y29.95931
G01 X44.28842 Y29.83807
G01 X44.31565 Y29.79731
G01 X44.38956 Y29.65900
G01 X44.40833 Y29.61374
G01 X44.45982 Y29.43985
G01 X44.47879 Y29.25951
G01 X44.47879 Y29.21052
G01 X44.45982 Y29.03018
G01 X44.40833 Y28.85629
G01 X44.38956 Y28.81103
G01 X44.31565 Y28.67270
G01 X44.28842 Y28.63196
G01 X44.18893 Y28.51072
G01 X44.15428 Y28.47608
G01 X44.01334 Y28.36198
G01 X43.83180 Y28.26495
G01 X43.65862 Y28.21115
G01 X43.61057 Y28.20158
G01 X43.45448 Y28.18621
G01 X43.40549 Y28.18621
G01 X43.24941 Y28.20158
