( pcb2gcode 2.5.0 )
( Software-independent Gcode )

G94 ( Millimeters per minute feed rate. )
G21 ( Units == Millimeters. )

G90 ( Absolute coordinates. )
G00 S2000 ( RPM spindle speed. )
G64 P0.00500 ( set maximum deviation from commanded toolpath )
G01 F300.00000 ( Feedrate. )


G00 Z10.00000 (Retract to tool change height)
T1
M5      (Spindle stop.)
G04 P1.00000 (Wait for spindle to stop)
(MSG, Change tool bit to cutter diameter 1.50000mm)
M6      (Tool change.)
M0      (Temporary machine stop.)
M3 ( Spindle on clockwise. )
G04 P1.00000 (Wait for spindle to get up to speed)
G04 P0 ( dwell for no time -- G64 should not smooth over this point )
G00 Z5.00000 ( retract )

G00 X0.77497 Y1.52502 ( rapid move to begin. )
G01 Z-0.20000 F150.00000 ( plunge. )
G04 P0 ( dwell for no time -- G64 should not smooth over this point )
G01 F300.00000
G01 X0.77497 Y39.52502
G01 X0.78937 Y39.67135
G01 X0.83207 Y39.81204
G01 X0.90136 Y39.94171
G01 X0.99463 Y40.05538
G01 X1.10829 Y40.14865
G01 X1.23796 Y40.21794
G01 X1.37865 Y40.26063
G01 X1.52498 Y40.27504
G01 X58.52499 Y40.27504
G01 X58.67129 Y40.26063
G01 X58.81199 Y40.21794
G01 X58.94165 Y40.14865
G01 X59.05532 Y40.05538
G01 X59.14859 Y39.94171
G01 X59.21788 Y39.81204
G01 X59.26057 Y39.67135
G01 X59.27498 Y39.52502
G01 X59.27498 Y1.52502
G01 X59.26057 Y1.37872
G01 X59.21788 Y1.23803
G01 X59.14859 Y1.10836
G01 X59.05532 Y0.99470
G01 X58.94165 Y0.90143
G01 X58.81199 Y0.83214
G01 X58.67129 Y0.78944
G01 X58.52499 Y0.77504
G01 X1.52498 Y0.77504
G01 X1.37865 Y0.78944
G01 X1.23796 Y0.83214
G01 X1.10829 Y0.90143
G01 X0.99463 Y0.99470
G01 X0.90136 Y1.10836
G01 X0.83207 Y1.23803
G01 X0.78937 Y1.37872
G01 X0.77497 Y1.52502
G01 Z-0.40000 F150.00000 ( plunge. )
G04 P0 ( dwell for no time -- G64 should not smooth over this point )
G01 F300.00000
G01 X0.77497 Y39.52502
G01 X0.78937 Y39.67135
G01 X0.83207 Y39.81204
G01 X0.90136 Y39.94171
G01 X0.99463 Y40.05538
G01 X1.10829 Y40.14865
G01 X1.23796 Y40.21794
G01 X1.37865 Y40.26063
G01 X1.52498 Y40.27504
G01 X58.52499 Y40.27504
G01 X58.67129 Y40.26063
G01 X58.81199 Y40.21794
G01 X58.94165 Y40.14865
G01 X59.05532 Y40.05538
G01 X59.14859 Y39.94171
G01 X59.21788 Y39.81204
G01 X59.26057 Y39.67135
G01 X59.27498 Y39.52502
G01 X59.27498 Y1.52502
G01 X59.26057 Y1.37872
G01 X59.21788 Y1.23803
G01 X59.14859 Y1.10836
G01 X59.05532 Y0.99470
G01 X58.94165 Y0.90143
G01 X58.81199 Y0.83214
G01 X58.67129 Y0.78944
G01 X58.52499 Y0.77504
G01 X1.52498 Y0.77504
G01 X1.37865 Y0.78944
G01 X1.23796 Y0.83214
G01 X1.10829 Y0.90143
G01 X0.99463 Y0.99470
G01 X0.90136 Y1.10836
G01 X0.83207 Y1.23803
G01 X0.78937 Y1.37872
G01 X0.77497 Y1.52502
G01 Z-0.60000 F150.00000 ( plunge. )
G04 P0 ( dwell for no time -- G64 should not smooth over this point )
G01 F300.00000
G01 X0.77497 Y39.52502
G01 X0.78937 Y39.67135
G01 X0.83207 Y39.81204
G01 X0.90136 Y39.94171
G01 X0.99463 Y40.05538
G01 X1.10829 Y40.14865
G01 X1.23796 Y40.21794
G01 X1.37865 Y40.26063
G01 X1.52498 Y40.27504
G01 X58.52499 Y40.27504
G01 X58.67129 Y40.26063
G01 X58.81199 Y40.21794
G01 X58.94165 Y40.14865
G01 X59.05532 Y40.05538
G01 X59.14859 Y39.94171
G01 X59.21788 Y39.81204
G01 X59.26057 Y39.67135
G01 X59.27498 Y39.52502
G01 X59.27498 Y1.52502
G01 X59.26057 Y1.37872
G01 X59.21788 Y1.23803
G01 X59.14859 Y1.10836
G01 X59.05532 Y0.99470
G01 X58.94165 Y0.90143
G01 X58.81199 Y0.83214
G01 X58.67129 Y0.78944
G01 X58.52499 Y0.77504
G01 X1.52498 Y0.77504
G01 X1.37865 Y0.78944
G01 X1.23796 Y0.83214
G01 X1.10829 Y0.90143
G01 X0.99463 Y0.99470
G01 X0.90136 Y1.10836
G01 X0.83207 Y1.23803
G01 X0.78937 Y1.37872
G01 X0.77497 Y1.52502
G01 Z-0.80000 F150.00000 ( plunge. )
G04 P0 ( dwell for no time -- G64 should not smooth over this point )
G01 F300.00000
G01 X0.77497 Y39.52502
G01 X0.78937 Y39.67135
G01 X0.83207 Y39.81204
G01 X0.90136 Y39.94171
G01 X0.99463 Y40.05538
G01 X1.10829 Y40.14865
G01 X1.23796 Y40.21794
G01 X1.37865 Y40.26063
G01 X1.52498 Y40.27504
G01 X58.52499 Y40.27504
G01 X58.67129 Y40.26063
G01 X58.81199 Y40.21794
G01 X58.94165 Y40.14865
G01 X59.05532 Y40.05538
G01 X59.14859 Y39.94171
G01 X59.21788 Y39.81204
G01 X59.26057 Y39.67135
G01 X59.27498 Y39.52502
G01 X59.27498 Y1.52502
G01 X59.26057 Y1.37872
G01 X59.21788 Y1.23803
G01 X59.14859 Y1.10836
G01 X59.05532 Y0.99470
G01 X58.94165 Y0.90143
G01 X58.81199 Y0.83214
G01 X58.67129 Y0.78944
G01 X58.52499 Y0.77504
G01 X1.52498 Y0.77504
G01 X1.37865 Y0.78944
G01 X1.23796 Y0.83214
G01 X1.10829 Y0.90143
G01 X0.99463 Y0.99470
G01 X0.90136 Y1.10836
G01 X0.83207 Y1.23803
G01 X0.78937 Y1.37872
G01 X0.77497 Y1.52502

G04 P0 ( dwell for no time -- G64 should not smooth over this point )
G00 Z10.000000 ( retract )

M5 ( Spindle off. )
G04 P1.000000
M9 ( Coolant off. )
M2 ( Program end. )

